%
(Dominion Wheel 23.1.5 Plywood)
(Machine)
(  vendor: Carbide3D)
(  model: Shapeoko 4 XXL)
(  description: Shapeoko 4 XXL)
(T1  D=0.25 CR=0 - ZMIN=0 - flat end mill)
G90
G17
G20
G28 G91 Z0
G90

(2D Pocket5)
T1 M6
S22000 M3
G54
G0 X10.0448 Y-0.4935
Z1.3894
Z1.2037
G1 Z0.5297 F15
G19 G3 Y-0.4685 Z0.5047 J0.025 K0 F150
G1 Y-0.0796
Y1.9984 F200
X10.0445 Y2 F50
X10.0438 Y2.0015
X10.0426 Y2.0026
X10.0412 Y2.0034
X10.0396 Y2.0036
X10.0392
X10.0376 Y2.0034
X10.0361 Y2.0026
X10.035 Y2.0015
X10.0342 Y2
X10.034 Y1.9984
Y-0.0798 F200
G17 G3 X10.0465 Y-0.0923 I0.0125 J0
G1 X10.1647 Y-0.0919
G3 X10.1772 Y-0.0794 I0 J0.0125
G1 Y2.1232
G3 X10.1644 Y2.136 I-0.0128 J0
G1 X9.9143
G3 X9.9015 Y2.1232 I0 J-0.0128
G1 X9.9016 Y-0.0794
G3 X9.9142 Y-0.0919 I0.0125 J0
G1 X10.3108 Y-0.0884
G3 X10.3232 Y-0.0759 I-0.0001 J0.0125
G1 Y2.2692
G3 X10.3104 Y2.282 I-0.0128 J0
G1 X9.7683
G3 X9.7555 Y2.2692 I0 J-0.0128
G1 X9.7556 Y-0.0761
G3 X9.7682 Y-0.0886 I0.0125 J0
G1 X10.4568 Y-0.083
G3 X10.4692 Y-0.0705 I-0.0001 J0.0125
G1 Y2.4152
G3 X10.4564 Y2.428 I-0.0128 J0
G1 X9.6223
G3 X9.6095 Y2.4152 I0 J-0.0128
G1 X9.6096 Y-0.0707
G3 X9.6221 Y-0.0832 I0.0125 J0
G1 X10.6027 Y-0.0775
G3 X10.6152 Y-0.065 I0 J0.0125
G1 Y2.5612
G3 X10.6024 Y2.574 I-0.0128 J0
G1 X9.4763
G3 X9.4635 Y2.5612 I0 J-0.0128
G1 X9.4636 Y-0.0649
G3 X9.4762 Y-0.0774 I0.0125 J0
G1 X10.7488 Y-0.0662
G3 X10.7612 Y-0.0537 I-0.0001 J0.0125
G1 Y2.7072
G3 X10.7484 Y2.72 I-0.0128 J0
G1 X9.3303
G3 X9.3175 Y2.7072 I0 J-0.0128
G1 X9.3176 Y-0.0537
G3 X9.3302 Y-0.0662 I0.0125 J0
G1 X10.8948 Y-0.0553
G3 X10.9072 Y-0.0428 I-0.0001 J0.0125
G1 Y2.8532
G3 X10.8944 Y2.866 I-0.0128 J0
G1 X9.1843
G3 X9.1715 Y2.8532 I0 J-0.0128
G1 X9.1716 Y-0.043
G3 X9.1842 Y-0.0555 I0.0125 J0
G1 X11.0408 Y-0.042
G3 X11.0532 Y-0.0296 I-0.0001 J0.0125
G1 Y2.9992
G3 X11.0404 Y3.012 I-0.0128 J0
G1 X9.0383
G3 X9.0255 Y2.9992 I0 J-0.0128
G1 X9.0256 Y-0.0298
Y-0.1548
G19 G2 Y-0.1798 Z0.5297 J0 K0.025
G0 Z1.2037
X11.1994 Y-0.4302
G1 Z0.5297 F15
G3 Y-0.4052 Z0.5047 J0.025 K0 F150
G1 Y-0.0131
Y3.1082 F200
Y3.1582 F50
X8.9294 F200
X8.8794 F50
Y-0.0129 F200
Y-0.1379
G2 Y-0.1629 Z0.5297 J0 K0.025
G0 Z1.2037
X11.1574 Y-0.4351
G1 Z0.5272 F15
Y-0.4349 Z0.5237 F150
X11.1575 Y-0.434 Z0.5202
X11.1578 Y-0.4327 Z0.517
X11.158 Y-0.4309 Z0.514
X11.1584 Y-0.4286 Z0.5113
X11.1588 Y-0.426 Z0.509
X11.1593 Y-0.423 Z0.5071
X11.1598 Y-0.4198 Z0.5058
X11.1603 Y-0.4164 Z0.505
X11.1609 Y-0.4129 Z0.5047
X11.2241 Y-0.014
X11.2244 Y-0.0101
Y3.1332 F200
Y3.1832 F50
X8.9044 F200
X8.8544 F50
Y-0.01 F200
G17 G3 X8.8656 Y-0.0224 I0.0125 J0
G1 X10.031 Y-0.143
G3 X10.0448 Y-0.1306 I0.0013 J0.0124
G19 G2 Y-0.1056 Z0.4797 J0 K-0.025 F150
G1 Z0.245
G3 Y-0.0806 Z0.22 J0.025 K0
G1 Y-0.0796
Y1.9984 F200
X10.0445 Y2 F50
X10.0438 Y2.0015
X10.0426 Y2.0026
X10.0412 Y2.0034
X10.0396 Y2.0036
X10.0392
X10.0376 Y2.0034
X10.0361 Y2.0026
X10.035 Y2.0015
X10.0342 Y2
X10.034 Y1.9984
Y-0.0798 F200
G17 G3 X10.0465 Y-0.0923 I0.0125 J0
G1 X10.1647 Y-0.0919
G3 X10.1772 Y-0.0794 I0 J0.0125
G1 Y2.1232
G3 X10.1644 Y2.136 I-0.0128 J0
G1 X9.9143
G3 X9.9015 Y2.1232 I0 J-0.0128
G1 X9.9016 Y-0.0794
G3 X9.9142 Y-0.0919 I0.0125 J0
G1 X10.3108 Y-0.0884
G3 X10.3232 Y-0.0759 I-0.0001 J0.0125
G1 Y2.2692
G3 X10.3104 Y2.282 I-0.0128 J0
G1 X9.7683
G3 X9.7555 Y2.2692 I0 J-0.0128
G1 X9.7556 Y-0.0761
G3 X9.7682 Y-0.0886 I0.0125 J0
G1 X10.4568 Y-0.083
G3 X10.4692 Y-0.0705 I-0.0001 J0.0125
G1 Y2.4152
G3 X10.4564 Y2.428 I-0.0128 J0
G1 X9.6223
G3 X9.6095 Y2.4152 I0 J-0.0128
G1 X9.6096 Y-0.0707
G3 X9.6221 Y-0.0832 I0.0125 J0
G1 X10.6027 Y-0.0775
G3 X10.6152 Y-0.065 I0 J0.0125
G1 Y2.5612
G3 X10.6024 Y2.574 I-0.0128 J0
G1 X9.4763
G3 X9.4635 Y2.5612 I0 J-0.0128
G1 X9.4636 Y-0.0649
G3 X9.4762 Y-0.0774 I0.0125 J0
G1 X10.7488 Y-0.0662
G3 X10.7612 Y-0.0537 I-0.0001 J0.0125
G1 Y2.7072
G3 X10.7484 Y2.72 I-0.0128 J0
G1 X9.3303
G3 X9.3175 Y2.7072 I0 J-0.0128
G1 X9.3176 Y-0.0537
G3 X9.3302 Y-0.0662 I0.0125 J0
G1 X10.8948 Y-0.0553
G3 X10.9072 Y-0.0428 I-0.0001 J0.0125
G1 Y2.8532
G3 X10.8944 Y2.866 I-0.0128 J0
G1 X9.1843
G3 X9.1715 Y2.8532 I0 J-0.0128
G1 X9.1716 Y-0.043
G3 X9.1842 Y-0.0555 I0.0125 J0
G1 X11.0408 Y-0.042
G3 X11.0532 Y-0.0296 I-0.0001 J0.0125
G1 Y2.9992
G3 X11.0404 Y3.012 I-0.0128 J0
G1 X9.0383
G3 X9.0255 Y2.9992 I0 J-0.0128
G1 X9.0256 Y-0.0298
Y-0.1548
G19 G2 Y-0.1798 Z0.245 J0 K0.025
G0 Z1.2037
X11.1994 Y-0.4302
G1 Z0.245 F15
G3 Y-0.4052 Z0.22 J0.025 K0 F150
G1 Y-0.0131
Y3.1082 F200
Y3.1582 F50
X8.9294 F200
X8.8794 F50
Y-0.0129 F200
Y-0.1379
G2 Y-0.1629 Z0.245 J0 K0.025
G0 Z1.2037
X11.1574 Y-0.4351
G1 Z0.2425 F15
Y-0.4349 Z0.239 F150
X11.1575 Y-0.434 Z0.2355
X11.1578 Y-0.4327 Z0.2323
X11.158 Y-0.4309 Z0.2293
X11.1584 Y-0.4286 Z0.2266
X11.1588 Y-0.426 Z0.2243
X11.1593 Y-0.423 Z0.2225
X11.1598 Y-0.4198 Z0.2211
X11.1603 Y-0.4164 Z0.2203
X11.1609 Y-0.4129 Z0.22
X11.2241 Y-0.014
X11.2244 Y-0.0101
Y3.1332 F200
Y3.1832 F50
X8.9044 F200
X8.8544 F50
Y-0.01 F200
X8.8547 Y-0.0139
X8.8742 Y-0.1374
X8.8748 Y-0.1412 Z0.2203
X8.8754 Y-0.145 Z0.2212
X8.876 Y-0.1486 Z0.2227
X8.8765 Y-0.1519 Z0.2248
X8.877 Y-0.1548 Z0.2273
X8.8774 Y-0.1574 Z0.2303
X8.8777 Y-0.1594 Z0.2337
X8.878 Y-0.1609 Z0.2373
X8.8781 Y-0.1618 Z0.2411
Y-0.1621 Z0.245
G0 Z1.3894
X5.5102 Y0.53
Z1.2037
G1 Z0.5297 F15
X5.5104 Y0.5303 Z0.5258 F150
X5.5107 Y0.5311 Z0.522
X5.5114 Y0.5325 Z0.5183
X5.5123 Y0.5343 Z0.515
X5.5134 Y0.5366 Z0.512
X5.5147 Y0.5393 Z0.5095
X5.5161 Y0.5423 Z0.5074
X5.5177 Y0.5456 Z0.5059
X5.5194 Y0.549 Z0.505
X5.5211 Y0.5525 Z0.5047
X5.6898 Y0.903
X6.6054 Y2.8042 F200
G17 G3 X6.5995 Y2.8213 I-0.0115 J0.0056
G1 X6.5408 Y2.8495
G3 X6.5237 Y2.8436 I-0.0056 J-0.0115
G1 X5.608 Y0.942
G3 X5.6138 Y0.9253 I0.0113 J-0.0054
G1 X5.7563 Y0.8568
G3 X5.773 Y0.8626 I0.0055 J0.0112
G1 X6.7288 Y2.8474
G3 X6.7228 Y2.8644 I-0.0115 J0.0055
G1 X6.4976 Y2.9729
G3 X6.4805 Y2.967 I-0.0056 J-0.0115
G1 X5.5248 Y0.9824
G3 X5.5308 Y0.9657 I0.0113 J-0.0054
G1 X5.8896 Y0.7968
G3 X5.9063 Y0.8027 I0.0054 J0.0113
G1 X6.9237 Y2.9156
G3 X6.9177 Y2.9326 I-0.0115 J0.0055
G1 X6.4294 Y3.1678
G3 X6.4123 Y3.1619 I-0.0056 J-0.0115
G1 X5.3947 Y1.0488
G3 X5.4007 Y1.0321 I0.0113 J-0.0054
G1 X6.0235 Y0.7383
G3 X6.04 Y0.7442 I0.0053 J0.0113
G1 X7.1186 Y2.9838
G3 X7.1126 Y3.0008 I-0.0115 J0.0055
G1 X6.3612 Y3.3627
G3 X6.3442 Y3.3567 I-0.0055 J-0.0115
G1 X5.2655 Y1.117
G3 X5.2714 Y1.1002 I0.0113 J-0.0055
G1 X6.1575 Y0.6802
G3 X6.1742 Y0.686 I0.0054 J0.0113
G1 X7.3135 Y3.052
G3 X7.3075 Y3.069 I-0.0115 J0.0055
G1 X6.293 Y3.5576
G3 X6.276 Y3.5516 I-0.0055 J-0.0115
G1 X5.1365 Y1.1856
G3 X5.1424 Y1.1688 I0.0113 J-0.0055
G1 X6.2937 Y0.6264
G3 X6.3103 Y0.6323 I0.0053 J0.0113
G1 X7.5084 Y3.1202
G3 X7.5024 Y3.1372 I-0.0115 J0.0055
G1 X6.2248 Y3.7525
G3 X6.2078 Y3.7465 I-0.0055 J-0.0115
G1 X5.0098 Y1.259
G3 X5.0157 Y1.2423 I0.0113 J-0.0054
G1 X6.4301 Y0.5732
G3 X6.4466 Y0.5791 I0.0053 J0.0113
G1 X7.7033 Y3.1884
G3 X7.6973 Y3.2054 I-0.0115 J0.0055
G1 X6.1566 Y3.9474
G3 X6.1396 Y3.9414 I-0.0055 J-0.0115
G1 X4.8829 Y1.332
G3 X4.8889 Y1.3153 I0.0113 J-0.0054
G1 X6.5673 Y0.5217
G3 X6.584 Y0.5275 I0.0054 J0.0113
G1 X7.8982 Y3.2566
G3 X7.8922 Y3.2736 I-0.0115 J0.0055
G1 X6.0884 Y4.1423
G3 X6.0714 Y4.1363 I-0.0055 J-0.0115
G1 X4.7571 Y1.4072
X4.7029 Y1.2946
X4.7012 Y1.2911 Z0.505
X4.6995 Y1.2876 Z0.5059
X4.698 Y1.2844 Z0.5074
X4.6965 Y1.2814 Z0.5095
X4.6952 Y1.2787 Z0.512
X4.6941 Y1.2764 Z0.515
X4.6932 Y1.2745 Z0.5183
X4.6926 Y1.2732 Z0.522
X4.6922 Y1.2724 Z0.5258
X4.692 Y1.2721 Z0.5297
G0 Z1.2037
X6.5419 Y0.1033
G1 Z0.5297 F15
X6.542 Y0.1036 Z0.5258 F150
X6.5424 Y0.1044 Z0.522
X6.5431 Y0.1057 Z0.5183
X6.544 Y0.1076 Z0.515
X6.5451 Y0.1099 Z0.512
X6.5464 Y0.1126 Z0.5095
X6.5478 Y0.1156 Z0.5074
X6.5494 Y0.1189 Z0.5059
X6.5511 Y0.1223 Z0.505
X6.5528 Y0.1258 Z0.5047
X6.7229 Y0.4792
X8.0772 Y3.2913 F200
X8.0989 Y3.3364 F50
X6.0537 Y4.3213 F200
X6.0086 Y4.343 F50
X4.6327 Y1.4858 F200
X4.5785 Y1.3732
X4.5768 Y1.3697 Z0.505
X4.5751 Y1.3663 Z0.5059
X4.5735 Y1.363 Z0.5074
X4.5721 Y1.36 Z0.5095
X4.5708 Y1.3573 Z0.512
X4.5697 Y1.355 Z0.515
X4.5688 Y1.3532 Z0.5183
X4.5682 Y1.3518 Z0.522
X4.5678 Y1.351 Z0.5258
X4.5676 Y1.3507 Z0.5297
G0 Z1.2037
X6.5019 Y0.1171
G1 Z0.5272 F15
X6.5021 Y0.1173 Z0.5237 F150
X6.5026 Y0.118 Z0.5202
X6.5033 Y0.1191 Z0.517
X6.5044 Y0.1206 Z0.514
X6.5057 Y0.1225 Z0.5113
X6.5072 Y0.1247 Z0.509
X6.5089 Y0.1272 Z0.5071
X6.5108 Y0.1299 Z0.5058
X6.5127 Y0.1327 Z0.505
X6.5147 Y0.1356 Z0.5047
X6.7447 Y0.4676
X6.7467 Y0.4709
X8.1105 Y3.303 F200
X8.1322 Y3.348 F50
X6.042 Y4.3546 F200
X5.9969 Y4.3763 F50
X4.6115 Y1.4993 F200
G3 X4.6162 Y1.4833 I0.0112 J-0.0054
G1 X5.6499 Y0.8518
G3 X5.6676 Y0.8571 I0.0065 J0.0106
G1 X5.6694 Y0.8605 Z0.5044 F150
X5.6711 Y0.864 Z0.5035
X5.6726 Y0.8673 Z0.502
X5.6741 Y0.8703 Z0.4999
X5.6754 Y0.873 Z0.4974
X5.6765 Y0.8752 Z0.4944
X5.6774 Y0.8771 Z0.491
X5.678 Y0.8784 Z0.4874
X5.6784 Y0.8793 Z0.4836
X5.6786 Y0.8795 Z0.4797
Z0.245
X5.6787 Y0.8798 Z0.2411
X5.6791 Y0.8807 Z0.2373
X5.6797 Y0.882 Z0.2337
X5.6806 Y0.8839 Z0.2303
X5.6817 Y0.8861 Z0.2273
X5.683 Y0.8888 Z0.2248
X5.6845 Y0.8918 Z0.2227
X5.686 Y0.8951 Z0.2212
X5.6877 Y0.8985 Z0.2203
X5.6894 Y0.9021 Z0.22
X5.6898 Y0.903
X6.6054 Y2.8042 F200
G3 X6.5995 Y2.8213 I-0.0115 J0.0056
G1 X6.5408 Y2.8495
G3 X6.5237 Y2.8436 I-0.0056 J-0.0115
G1 X5.608 Y0.942
G3 X5.6138 Y0.9253 I0.0113 J-0.0054
G1 X5.7563 Y0.8568
G3 X5.773 Y0.8626 I0.0055 J0.0112
G1 X6.7288 Y2.8474
G3 X6.7228 Y2.8644 I-0.0115 J0.0055
G1 X6.4976 Y2.9729
G3 X6.4805 Y2.967 I-0.0056 J-0.0115
G1 X5.5248 Y0.9824
G3 X5.5308 Y0.9657 I0.0113 J-0.0054
G1 X5.8896 Y0.7968
G3 X5.9063 Y0.8027 I0.0054 J0.0113
G1 X6.9237 Y2.9156
G3 X6.9177 Y2.9326 I-0.0115 J0.0055
G1 X6.4294 Y3.1678
G3 X6.4123 Y3.1619 I-0.0056 J-0.0115
G1 X5.3947 Y1.0488
G3 X5.4007 Y1.0321 I0.0113 J-0.0054
G1 X6.0235 Y0.7383
G3 X6.04 Y0.7442 I0.0053 J0.0113
G1 X7.1186 Y2.9838
G3 X7.1126 Y3.0008 I-0.0115 J0.0055
G1 X6.3612 Y3.3627
G3 X6.3442 Y3.3567 I-0.0055 J-0.0115
G1 X5.2655 Y1.117
G3 X5.2714 Y1.1002 I0.0113 J-0.0055
G1 X6.1575 Y0.6802
G3 X6.1742 Y0.686 I0.0054 J0.0113
G1 X7.3135 Y3.052
G3 X7.3075 Y3.069 I-0.0115 J0.0055
G1 X6.293 Y3.5576
G3 X6.276 Y3.5516 I-0.0055 J-0.0115
G1 X5.1365 Y1.1856
G3 X5.1424 Y1.1688 I0.0113 J-0.0055
G1 X6.2937 Y0.6264
G3 X6.3103 Y0.6323 I0.0053 J0.0113
G1 X7.5084 Y3.1202
G3 X7.5024 Y3.1372 I-0.0115 J0.0055
G1 X6.2248 Y3.7525
G3 X6.2078 Y3.7465 I-0.0055 J-0.0115
G1 X5.0098 Y1.259
G3 X5.0157 Y1.2423 I0.0113 J-0.0054
G1 X6.4301 Y0.5732
G3 X6.4466 Y0.5791 I0.0053 J0.0113
G1 X7.7033 Y3.1884
G3 X7.6973 Y3.2054 I-0.0115 J0.0055
G1 X6.1566 Y3.9474
G3 X6.1396 Y3.9414 I-0.0055 J-0.0115
G1 X4.8829 Y1.332
G3 X4.8889 Y1.3153 I0.0113 J-0.0054
G1 X6.5673 Y0.5217
G3 X6.584 Y0.5275 I0.0054 J0.0113
G1 X7.8982 Y3.2566
G3 X7.8922 Y3.2736 I-0.0115 J0.0055
G1 X6.0884 Y4.1423
G3 X6.0714 Y4.1363 I-0.0055 J-0.0115
G1 X4.7571 Y1.4072
X4.7029 Y1.2946
X4.7012 Y1.2911 Z0.2203
X4.6995 Y1.2876 Z0.2212
X4.698 Y1.2844 Z0.2227
X4.6965 Y1.2814 Z0.2248
X4.6952 Y1.2787 Z0.2273
X4.6941 Y1.2764 Z0.2303
X4.6932 Y1.2745 Z0.2337
X4.6926 Y1.2732 Z0.2373
X4.6922 Y1.2724 Z0.2411
X4.692 Y1.2721 Z0.245
G0 Z1.2037
X6.5419 Y0.1033
G1 Z0.245 F15
X6.542 Y0.1036 Z0.2411 F150
X6.5424 Y0.1044 Z0.2373
X6.5431 Y0.1057 Z0.2337
X6.544 Y0.1076 Z0.2303
X6.5451 Y0.1099 Z0.2273
X6.5464 Y0.1126 Z0.2248
X6.5478 Y0.1156 Z0.2227
X6.5494 Y0.1189 Z0.2212
X6.5511 Y0.1223 Z0.2203
X6.5528 Y0.1258 Z0.22
X6.7229 Y0.4792
X8.0772 Y3.2913 F200
X8.0989 Y3.3364 F50
X6.0537 Y4.3213 F200
X6.0086 Y4.343 F50
X4.6327 Y1.4858 F200
X4.5785 Y1.3732
X4.5768 Y1.3697 Z0.2203
X4.5751 Y1.3663 Z0.2212
X4.5735 Y1.363 Z0.2227
X4.5721 Y1.36 Z0.2248
X4.5708 Y1.3573 Z0.2273
X4.5697 Y1.355 Z0.2303
X4.5688 Y1.3532 Z0.2337
X4.5682 Y1.3518 Z0.2373
X4.5678 Y1.351 Z0.2411
X4.5676 Y1.3507 Z0.245
G0 Z1.2037
X6.5019 Y0.1171
G1 Z0.2425 F15
X6.5021 Y0.1173 Z0.239 F150
X6.5026 Y0.118 Z0.2355
X6.5033 Y0.1191 Z0.2323
X6.5044 Y0.1206 Z0.2293
X6.5057 Y0.1225 Z0.2266
X6.5072 Y0.1247 Z0.2243
X6.5089 Y0.1272 Z0.2225
X6.5108 Y0.1299 Z0.2211
X6.5127 Y0.1327 Z0.2203
X6.5147 Y0.1356 Z0.22
X6.7447 Y0.4676
X6.7467 Y0.4709
X8.1105 Y3.303 F200
X8.1322 Y3.348 F50
X6.042 Y4.3546 F200
X5.9969 Y4.3763 F50
X4.6115 Y1.4993 F200
X4.61 Y1.4957
X4.5741 Y1.376
X4.573 Y1.3722 Z0.2203
X4.5719 Y1.3686 Z0.2212
X4.5708 Y1.3651 Z0.2227
X4.5699 Y1.3619 Z0.2248
X4.569 Y1.359 Z0.2273
X4.5683 Y1.3566 Z0.2303
X4.5677 Y1.3546 Z0.2337
X4.5672 Y1.3532 Z0.2373
X4.567 Y1.3523 Z0.2411
X4.5669 Y1.352 Z0.245
G0 Z1.3894
X1.8328 Y3.4369
Z1.2037
G1 Z0.5297 F15
X1.833 Y3.437 Z0.5258 F150
X1.8338 Y3.4376 Z0.522
X1.8349 Y3.4386 Z0.5183
X1.8365 Y3.4398 Z0.515
X1.8385 Y3.4414 Z0.512
X1.8409 Y3.4433 Z0.5095
X1.8435 Y3.4454 Z0.5074
X1.8463 Y3.4476 Z0.5059
X1.8493 Y3.45 Z0.505
X1.8523 Y3.4524 Z0.5047
X2.1564 Y3.6949
X3.8063 Y5.0106 F200
G3 X3.8083 Y5.0286 I-0.008 J0.01
G1 X3.7677 Y5.0795
G3 X3.7497 Y5.0815 I-0.01 J-0.0079
G1 X2.0996 Y3.7656
G3 X2.0977 Y3.7481 I0.0078 J-0.0097
G1 X2.1952 Y3.6258
G3 X2.2127 Y3.6239 I0.0097 J0.0078
G1 X2.3753 Y3.7535
X3.9362 Y4.996
G3 X3.9382 Y5.014 I-0.008 J0.01
G1 X3.7823 Y5.2095
G3 X3.7643 Y5.2115 I-0.01 J-0.008
G1 X2.0422 Y3.8381
G3 X2.0404 Y3.8205 I0.0078 J-0.0097
G1 X2.2902 Y3.5125
G3 X2.3077 Y3.5106 I0.0097 J0.0078
G1 X4.1414 Y4.9729
G3 X4.1434 Y4.9909 I-0.008 J0.01
G1 X3.8054 Y5.4146
G3 X3.7876 Y5.4166 I-0.0099 J-0.0079
G1 X1.9539 Y3.9544
G3 X1.9519 Y3.9367 I0.0077 J-0.0098
G1 X2.3845 Y3.4032
G3 X2.402 Y3.4013 I0.0097 J0.0079
G1 X2.5574 Y3.5252
X4.3466 Y4.9498
G3 X4.3486 Y4.9678 I-0.008 J0.01
G1 X3.8286 Y5.6198
G3 X3.8106 Y5.6218 I-0.01 J-0.008
G1 X1.867 Y4.0719
G3 X1.8651 Y4.0542 I0.0078 J-0.0098
G1 X2.481 Y3.2912
G3 X2.4985 Y3.2893 I0.0097 J0.0079
G1 X4.5517 Y4.9266
G3 X4.5537 Y4.9446 I-0.0079 J0.01
G1 X3.8517 Y5.825
G3 X3.8337 Y5.827 I-0.01 J-0.008
G1 X1.7805 Y4.1896
G3 X1.7787 Y4.172 I0.0078 J-0.0097
G1 X2.5796 Y3.1853
G3 X2.5971 Y3.1834 I0.0097 J0.0078
G1 X2.7394 Y3.2969
X4.7569 Y4.9035
G3 X4.7589 Y4.9215 I-0.008 J0.01
G1 X3.8748 Y6.0302
G3 X3.8568 Y6.0322 I-0.01 J-0.008
G1 X1.6982 Y4.3108
G3 X1.6963 Y4.2931 I0.0078 J-0.0098
G1 X2.6803 Y3.0766
G3 X2.6978 Y3.0747 I0.0097 J0.0079
G1 X4.9621 Y4.8804
G3 X4.9641 Y4.8984 I-0.008 J0.01
G1 X3.8979 Y6.2353
G3 X3.88 Y6.2374 I-0.01 J-0.0079
G1 X1.6156 Y4.4316
G3 X1.6136 Y4.4139 I0.0078 J-0.0098
G1 X2.7804 Y2.9719
G3 X2.7979 Y2.97 I0.0097 J0.0079
G1 X2.9215 Y3.0687
X5.1673 Y4.8573
G3 X5.1693 Y4.8753 I-0.008 J0.01
G1 X3.921 Y6.4405
G3 X3.9031 Y6.4426 I-0.01 J-0.0079
G1 X1.5349 Y4.554
X1.4371 Y4.476
X1.4341 Y4.4736 Z0.505
X1.4311 Y4.4712 Z0.5059
X1.4283 Y4.4689 Z0.5074
X1.4257 Y4.4669 Z0.5095
X1.4233 Y4.465 Z0.512
X1.4213 Y4.4634 Z0.515
X1.4197 Y4.4621 Z0.5183
X1.4186 Y4.4612 Z0.522
X1.4178 Y4.4606 Z0.5258
X1.4176 Y4.4604 Z0.5297
G0 Z1.2037
X2.5771 Y2.6047
G1 Z0.5297 F15
X2.5773 Y2.6049 Z0.5258 F150
X2.578 Y2.6054 Z0.522
X2.5792 Y2.6064 Z0.5183
X2.5808 Y2.6077 Z0.515
X2.5828 Y2.6092 Z0.512
X2.5851 Y2.6111 Z0.5095
X2.5877 Y2.6132 Z0.5074
X2.5906 Y2.6155 Z0.5059
X2.5935 Y2.6178 Z0.505
X2.5966 Y2.6203 Z0.5047
X2.9035 Y2.865
X5.3436 Y4.8109 F200
X5.3827 Y4.8421 F50
X3.9674 Y6.6169 F200
X3.9362 Y6.656 F50
X1.5673 Y4.7668 F200
X1.4569 Y4.6788
X1.3592 Y4.6008
X1.3561 Y4.5984 Z0.505
X1.3531 Y4.596 Z0.5059
X1.3503 Y4.5938 Z0.5074
X1.3477 Y4.5917 Z0.5095
X1.3454 Y4.5898 Z0.512
X1.3434 Y4.5882 Z0.515
X1.3418 Y4.5869 Z0.5183
X1.3406 Y4.586 Z0.522
X1.3399 Y4.5854 Z0.5258
X1.3396 Y4.5852 Z0.5297
G0 Z1.2037
X2.547 Y2.6346
G1 Z0.5272 F15
X2.5473 Y2.6347 Z0.5237 F150
X2.548 Y2.6351 Z0.5202
X2.5492 Y2.6358 Z0.517
X2.5508 Y2.6367 Z0.514
X2.5528 Y2.6378 Z0.5113
X2.5551 Y2.6391 Z0.509
X2.5577 Y2.6406 Z0.5071
X2.5606 Y2.6422 Z0.5058
X2.5636 Y2.6439 Z0.505
X2.5666 Y2.6457 Z0.5047
X2.9182 Y2.8452
X2.9215 Y2.8474
X5.3788 Y4.807 F200
X5.4178 Y4.8381 F50
X3.9713 Y6.652 F200
X3.9402 Y6.6911 F50
X1.5517 Y4.7863 F200
X1.4436 Y4.7001
G3 X1.441 Y4.6836 I0.0078 J-0.0097
G1 X2.0983 Y3.6662
G3 X2.1166 Y3.6632 I0.0105 J0.0067
G1 X2.1196 Y3.6656 Z0.5044 F150
X2.1226 Y3.668 Z0.5035
X2.1255 Y3.6702 Z0.502
X2.1281 Y3.6723 Z0.4999
X2.1304 Y3.6742 Z0.4974
X2.1324 Y3.6758 Z0.4944
X2.134 Y3.6771 Z0.491
X2.1352 Y3.678 Z0.4874
X2.1359 Y3.6786 Z0.4836
X2.1361 Y3.6788 Z0.4797
Z0.245
X2.1364 Y3.6789 Z0.2411
X2.1371 Y3.6795 Z0.2373
X2.1383 Y3.6805 Z0.2337
X2.1399 Y3.6817 Z0.2303
X2.1419 Y3.6833 Z0.2273
X2.1442 Y3.6852 Z0.2248
X2.1468 Y3.6873 Z0.2227
X2.1496 Y3.6895 Z0.2212
X2.1526 Y3.6919 Z0.2203
X2.1557 Y3.6943 Z0.22
X2.1564 Y3.6949
X3.8063 Y5.0106 F200
G3 X3.8083 Y5.0286 I-0.008 J0.01
G1 X3.7677 Y5.0795
G3 X3.7497 Y5.0815 I-0.01 J-0.0079
G1 X2.0996 Y3.7656
G3 X2.0977 Y3.7481 I0.0078 J-0.0097
G1 X2.1952 Y3.6258
G3 X2.2127 Y3.6239 I0.0097 J0.0078
G1 X2.3753 Y3.7535
X3.9362 Y4.996
G3 X3.9382 Y5.014 I-0.008 J0.01
G1 X3.7823 Y5.2095
G3 X3.7643 Y5.2115 I-0.01 J-0.008
G1 X2.0422 Y3.8381
G3 X2.0404 Y3.8205 I0.0078 J-0.0097
G1 X2.2902 Y3.5125
G3 X2.3077 Y3.5106 I0.0097 J0.0078
G1 X4.1414 Y4.9729
G3 X4.1434 Y4.9909 I-0.008 J0.01
G1 X3.8054 Y5.4146
G3 X3.7876 Y5.4166 I-0.0099 J-0.0079
G1 X1.9539 Y3.9544
G3 X1.9519 Y3.9367 I0.0077 J-0.0098
G1 X2.3845 Y3.4032
G3 X2.402 Y3.4013 I0.0097 J0.0079
G1 X2.5574 Y3.5252
X4.3466 Y4.9498
G3 X4.3486 Y4.9678 I-0.008 J0.01
G1 X3.8286 Y5.6198
G3 X3.8106 Y5.6218 I-0.01 J-0.008
G1 X1.867 Y4.0719
G3 X1.8651 Y4.0542 I0.0078 J-0.0098
G1 X2.481 Y3.2912
G3 X2.4985 Y3.2893 I0.0097 J0.0079
G1 X4.5517 Y4.9266
G3 X4.5537 Y4.9446 I-0.0079 J0.01
G1 X3.8517 Y5.825
G3 X3.8337 Y5.827 I-0.01 J-0.008
G1 X1.7805 Y4.1896
G3 X1.7787 Y4.172 I0.0078 J-0.0097
G1 X2.5796 Y3.1853
G3 X2.5971 Y3.1834 I0.0097 J0.0078
G1 X2.7394 Y3.2969
X4.7569 Y4.9035
G3 X4.7589 Y4.9215 I-0.008 J0.01
G1 X3.8748 Y6.0302
G3 X3.8568 Y6.0322 I-0.01 J-0.008
G1 X1.6982 Y4.3108
G3 X1.6963 Y4.2931 I0.0078 J-0.0098
G1 X2.6803 Y3.0766
G3 X2.6978 Y3.0747 I0.0097 J0.0079
G1 X4.9621 Y4.8804
G3 X4.9641 Y4.8984 I-0.008 J0.01
G1 X3.8979 Y6.2353
G3 X3.88 Y6.2374 I-0.01 J-0.0079
G1 X1.6156 Y4.4316
G3 X1.6136 Y4.4139 I0.0078 J-0.0098
G1 X2.7804 Y2.9719
G3 X2.7979 Y2.97 I0.0097 J0.0079
G1 X2.9215 Y3.0687
X5.1673 Y4.8573
G3 X5.1693 Y4.8753 I-0.008 J0.01
G1 X3.921 Y6.4405
G3 X3.9031 Y6.4426 I-0.01 J-0.0079
G1 X1.5349 Y4.554
X1.4371 Y4.476
X1.4341 Y4.4736 Z0.2203
X1.4311 Y4.4712 Z0.2212
X1.4283 Y4.4689 Z0.2227
X1.4257 Y4.4669 Z0.2248
X1.4233 Y4.465 Z0.2273
X1.4213 Y4.4634 Z0.2303
X1.4197 Y4.4621 Z0.2337
X1.4186 Y4.4612 Z0.2373
X1.4178 Y4.4606 Z0.2411
X1.4176 Y4.4604 Z0.245
G0 Z1.2037
X2.5771 Y2.6047
G1 Z0.245 F15
X2.5773 Y2.6049 Z0.2411 F150
X2.578 Y2.6054 Z0.2373
X2.5792 Y2.6064 Z0.2337
X2.5808 Y2.6077 Z0.2303
X2.5828 Y2.6092 Z0.2273
X2.5851 Y2.6111 Z0.2248
X2.5877 Y2.6132 Z0.2227
X2.5906 Y2.6155 Z0.2212
X2.5935 Y2.6178 Z0.2203
X2.5966 Y2.6203 Z0.22
X2.9035 Y2.865
X5.3436 Y4.8109 F200
X5.3827 Y4.8421 F50
X3.9674 Y6.6169 F200
X3.9362 Y6.656 F50
X1.5673 Y4.7668 F200
X1.4569 Y4.6788
X1.3592 Y4.6008
X1.3561 Y4.5984 Z0.2203
X1.3531 Y4.596 Z0.2212
X1.3503 Y4.5938 Z0.2227
X1.3477 Y4.5917 Z0.2248
X1.3454 Y4.5898 Z0.2273
X1.3434 Y4.5882 Z0.2303
X1.3418 Y4.5869 Z0.2337
X1.3406 Y4.586 Z0.2373
X1.3399 Y4.5854 Z0.2411
X1.3396 Y4.5852 Z0.245
G0 Z1.2037
X2.547 Y2.6346
G1 Z0.2425 F15
X2.5473 Y2.6347 Z0.239 F150
X2.548 Y2.6351 Z0.2355
X2.5492 Y2.6358 Z0.2323
X2.5508 Y2.6367 Z0.2293
X2.5528 Y2.6378 Z0.2266
X2.5551 Y2.6391 Z0.2243
X2.5577 Y2.6406 Z0.2225
X2.5606 Y2.6422 Z0.2211
X2.5636 Y2.6439 Z0.2203
X2.5666 Y2.6457 Z0.22
X2.9182 Y2.8452
X2.9215 Y2.8474
X5.3788 Y4.807 F200
X5.4178 Y4.8381 F50
X3.9713 Y6.652 F200
X3.9402 Y6.6911 F50
X1.5517 Y4.7863 F200
X1.4436 Y4.7001
X1.4407 Y4.6975
X1.3564 Y4.6052
X1.3538 Y4.6023 Z0.2203
X1.3512 Y4.5995 Z0.2212
X1.3488 Y4.5968 Z0.2227
X1.3465 Y4.5944 Z0.2248
X1.3445 Y4.5922 Z0.2273
X1.3428 Y4.5903 Z0.2303
X1.3414 Y4.5888 Z0.2337
X1.3404 Y4.5876 Z0.2373
X1.3398 Y4.587 Z0.2411
X1.3395 Y4.5867 Z0.245
G0 Z1.3894
X-0.2196 Y7.6529
Z1.2037
G1 Z0.5297 F15
X-0.2193 Y7.653 Z0.5258 F150
X-0.2184 Y7.6532 Z0.522
X-0.2169 Y7.6535 Z0.5183
X-0.2149 Y7.654 Z0.515
X-0.2125 Y7.6545 Z0.512
X-0.2096 Y7.6552 Z0.5095
X-0.2063 Y7.6559 Z0.5074
X-0.2028 Y7.6568 Z0.5059
X-0.199 Y7.6576 Z0.505
X-0.1952 Y7.6585 Z0.5047
X0.1839 Y7.7452
X0.3864 Y7.7915 F200
X2.2417 Y8.2131
G3 X2.2512 Y8.2284 I-0.0029 J0.0124
G1 X2.2368 Y8.2919
G3 X2.2215 Y8.3015 I-0.0125 J-0.0029
G1 X0.1639 Y7.8319
G3 X0.1544 Y7.8169 I0.0027 J-0.0122
G1 X0.1897 Y7.6627
G3 X0.2046 Y7.6534 I0.0121 J0.0028
G1 X2.3524 Y8.1435
G3 X2.362 Y8.1588 I-0.0029 J0.0125
G1 X2.3063 Y8.4026
G3 X2.2911 Y8.4122 I-0.0124 J-0.0028
G1 X0.1436 Y7.9221
G3 X0.1342 Y7.907 I0.0028 J-0.0122
G1 X0.2257 Y7.5211
G3 X0.2407 Y7.5118 I0.0122 J0.0029
G1 X2.5272 Y8.0337
G3 X2.5368 Y8.049 I-0.0028 J0.0124
G1 X2.4162 Y8.5774
G3 X2.4009 Y8.5871 I-0.0125 J-0.0028
G1 X0.1144 Y8.0652
G3 X0.105 Y8.0501 I0.0028 J-0.0122
G1 X0.2637 Y7.38
G3 X0.2787 Y7.3707 I0.0122 J0.0029
G1 X2.702 Y7.9238
G3 X2.7117 Y7.9391 I-0.0028 J0.0125
G1 X2.526 Y8.7523
G3 X2.5108 Y8.7618 I-0.0124 J-0.0029
G1 X0.0871 Y8.2087
G3 X0.0777 Y8.1936 I0.0028 J-0.0122
G1 X0.3017 Y7.2389
G3 X0.3166 Y7.2297 I0.0121 J0.0029
G1 X2.8769 Y7.814
G3 X2.8864 Y7.8292 I-0.0029 J0.0124
G1 X2.6359 Y8.9271
G3 X2.6206 Y8.9367 I-0.0125 J-0.0029
G1 X0.0603 Y8.3523
G3 X0.0509 Y8.3372 I0.0028 J-0.0122
G1 X0.3449 Y7.099
G3 X0.3599 Y7.0897 I0.0122 J0.0029
G1 X3.0517 Y7.7041
G3 X3.0613 Y7.7194 I-0.0029 J0.0125
G1 X2.7457 Y9.1019
G3 X2.7305 Y9.1115 I-0.0124 J-0.0028
G1 X0.0387 Y8.4971
G3 X0.0294 Y8.4821 I0.0028 J-0.0121
G1 X0.3881 Y6.9592
G3 X0.4031 Y6.9498 I0.0122 J0.0028
G1 X3.2265 Y7.5943
G3 X3.2361 Y7.6095 I-0.0028 J0.0124
G1 X2.8556 Y9.2767
G3 X2.8403 Y9.2864 I-0.0125 J-0.0028
G1 X0.0167 Y8.6419
G3 X0.0073 Y8.6268 I0.0028 J-0.0122
G1 X0.4333 Y6.8197
G3 X0.4482 Y6.8105 I0.0121 J0.0029
G1 X3.4013 Y7.4844
G3 X3.411 Y7.4997 I-0.0028 J0.0125
G1 X2.9655 Y9.4516
G3 X2.9501 Y9.4612 I-0.0125 J-0.0029
G1 X-0.0029 Y8.7871
X-0.1248 Y8.7593
X-0.1286 Y8.7585 Z0.505
X-0.1323 Y8.7576 Z0.5059
X-0.1359 Y8.7568 Z0.5074
X-0.1391 Y8.7561 Z0.5095
X-0.142 Y8.7554 Z0.512
X-0.1445 Y8.7548 Z0.515
X-0.1465 Y8.7544 Z0.5183
X-0.148 Y8.754 Z0.522
X-0.1489 Y8.7538 Z0.5258
X-0.1492 Z0.5297
G0 Z1.2037
X0.0906 Y6.5788
G1 Z0.5297 F15
X0.0909 Y6.5789 Z0.5258 F150
X0.0918 Y6.5791 Z0.522
X0.0932 Y6.5794 Z0.5183
X0.0952 Y6.5799 Z0.515
X0.0977 Y6.5804 Z0.512
X0.1006 Y6.5811 Z0.5095
X0.1039 Y6.5818 Z0.5074
X0.1074 Y6.5826 Z0.5059
X0.1112 Y6.5835 Z0.505
X0.115 Y6.5844 Z0.5047
X0.4973 Y6.6716
X0.6348 Y6.703 F200
X3.5401 Y7.3661
X3.5889 Y7.3772 F50
X3.0837 Y9.5903 F200
X3.0726 Y9.6391 F50
X0.1186 Y8.9649 F200
X-0.019 Y8.9334
X-0.1409 Y8.9056
X-0.1447 Y8.9048 Z0.505
X-0.1484 Y8.9039 Z0.5059
X-0.152 Y8.9031 Z0.5074
X-0.1552 Y8.9024 Z0.5095
X-0.1581 Y8.9017 Z0.512
X-0.1606 Y8.9011 Z0.515
X-0.1626 Y8.9007 Z0.5183
X-0.1641 Y8.9003 Z0.522
X-0.165 Y8.9001 Z0.5258
X-0.1653 Z0.5297
G0 Z1.2037
X0.0765 Y6.6187
G1 Z0.5272 F15
X0.0768 Z0.5237 F150
X0.0776 Z0.5202
X0.0789 Y6.6188 Z0.517
X0.0808 Y6.619 Z0.514
X0.0831 Y6.6191 Z0.5113
X0.0858 Y6.6193 Z0.509
X0.0888 Y6.6195 Z0.5071
X0.092 Y6.6197 Z0.5058
X0.0954 Y6.6199 Z0.505
X0.099 Y6.6202 Z0.5047
X0.5019 Y6.6474
X0.5058 Y6.6479
X0.6404 Y6.6786 F200
X3.5701 Y7.3473
X3.6188 Y7.3584 F50
X3.1025 Y9.6203 F200
X3.0914 Y9.669 F50
X0.113 Y8.9892 F200
X-0.0217 Y8.9585
G3 X-0.0314 Y8.9447 I0.0027 J-0.0122
G1 X0.119 Y7.7445
G3 X0.1343 Y7.7337 I0.0125 J0.0015
G1 X0.1381 Y7.7347 Z0.5044 F150
X0.1418 Y7.7355 Z0.5035
X0.1453 Y7.7364 Z0.502
X0.1486 Y7.7371 Z0.4999
X0.1515 Y7.7378 Z0.4974
X0.154 Y7.7383 Z0.4944
X0.156 Y7.7388 Z0.491
X0.1574 Y7.7391 Z0.4874
X0.1583 Y7.7393 Z0.4836
X0.1586 Y7.7394 Z0.4797
Z0.245
X0.1589 Y7.7395 Z0.2411
X0.1598 Y7.7397 Z0.2373
X0.1613 Y7.74 Z0.2337
X0.1633 Y7.7405 Z0.2303
X0.1657 Y7.741 Z0.2273
X0.1687 Y7.7417 Z0.2248
X0.1719 Y7.7424 Z0.2227
X0.1754 Y7.7432 Z0.2212
X0.1792 Y7.7441 Z0.2203
X0.183 Y7.745 Z0.22
X0.1839 Y7.7452
X0.3864 Y7.7915 F200
X2.2417 Y8.2131
G3 X2.2512 Y8.2284 I-0.0029 J0.0124
G1 X2.2368 Y8.2919
G3 X2.2215 Y8.3015 I-0.0125 J-0.0029
G1 X0.1639 Y7.8319
G3 X0.1544 Y7.8169 I0.0027 J-0.0122
G1 X0.1897 Y7.6627
G3 X0.2046 Y7.6534 I0.0121 J0.0028
G1 X2.3524 Y8.1435
G3 X2.362 Y8.1588 I-0.0029 J0.0125
G1 X2.3063 Y8.4026
G3 X2.2911 Y8.4122 I-0.0124 J-0.0028
G1 X0.1436 Y7.9221
G3 X0.1342 Y7.907 I0.0028 J-0.0122
G1 X0.2257 Y7.5211
G3 X0.2407 Y7.5118 I0.0122 J0.0029
G1 X2.5272 Y8.0337
G3 X2.5368 Y8.049 I-0.0028 J0.0124
G1 X2.4162 Y8.5774
G3 X2.4009 Y8.5871 I-0.0125 J-0.0028
G1 X0.1144 Y8.0652
G3 X0.105 Y8.0501 I0.0028 J-0.0122
G1 X0.2637 Y7.38
G3 X0.2787 Y7.3707 I0.0122 J0.0029
G1 X2.702 Y7.9238
G3 X2.7117 Y7.9391 I-0.0028 J0.0125
G1 X2.526 Y8.7523
G3 X2.5108 Y8.7618 I-0.0124 J-0.0029
G1 X0.0871 Y8.2087
G3 X0.0777 Y8.1936 I0.0028 J-0.0122
G1 X0.3017 Y7.2389
G3 X0.3166 Y7.2297 I0.0121 J0.0029
G1 X2.8769 Y7.814
G3 X2.8864 Y7.8292 I-0.0029 J0.0124
G1 X2.6359 Y8.9271
G3 X2.6206 Y8.9367 I-0.0125 J-0.0029
G1 X0.0603 Y8.3523
G3 X0.0509 Y8.3372 I0.0028 J-0.0122
G1 X0.3449 Y7.099
G3 X0.3599 Y7.0897 I0.0122 J0.0029
G1 X3.0517 Y7.7041
G3 X3.0613 Y7.7194 I-0.0029 J0.0125
G1 X2.7457 Y9.1019
G3 X2.7305 Y9.1115 I-0.0124 J-0.0028
G1 X0.0387 Y8.4971
G3 X0.0294 Y8.4821 I0.0028 J-0.0121
G1 X0.3881 Y6.9592
G3 X0.4031 Y6.9498 I0.0122 J0.0028
G1 X3.2265 Y7.5943
G3 X3.2361 Y7.6095 I-0.0028 J0.0124
G1 X2.8556 Y9.2767
G3 X2.8403 Y9.2864 I-0.0125 J-0.0028
G1 X0.0167 Y8.6419
G3 X0.0073 Y8.6268 I0.0028 J-0.0122
G1 X0.4333 Y6.8197
G3 X0.4482 Y6.8105 I0.0121 J0.0029
G1 X3.4013 Y7.4844
G3 X3.411 Y7.4997 I-0.0028 J0.0125
G1 X2.9655 Y9.4516
G3 X2.9501 Y9.4612 I-0.0125 J-0.0029
G1 X-0.0029 Y8.7871
X-0.1248 Y8.7593
X-0.1286 Y8.7585 Z0.2203
X-0.1323 Y8.7576 Z0.2212
X-0.1359 Y8.7568 Z0.2227
X-0.1391 Y8.7561 Z0.2248
X-0.142 Y8.7554 Z0.2273
X-0.1445 Y8.7548 Z0.2303
X-0.1465 Y8.7544 Z0.2337
X-0.148 Y8.754 Z0.2373
X-0.1489 Y8.7538 Z0.2411
X-0.1492 Z0.245
G0 Z1.2037
X0.0906 Y6.5788
G1 Z0.245 F15
X0.0909 Y6.5789 Z0.2411 F150
X0.0918 Y6.5791 Z0.2373
X0.0932 Y6.5794 Z0.2337
X0.0952 Y6.5799 Z0.2303
X0.0977 Y6.5804 Z0.2273
X0.1006 Y6.5811 Z0.2248
X0.1039 Y6.5818 Z0.2227
X0.1074 Y6.5826 Z0.2212
X0.1112 Y6.5835 Z0.2203
X0.115 Y6.5844 Z0.22
X0.4973 Y6.6716
X0.6348 Y6.703 F200
X3.5401 Y7.3661
X3.5889 Y7.3772 F50
X3.0837 Y9.5903 F200
X3.0726 Y9.6391 F50
X0.1186 Y8.9649 F200
X-0.019 Y8.9334
X-0.1409 Y8.9056
X-0.1447 Y8.9048 Z0.2203
X-0.1484 Y8.9039 Z0.2212
X-0.152 Y8.9031 Z0.2227
X-0.1552 Y8.9024 Z0.2248
X-0.1581 Y8.9017 Z0.2273
X-0.1606 Y8.9011 Z0.2303
X-0.1626 Y8.9007 Z0.2337
X-0.1641 Y8.9003 Z0.2373
X-0.165 Y8.9001 Z0.2411
X-0.1653 Z0.245
G0 Z1.2037
X0.0765 Y6.6187
G1 Z0.2425 F15
X0.0768 Z0.239 F150
X0.0776 Z0.2355
X0.0789 Y6.6188 Z0.2323
X0.0808 Y6.619 Z0.2293
X0.0831 Y6.6191 Z0.2266
X0.0858 Y6.6193 Z0.2243
X0.0888 Y6.6195 Z0.2225
X0.092 Y6.6197 Z0.2211
X0.0954 Y6.6199 Z0.2203
X0.099 Y6.6202 Z0.22
X0.5019 Y6.6474
X0.5058 Y6.6479
X0.6404 Y6.6786 F200
X3.5701 Y7.3473
X3.6188 Y7.3584 F50
X3.1025 Y9.6203 F200
X3.0914 Y9.669 F50
X0.113 Y8.9892 F200
X-0.0217 Y8.9585
X-0.0255 Y8.9573
X-0.1415 Y8.9108
X-0.1451 Y8.9093 Z0.2203
X-0.1487 Y8.9079 Z0.2212
X-0.152 Y8.9065 Z0.2227
X-0.1551 Y8.9053 Z0.2248
X-0.1579 Y8.9042 Z0.2273
X-0.1603 Y8.9032 Z0.2303
X-0.1622 Y8.9025 Z0.2337
X-0.1636 Y8.9019 Z0.2373
X-0.1644 Y8.9016 Z0.2411
X-0.1647 Y8.9015 Z0.245
G0 Z1.3894
X-0.2403 Y12.3391
Z1.2037
G1 Z0.5297 F15
X-0.24 Z0.5258 F150
X-0.2391 Y12.3389 Z0.522
X-0.2376 Y12.3385 Z0.5183
X-0.2356 Y12.3381 Z0.515
X-0.2331 Y12.3375 Z0.512
X-0.2302 Y12.3368 Z0.5095
X-0.2269 Y12.3361 Z0.5074
X-0.2234 Y12.3353 Z0.5059
X-0.2197 Y12.3344 Z0.505
X-0.2159 Y12.3336 Z0.5047
X0.1641 Y12.2468
X2.2215 Y11.7772 F200
G3 X2.2368 Y11.7869 I0.0028 J0.0125
G1 X2.2513 Y11.8504
G3 X2.2417 Y11.8657 I-0.0125 J0.0028
G1 X0.3864 Y12.2873
X0.1838 Y12.3336
G3 X0.1688 Y12.3242 I-0.0028 J-0.0122
G1 X0.1339 Y12.1717
G3 X0.1433 Y12.1567 I0.0122 J-0.0028
G1 X2.291 Y11.6665
G3 X2.3064 Y11.6761 I0.0029 J0.0125
G1 X2.362 Y11.9199
G3 X2.3524 Y11.9353 I-0.0125 J0.0029
G1 X0.407 Y12.3774
X0.2044 Y12.4237
G3 X0.1894 Y12.4142 I-0.0028 J-0.0122
G1 X0.105 Y12.0284
G3 X0.1144 Y12.0136 I0.0122 J-0.0026
G1 X2.4009 Y11.4917
G3 X2.4162 Y11.5013 I0.0028 J0.0125
G1 X2.5368 Y12.0298
G3 X2.5272 Y12.045 I-0.0124 J0.0028
G1 X0.4395 Y12.5197
X0.2402 Y12.5653
G3 X0.2252 Y12.5558 I-0.0028 J-0.0122
G1 X0.0779 Y11.8849
G3 X0.0874 Y11.8699 I0.0123 J-0.0027
G1 X2.5108 Y11.3169
G3 X2.526 Y11.3265 I0.0028 J0.0124
G1 X2.7116 Y12.1396
G3 X2.702 Y12.1549 I-0.0124 J0.0029
G1 X0.2784 Y12.7081
G3 X0.2634 Y12.6986 I-0.0028 J-0.0122
G1 X0.0509 Y11.7413
G3 X0.0604 Y11.7264 I0.0122 J-0.0027
G1 X2.6206 Y11.1421
G3 X2.6358 Y11.1517 I0.0028 J0.0124
G1 X2.8865 Y12.2495
G3 X2.8769 Y12.2648 I-0.0125 J0.0028
G1 X0.3165 Y12.8491
G3 X0.3017 Y12.8396 I-0.0027 J-0.0121
G1 X0.0292 Y11.5965
G3 X0.0386 Y11.5816 I0.0122 J-0.0027
G1 X2.7305 Y10.9672
G3 X2.7458 Y10.9768 I0.0028 J0.0125
G1 X3.0613 Y12.3593
G3 X3.0517 Y12.3747 I-0.0125 J0.0029
G1 X0.36 Y12.989
G3 X0.345 Y12.9795 I-0.0028 J-0.0122
G1 X0.0074 Y11.4517
G3 X0.0168 Y11.4368 I0.0122 J-0.0027
G1 X2.8403 Y10.7924
G3 X2.8555 Y10.802 I0.0028 J0.0124
G1 X3.2361 Y12.4692
G3 X3.2265 Y12.4844 I-0.0124 J0.0028
G1 X0.4029 Y13.1289
G3 X0.388 Y13.1194 I-0.0028 J-0.0121
G1 X-0.0124 Y11.3065
G3 X-0.003 Y11.2916 I0.0122 J-0.0027
G1 X2.9502 Y10.6176
G3 X2.9654 Y10.6272 I0.0028 J0.0124
G1 X3.411 Y12.579
G3 X3.4014 Y12.5944 I-0.0125 J0.0029
G1 X0.4482 Y13.2684
X0.3264 Y13.2962
X0.3226 Y13.297 Z0.505
X0.3188 Y13.2979 Z0.5059
X0.3153 Y13.2987 Z0.5074
X0.312 Y13.2994 Z0.5095
X0.3091 Y13.3001 Z0.512
X0.3067 Y13.3007 Z0.515
X0.3047 Y13.3011 Z0.5183
X0.3032 Y13.3015 Z0.522
X0.3023 Y13.3017 Z0.5258
X0.302 Z0.5297
G0 Z1.2037
X-0.4259 Y11.2382
G1 Z0.5297 F15
X-0.4256 Y11.2381 Z0.5258 F150
X-0.4247 Y11.2379 Z0.522
X-0.4232 Y11.2376 Z0.5183
X-0.4212 Y11.2371 Z0.515
X-0.4187 Y11.2365 Z0.512
X-0.4158 Y11.2359 Z0.5095
X-0.4126 Y11.2351 Z0.5074
X-0.409 Y11.2343 Z0.5059
X-0.4053 Y11.2335 Z0.505
X-0.4015 Y11.2326 Z0.5047
X-0.0188 Y11.1452
X0.1186 Y11.1139 F200
X3.0239 Y10.4508
X3.0726 Y10.4397 F50
X3.5777 Y12.6527 F200
X3.5889 Y12.7015 F50
X0.6348 Y13.3757 F200
X0.4972 Y13.4071
X0.3753 Y13.4349
X0.3715 Y13.4358 Z0.505
X0.3678 Y13.4367 Z0.5059
X0.3643 Y13.4375 Z0.5074
X0.361 Y13.4382 Z0.5095
X0.3581 Y13.4389 Z0.512
X0.3556 Y13.4394 Z0.515
X0.3536 Y13.4399 Z0.5183
X0.3522 Y13.4402 Z0.522
X0.3513 Y13.4404 Z0.5258
X0.351 Y13.4405 Z0.5297
G0 Z1.2037
X-0.4212 Y11.2802
G1 Z0.5272 F15
X-0.421 Y11.2801 Z0.5237 F150
X-0.4202 Y11.2798 Z0.5202
X-0.419 Y11.2793 Z0.517
X-0.4172 Y11.2786 Z0.514
X-0.4151 Y11.2777 Z0.5113
X-0.4126 Y11.2767 Z0.509
X-0.4098 Y11.2756 Z0.5071
X-0.4068 Y11.2744 Z0.5058
X-0.4036 Y11.2731 Z0.505
X-0.4003 Y11.2718 Z0.5047
X-0.0255 Y11.1215
X-0.0218 Y11.1203
X0.113 Y11.0895 F200
X3.0427 Y10.4208
X3.0914 Y10.4097 F50
X3.6077 Y12.6716 F200
X3.6188 Y12.7203 F50
X0.6404 Y13.4001 F200
X0.5056 Y13.4308
G3 X0.4911 Y13.4226 I-0.0027 J-0.0121
G1 X0.1053 Y12.2743
G3 X0.1144 Y12.2582 I0.0119 J-0.0039
G1 X0.1182 Y12.2573 Z0.5044 F150
X0.1219 Y12.2565 Z0.5035
X0.1255 Y12.2557 Z0.502
X0.1287 Y12.2549 Z0.4999
X0.1316 Y12.2542 Z0.4974
X0.1341 Y12.2537 Z0.4944
X0.1361 Y12.2532 Z0.491
X0.1376 Y12.2529 Z0.4874
X0.1385 Y12.2527 Z0.4836
X0.1388 Y12.2526 Z0.4797
Z0.245
X0.1391 Y12.2525 Z0.2411
X0.14 Y12.2523 Z0.2373
X0.1414 Y12.252 Z0.2337
X0.1434 Y12.2516 Z0.2303
X0.1459 Y12.251 Z0.2273
X0.1488 Y12.2503 Z0.2248
X0.1521 Y12.2496 Z0.2227
X0.1556 Y12.2488 Z0.2212
X0.1593 Y12.2479 Z0.2203
X0.1631 Y12.2471 Z0.22
X0.1641 Y12.2468
X2.2215 Y11.7772 F200
G3 X2.2368 Y11.7869 I0.0028 J0.0125
G1 X2.2513 Y11.8504
G3 X2.2417 Y11.8657 I-0.0125 J0.0028
G1 X0.3864 Y12.2873
X0.1838 Y12.3336
G3 X0.1688 Y12.3242 I-0.0028 J-0.0122
G1 X0.1339 Y12.1717
G3 X0.1433 Y12.1567 I0.0122 J-0.0028
G1 X2.291 Y11.6665
G3 X2.3064 Y11.6761 I0.0029 J0.0125
G1 X2.362 Y11.9199
G3 X2.3524 Y11.9353 I-0.0125 J0.0029
G1 X0.407 Y12.3774
X0.2044 Y12.4237
G3 X0.1894 Y12.4142 I-0.0028 J-0.0122
G1 X0.105 Y12.0284
G3 X0.1144 Y12.0136 I0.0122 J-0.0026
G1 X2.4009 Y11.4917
G3 X2.4162 Y11.5013 I0.0028 J0.0125
G1 X2.5368 Y12.0298
G3 X2.5272 Y12.045 I-0.0124 J0.0028
G1 X0.4395 Y12.5197
X0.2402 Y12.5653
G3 X0.2252 Y12.5558 I-0.0028 J-0.0122
G1 X0.0779 Y11.8849
G3 X0.0874 Y11.8699 I0.0123 J-0.0027
G1 X2.5108 Y11.3169
G3 X2.526 Y11.3265 I0.0028 J0.0124
G1 X2.7116 Y12.1396
G3 X2.702 Y12.1549 I-0.0124 J0.0029
G1 X0.2784 Y12.7081
G3 X0.2634 Y12.6986 I-0.0028 J-0.0122
G1 X0.0509 Y11.7413
G3 X0.0604 Y11.7264 I0.0122 J-0.0027
G1 X2.6206 Y11.1421
G3 X2.6358 Y11.1517 I0.0028 J0.0124
G1 X2.8865 Y12.2495
G3 X2.8769 Y12.2648 I-0.0125 J0.0028
G1 X0.3165 Y12.8491
G3 X0.3017 Y12.8396 I-0.0027 J-0.0121
G1 X0.0292 Y11.5965
G3 X0.0386 Y11.5816 I0.0122 J-0.0027
G1 X2.7305 Y10.9672
G3 X2.7458 Y10.9768 I0.0028 J0.0125
G1 X3.0613 Y12.3593
G3 X3.0517 Y12.3747 I-0.0125 J0.0029
G1 X0.36 Y12.989
G3 X0.345 Y12.9795 I-0.0028 J-0.0122
G1 X0.0074 Y11.4517
G3 X0.0168 Y11.4368 I0.0122 J-0.0027
G1 X2.8403 Y10.7924
G3 X2.8555 Y10.802 I0.0028 J0.0124
G1 X3.2361 Y12.4692
G3 X3.2265 Y12.4844 I-0.0124 J0.0028
G1 X0.4029 Y13.1289
G3 X0.388 Y13.1194 I-0.0028 J-0.0121
G1 X-0.0124 Y11.3065
G3 X-0.003 Y11.2916 I0.0122 J-0.0027
G1 X2.9502 Y10.6176
G3 X2.9654 Y10.6272 I0.0028 J0.0124
G1 X3.411 Y12.579
G3 X3.4014 Y12.5944 I-0.0125 J0.0029
G1 X0.4482 Y13.2684
X0.3264 Y13.2962
X0.3226 Y13.297 Z0.2203
X0.3188 Y13.2979 Z0.2212
X0.3153 Y13.2987 Z0.2227
X0.312 Y13.2994 Z0.2248
X0.3091 Y13.3001 Z0.2273
X0.3067 Y13.3007 Z0.2303
X0.3047 Y13.3011 Z0.2337
X0.3032 Y13.3015 Z0.2373
X0.3023 Y13.3017 Z0.2411
X0.302 Z0.245
G0 Z1.2037
X-0.4259 Y11.2382
G1 Z0.245 F15
X-0.4256 Y11.2381 Z0.2411 F150
X-0.4247 Y11.2379 Z0.2373
X-0.4232 Y11.2376 Z0.2337
X-0.4212 Y11.2371 Z0.2303
X-0.4187 Y11.2365 Z0.2273
X-0.4158 Y11.2359 Z0.2248
X-0.4126 Y11.2351 Z0.2227
X-0.409 Y11.2343 Z0.2212
X-0.4053 Y11.2335 Z0.2203
X-0.4015 Y11.2326 Z0.22
X-0.0188 Y11.1452
X0.1186 Y11.1139 F200
X3.0239 Y10.4508
X3.0726 Y10.4397 F50
X3.5777 Y12.6527 F200
X3.5889 Y12.7015 F50
X0.6348 Y13.3757 F200
X0.4972 Y13.4071
X0.3753 Y13.4349
X0.3715 Y13.4358 Z0.2203
X0.3678 Y13.4367 Z0.2212
X0.3643 Y13.4375 Z0.2227
X0.361 Y13.4382 Z0.2248
X0.3581 Y13.4389 Z0.2273
X0.3556 Y13.4394 Z0.2303
X0.3536 Y13.4399 Z0.2337
X0.3522 Y13.4402 Z0.2373
X0.3513 Y13.4404 Z0.2411
X0.351 Y13.4405 Z0.245
G0 Z1.2037
X-0.4212 Y11.2802
G1 Z0.2425 F15
X-0.421 Y11.2801 Z0.239 F150
X-0.4202 Y11.2798 Z0.2355
X-0.419 Y11.2793 Z0.2323
X-0.4172 Y11.2786 Z0.2293
X-0.4151 Y11.2777 Z0.2266
X-0.4126 Y11.2767 Z0.2243
X-0.4098 Y11.2756 Z0.2225
X-0.4068 Y11.2744 Z0.2211
X-0.4036 Y11.2731 Z0.2203
X-0.4003 Y11.2718 Z0.22
X-0.0255 Y11.1215
X-0.0218 Y11.1203
X0.113 Y11.0895 F200
X3.0427 Y10.4208
X3.0914 Y10.4097 F50
X3.6077 Y12.6716 F200
X3.6188 Y12.7203 F50
X0.6404 Y13.4001 F200
X0.5056 Y13.4308
X0.5018 Y13.4314
X0.377 Y13.4398
X0.3731 Y13.4401 Z0.2203
X0.3693 Y13.4403 Z0.2212
X0.3657 Y13.4406 Z0.2227
X0.3624 Y13.4408 Z0.2248
X0.3594 Y13.441 Z0.2273
X0.3569 Y13.4412 Z0.2303
X0.3548 Y13.4413 Z0.2337
X0.3533 Y13.4414 Z0.2373
X0.3524 Y13.4415 Z0.2411
X0.3521 Z0.245
G0 Z1.3894
X1.7754 Y16.5716
Z1.2037
G1 Z0.5297 F15
X1.7757 Y16.5715 Z0.5258 F150
X1.7764 Y16.5709 Z0.522
X1.7776 Y16.5699 Z0.5183
X1.7792 Y16.5687 Z0.515
X1.7812 Y16.5671 Z0.512
X1.7835 Y16.5652 Z0.5095
X1.7861 Y16.5631 Z0.5074
X1.7889 Y16.5609 Z0.5059
X1.7919 Y16.5585 Z0.505
X1.795 Y16.5561 Z0.5047
X2.0997 Y16.313
X3.7497 Y14.9972 F200
G3 X3.7677 Y14.9992 I0.008 J0.01
G1 X3.8083 Y15.0501
G3 X3.8063 Y15.0681 I-0.01 J0.008
G1 X2.1562 Y16.384
G3 X2.1386 Y16.382 I-0.0078 J-0.0098
G1 X2.0401 Y16.2583
G3 X2.0421 Y16.2407 I0.0098 J-0.0078
G1 X3.7644 Y14.8673
G3 X3.7823 Y14.8693 I0.0079 J0.01
G1 X3.9382 Y15.0648
G3 X3.9361 Y15.0827 I-0.01 J0.0079
G1 X2.2141 Y16.4561
G3 X2.1964 Y16.454 I-0.0078 J-0.0098
G1 X1.9519 Y16.1417
G3 X1.9539 Y16.1242 I0.0099 J-0.0077
G1 X3.7875 Y14.6621
G3 X3.8055 Y14.6641 I0.008 J0.01
G1 X4.1434 Y15.0879
G3 X4.1414 Y15.1059 I-0.01 J0.008
G1 X2.3077 Y16.5681
G3 X2.2901 Y16.5661 I-0.0078 J-0.0097
G1 X1.865 Y16.0244
G3 X1.867 Y16.0069 I0.0098 J-0.0077
G1 X3.8106 Y14.4569
G3 X3.8286 Y14.4589 I0.008 J0.01
G1 X4.3486 Y15.111
G3 X4.3466 Y15.129 I-0.01 J0.008
G1 X2.5574 Y16.5535
X2.4018 Y16.6776
G3 X2.3842 Y16.6756 I-0.0078 J-0.0098
G1 X1.7784 Y15.9067
G3 X1.7804 Y15.8893 I0.0098 J-0.0077
G1 X3.8337 Y14.2517
G3 X3.8517 Y14.2537 I0.008 J0.01
G1 X4.5538 Y15.1341
G3 X4.5518 Y15.1521 I-0.01 J0.008
G1 X2.4985 Y16.7895
G3 X2.4809 Y16.7874 I-0.0078 J-0.0098
G1 X1.696 Y15.7856
G3 X1.698 Y15.7682 I0.0098 J-0.0077
G1 X3.8568 Y14.0466
G3 X3.8748 Y14.0486 I0.008 J0.0099
G1 X4.7589 Y15.1573
G3 X4.7569 Y15.1752 I-0.01 J0.0079
G1 X2.7394 Y16.7818
X2.5969 Y16.8955
G3 X2.5793 Y16.8935 I-0.0078 J-0.0098
G1 X1.6136 Y15.6646
G3 X1.6156 Y15.6472 I0.0098 J-0.0077
G1 X3.88 Y13.8414
G3 X3.8979 Y13.8434 I0.0079 J0.01
G1 X4.9641 Y15.1804
G3 X4.962 Y15.1983 I-0.01 J0.0079
G1 X2.6977 Y17.0041
G3 X2.6801 Y17.0021 I-0.0078 J-0.0098
G1 X1.5331 Y15.5421
G3 X1.5351 Y15.5245 I0.0098 J-0.0078
G1 X3.9031 Y13.6362
G3 X3.921 Y13.6383 I0.0079 J0.01
G1 X5.1693 Y15.2035
G3 X5.1673 Y15.2215 I-0.01 J0.008
G1 X2.9215 Y17.0101
X2.7981 Y17.1085
X2.7004 Y17.1865
X2.6973 Y17.1889 Z0.505
X2.6943 Y17.1913 Z0.5059
X2.6915 Y17.1935 Z0.5074
X2.6889 Y17.1956 Z0.5095
X2.6866 Y17.1975 Z0.512
X2.6846 Y17.1991 Z0.515
X2.683 Y17.2004 Z0.5183
X2.6818 Y17.2013 Z0.522
X2.6811 Y17.2019 Z0.5258
X2.6808 Y17.2021 Z0.5297
G0 Z1.2037
X1.1305 Y15.6603
G1 Z0.5297 F15
X1.1307 Y15.6601 Z0.5258 F150
X1.1314 Y15.6595 Z0.522
X1.1326 Y15.6586 Z0.5183
X1.1342 Y15.6573 Z0.515
X1.1362 Y15.6557 Z0.512
X1.1385 Y15.6539 Z0.5095
X1.1412 Y15.6518 Z0.5074
X1.144 Y15.6495 Z0.5059
X1.147 Y15.6471 Z0.505
X1.15 Y15.6447 Z0.5047
X1.457 Y15.3999
X1.5673 Y15.312 F200
X3.8971 Y13.454
X3.9362 Y13.4228 F50
X5.3515 Y15.1975 F200
X5.3827 Y15.2366 F50
X3.0138 Y17.1258 F200
X2.9034 Y17.2138
X2.8057 Y17.2917
X2.8026 Y17.2942 Z0.505
X2.7996 Y17.2966 Z0.5059
X2.7968 Y17.2988 Z0.5074
X2.7942 Y17.3009 Z0.5095
X2.7919 Y17.3028 Z0.512
X2.7899 Y17.3043 Z0.515
X2.7883 Y17.3056 Z0.5183
X2.7871 Y17.3066 Z0.522
X2.7864 Y17.3071 Z0.5258
X2.7861 Y17.3073 Z0.5297
G0 Z1.2037
X1.1529 Y15.6961
G1 Z0.5272 F15
X1.1531 Y15.6959 Z0.5237 F150
X1.1537 Y15.6953 Z0.5202
X1.1546 Y15.6943 Z0.517
X1.1558 Y15.6929 Z0.514
X1.1574 Y15.6912 Z0.5113
X1.1592 Y15.6892 Z0.509
X1.1612 Y15.687 Z0.5071
X1.1634 Y15.6846 Z0.5058
X1.1658 Y15.6821 Z0.505
X1.1681 Y15.6795 Z0.5047
X1.4406 Y15.3814
X1.4435 Y15.3787
X1.5517 Y15.2924 F200
X3.9011 Y13.4188
X3.9402 Y13.3876 F50
X5.3867 Y15.2015 F200
X5.4178 Y15.2406 F50
X2.9213 Y17.2315 F200
G3 X2.9046 Y17.2305 I-0.0078 J-0.0098
G1 X2.0587 Y16.3633
G3 X2.0599 Y16.3449 I0.0089 J-0.0087
G1 X2.0629 Y16.3424 Z0.5044 F150
X2.0659 Y16.34 Z0.5035
X2.0687 Y16.3378 Z0.502
X2.0713 Y16.3357 Z0.4999
X2.0737 Y16.3338 Z0.4974
X2.0757 Y16.3322 Z0.4944
X2.0773 Y16.3309 Z0.491
X2.0784 Y16.33 Z0.4874
X2.0792 Y16.3294 Z0.4836
X2.0794 Y16.3292 Z0.4797
Z0.245
X2.0796 Y16.3291 Z0.2411
X2.0803 Y16.3285 Z0.2373
X2.0815 Y16.3275 Z0.2337
X2.0831 Y16.3263 Z0.2303
X2.0851 Y16.3247 Z0.2273
X2.0874 Y16.3228 Z0.2248
X2.0901 Y16.3207 Z0.2227
X2.0929 Y16.3185 Z0.2212
X2.0959 Y16.3161 Z0.2203
X2.0989 Y16.3137 Z0.22
X2.0997 Y16.313
X3.7497 Y14.9972 F200
G3 X3.7677 Y14.9992 I0.008 J0.01
G1 X3.8083 Y15.0501
G3 X3.8063 Y15.0681 I-0.01 J0.008
G1 X2.1562 Y16.384
G3 X2.1386 Y16.382 I-0.0078 J-0.0098
G1 X2.0401 Y16.2583
G3 X2.0421 Y16.2407 I0.0098 J-0.0078
G1 X3.7644 Y14.8673
G3 X3.7823 Y14.8693 I0.0079 J0.01
G1 X3.9382 Y15.0648
G3 X3.9361 Y15.0827 I-0.01 J0.0079
G1 X2.2141 Y16.4561
G3 X2.1964 Y16.454 I-0.0078 J-0.0098
G1 X1.9519 Y16.1417
G3 X1.9539 Y16.1242 I0.0099 J-0.0077
G1 X3.7875 Y14.6621
G3 X3.8055 Y14.6641 I0.008 J0.01
G1 X4.1434 Y15.0879
G3 X4.1414 Y15.1059 I-0.01 J0.008
G1 X2.3077 Y16.5681
G3 X2.2901 Y16.5661 I-0.0078 J-0.0097
G1 X1.865 Y16.0244
G3 X1.867 Y16.0069 I0.0098 J-0.0077
G1 X3.8106 Y14.4569
G3 X3.8286 Y14.4589 I0.008 J0.01
G1 X4.3486 Y15.111
G3 X4.3466 Y15.129 I-0.01 J0.008
G1 X2.5574 Y16.5535
X2.4018 Y16.6776
G3 X2.3842 Y16.6756 I-0.0078 J-0.0098
G1 X1.7784 Y15.9067
G3 X1.7804 Y15.8893 I0.0098 J-0.0077
G1 X3.8337 Y14.2517
G3 X3.8517 Y14.2537 I0.008 J0.01
G1 X4.5538 Y15.1341
G3 X4.5518 Y15.1521 I-0.01 J0.008
G1 X2.4985 Y16.7895
G3 X2.4809 Y16.7874 I-0.0078 J-0.0098
G1 X1.696 Y15.7856
G3 X1.698 Y15.7682 I0.0098 J-0.0077
G1 X3.8568 Y14.0466
G3 X3.8748 Y14.0486 I0.008 J0.0099
G1 X4.7589 Y15.1573
G3 X4.7569 Y15.1752 I-0.01 J0.0079
G1 X2.7394 Y16.7818
X2.5969 Y16.8955
G3 X2.5793 Y16.8935 I-0.0078 J-0.0098
G1 X1.6136 Y15.6646
G3 X1.6156 Y15.6472 I0.0098 J-0.0077
G1 X3.88 Y13.8414
G3 X3.8979 Y13.8434 I0.0079 J0.01
G1 X4.9641 Y15.1804
G3 X4.962 Y15.1983 I-0.01 J0.0079
G1 X2.6977 Y17.0041
G3 X2.6801 Y17.0021 I-0.0078 J-0.0098
G1 X1.5331 Y15.5421
G3 X1.5351 Y15.5245 I0.0098 J-0.0078
G1 X3.9031 Y13.6362
G3 X3.921 Y13.6383 I0.0079 J0.01
G1 X5.1693 Y15.2035
G3 X5.1673 Y15.2215 I-0.01 J0.008
G1 X2.9215 Y17.0101
X2.7981 Y17.1085
X2.7004 Y17.1865
X2.6973 Y17.1889 Z0.2203
X2.6943 Y17.1913 Z0.2212
X2.6915 Y17.1935 Z0.2227
X2.6889 Y17.1956 Z0.2248
X2.6866 Y17.1975 Z0.2273
X2.6846 Y17.1991 Z0.2303
X2.683 Y17.2004 Z0.2337
X2.6818 Y17.2013 Z0.2373
X2.6811 Y17.2019 Z0.2411
X2.6808 Y17.2021 Z0.245
G0 Z1.2037
X1.1305 Y15.6603
G1 Z0.245 F15
X1.1307 Y15.6601 Z0.2411 F150
X1.1314 Y15.6595 Z0.2373
X1.1326 Y15.6586 Z0.2337
X1.1342 Y15.6573 Z0.2303
X1.1362 Y15.6557 Z0.2273
X1.1385 Y15.6539 Z0.2248
X1.1412 Y15.6518 Z0.2227
X1.144 Y15.6495 Z0.2212
X1.147 Y15.6471 Z0.2203
X1.15 Y15.6447 Z0.22
X1.457 Y15.3999
X1.5673 Y15.312 F200
X3.8971 Y13.454
X3.9362 Y13.4228 F50
X5.3515 Y15.1975 F200
X5.3827 Y15.2366 F50
X3.0138 Y17.1258 F200
X2.9034 Y17.2138
X2.8057 Y17.2917
X2.8026 Y17.2942 Z0.2203
X2.7996 Y17.2966 Z0.2212
X2.7968 Y17.2988 Z0.2227
X2.7942 Y17.3009 Z0.2248
X2.7919 Y17.3028 Z0.2273
X2.7899 Y17.3043 Z0.2303
X2.7883 Y17.3056 Z0.2337
X2.7871 Y17.3066 Z0.2373
X2.7864 Y17.3071 Z0.2411
X2.7861 Y17.3073 Z0.245
G0 Z1.2037
X1.1529 Y15.6961
G1 Z0.2425 F15
X1.1531 Y15.6959 Z0.239 F150
X1.1537 Y15.6953 Z0.2355
X1.1546 Y15.6943 Z0.2323
X1.1558 Y15.6929 Z0.2293
X1.1574 Y15.6912 Z0.2266
X1.1592 Y15.6892 Z0.2243
X1.1612 Y15.687 Z0.2225
X1.1634 Y15.6846 Z0.2211
X1.1658 Y15.6821 Z0.2203
X1.1681 Y15.6795 Z0.22
X1.4406 Y15.3814
X1.4435 Y15.3787
X1.5517 Y15.2924 F200
X3.9011 Y13.4188
X3.9402 Y13.3876 F50
X5.3867 Y15.2015 F200
X5.4178 Y15.2406 F50
X2.9213 Y17.2315 F200
X2.918 Y17.2337
X2.8093 Y17.2954
X2.8059 Y17.2973 Z0.2203
X2.8026 Y17.2992 Z0.2212
X2.7994 Y17.301 Z0.2227
X2.7965 Y17.3027 Z0.2248
X2.7939 Y17.3041 Z0.2273
X2.7917 Y17.3054 Z0.2303
X2.7899 Y17.3064 Z0.2337
X2.7886 Y17.3071 Z0.2373
X2.7878 Y17.3076 Z0.2411
X2.7876 Y17.3077 Z0.245
G0 Z1.3894
X5.4282 Y19.5101
Z1.2037
G1 Z0.5297 F15
X5.4283 Y19.5098 Z0.5258 F150
X5.4287 Y19.509 Z0.522
X5.4294 Y19.5076 Z0.5183
X5.4303 Y19.5058 Z0.515
X5.4314 Y19.5035 Z0.512
X5.4327 Y19.5008 Z0.5095
X5.4341 Y19.4978 Z0.5074
X5.4357 Y19.4945 Z0.5059
X5.4373 Y19.4911 Z0.505
X5.439 Y19.4876 Z0.5047
X5.6081 Y19.1364
X6.5237 Y17.2352 F200
G3 X6.5408 Y17.2292 I0.0115 J0.0055
G1 X6.5994 Y17.2575
G3 X6.6054 Y17.2745 I-0.0055 J0.0115
G1 X5.6897 Y19.1761
G3 X5.673 Y19.1819 I-0.0113 J-0.0055
G1 X5.5306 Y19.1131
G3 X5.5248 Y19.0964 I0.0055 J-0.0113
G1 X6.4805 Y17.1118
G3 X6.4976 Y17.1058 I0.0115 J0.0055
G1 X6.7229 Y17.2143
G3 X6.7288 Y17.2313 I-0.0056 J0.0115
G1 X5.7731 Y19.2159
G3 X5.7564 Y19.2216 I-0.0112 J-0.0054
G1 X5.4005 Y19.0466
G3 X5.3948 Y19.03 I0.0055 J-0.0112
G1 X6.4123 Y16.9169
G3 X6.4294 Y16.9109 I0.0115 J0.0055
G1 X6.9178 Y17.1461
G3 X6.9237 Y17.1632 I-0.0056 J0.0115
G1 X5.9061 Y19.2762
G3 X5.8894 Y19.2819 I-0.0112 J-0.0054
G1 X5.2713 Y18.9784
G3 X5.2655 Y18.9618 I0.0055 J-0.0112
G1 X6.3441 Y16.722
G3 X6.3612 Y16.7159 I0.0116 J0.0055
G1 X7.1126 Y17.0779
G3 X7.1186 Y17.0949 I-0.0055 J0.0115
G1 X6.04 Y19.3347
G3 X6.0232 Y19.3406 I-0.0113 J-0.0054
G1 X5.1423 Y18.9098
G3 X5.1366 Y18.8932 I0.0055 J-0.0112
G1 X6.2759 Y16.5271
G3 X6.2931 Y16.521 I0.0116 J0.0055
G1 X7.3075 Y17.0097
G3 X7.3135 Y17.0268 I-0.0055 J0.0115
G1 X6.1741 Y19.3929
G3 X6.1573 Y19.3987 I-0.0113 J-0.0055
G1 X5.0156 Y18.8363
G3 X5.0098 Y18.8197 I0.0055 J-0.0112
G1 X6.2078 Y16.3322
G3 X6.2248 Y16.3263 I0.0115 J0.0056
G1 X7.5024 Y16.9415
G3 X7.5084 Y16.9586 I-0.0055 J0.0115
G1 X6.3105 Y19.4461
G3 X6.2937 Y19.4519 I-0.0113 J-0.0054
G1 X4.8887 Y18.7633
G3 X4.883 Y18.7467 I0.0055 J-0.0112
G1 X6.1396 Y16.1373
G3 X6.1566 Y16.1314 I0.0115 J0.0056
G1 X7.6973 Y16.8733
G3 X7.7033 Y16.8904 I-0.0055 J0.0115
G1 X6.4467 Y19.4998
G3 X6.4299 Y19.5056 I-0.0113 J-0.0054
G1 X4.7629 Y18.6881
G3 X4.7572 Y18.6714 I0.0055 J-0.0112
G1 X6.0714 Y15.9424
G3 X6.0884 Y15.9365 I0.0115 J0.0056
G1 X7.8922 Y16.8051
G3 X7.8982 Y16.8222 I-0.0055 J0.0115
G1 X6.5839 Y19.5513
X6.5297 Y19.6639
X6.528 Y19.6674 Z0.505
X6.5263 Y19.6708 Z0.5059
X6.5248 Y19.6741 Z0.5074
X6.5233 Y19.6771 Z0.5095
X6.522 Y19.6798 Z0.512
X6.5209 Y19.6821 Z0.515
X6.52 Y19.684 Z0.5183
X6.5194 Y19.6853 Z0.522
X6.519 Y19.6861 Z0.5258
X6.5188 Y19.6864 Z0.5297
G0 Z1.2037
X4.4516 Y18.969
G1 Z0.5297 F15
X4.4517 Y18.9687 Z0.5258 F150
X4.4521 Y18.9679 Z0.522
X4.4528 Y18.9665 Z0.5183
X4.4537 Y18.9647 Z0.515
X4.4548 Y18.9624 Z0.512
X4.4561 Y18.9597 Z0.5095
X4.4575 Y18.9567 Z0.5074
X4.4591 Y18.9534 Z0.5059
X4.4608 Y18.95 Z0.505
X4.4625 Y18.9464 Z0.5047
X4.6328 Y18.5927
X4.694 Y18.4657 F200
X5.9869 Y15.7808
X6.0086 Y15.7358 F50
X8.0538 Y16.7207 F200
X8.0989 Y16.7424 F50
X6.723 Y19.5995 F200
X6.6687 Y19.7121
X6.667 Y19.7156 Z0.505
X6.6654 Y19.7191 Z0.5059
X6.6638 Y19.7223 Z0.5074
X6.6623 Y19.7253 Z0.5095
X6.661 Y19.728 Z0.512
X6.6599 Y19.7303 Z0.515
X6.6591 Y19.7322 Z0.5183
X6.6584 Y19.7335 Z0.522
X6.658 Y19.7344 Z0.5258
X6.6579 Y19.7346 Z0.5297
G0 Z1.2037
X4.4873 Y18.9917
G1 Z0.5272 F15
X4.4874 Y18.9914 Z0.5237 F150
X4.4877 Y18.9906 Z0.5202
X4.4881 Y18.9893 Z0.517
X4.4886 Y18.9876 Z0.514
X4.4892 Y18.9854 Z0.5113
X4.49 Y18.9828 Z0.509
X4.4909 Y18.9799 Z0.5071
X4.4918 Y18.9768 Z0.5058
X4.4928 Y18.9735 Z0.505
X4.4938 Y18.9701 Z0.5047
X4.6101 Y18.583
X4.6115 Y18.5793
X4.6714 Y18.4549 F200
X5.9752 Y15.7474
X5.9969 Y15.7024 F50
X8.0872 Y16.709 F200
X8.1322 Y16.7307 F50
X6.8067 Y19.4831 F200
X6.7468 Y19.6077
G3 X6.7312 Y19.6141 I-0.0113 J-0.0054
G1 X5.593 Y19.1995
G3 X5.5861 Y19.1824 I0.0043 J-0.0117
G1 X5.5877 Y19.1788 Z0.5044 F150
X5.5894 Y19.1754 Z0.5035
X5.5909 Y19.1721 Z0.502
X5.5924 Y19.1691 Z0.4999
X5.5937 Y19.1664 Z0.4974
X5.5948 Y19.1641 Z0.4944
X5.5957 Y19.1623 Z0.491
X5.5963 Y19.1609 Z0.4874
X5.5967 Y19.1601 Z0.4836
X5.5969 Y19.1598 Z0.4797
Z0.245
X5.597 Y19.1595 Z0.2411
X5.5974 Y19.1587 Z0.2373
X5.5981 Y19.1574 Z0.2337
X5.5989 Y19.1555 Z0.2303
X5.6 Y19.1532 Z0.2273
X5.6013 Y19.1505 Z0.2248
X5.6028 Y19.1475 Z0.2227
X5.6044 Y19.1442 Z0.2212
X5.606 Y19.1408 Z0.2203
X5.6077 Y19.1373 Z0.22
X5.6081 Y19.1364
X6.5237 Y17.2352 F200
G3 X6.5408 Y17.2292 I0.0115 J0.0055
G1 X6.5994 Y17.2575
G3 X6.6054 Y17.2745 I-0.0055 J0.0115
G1 X5.6897 Y19.1761
G3 X5.673 Y19.1819 I-0.0113 J-0.0055
G1 X5.5306 Y19.1131
G3 X5.5248 Y19.0964 I0.0055 J-0.0113
G1 X6.4805 Y17.1118
G3 X6.4976 Y17.1058 I0.0115 J0.0055
G1 X6.7229 Y17.2143
G3 X6.7288 Y17.2313 I-0.0056 J0.0115
G1 X5.7731 Y19.2159
G3 X5.7564 Y19.2216 I-0.0112 J-0.0054
G1 X5.4005 Y19.0466
G3 X5.3948 Y19.03 I0.0055 J-0.0112
G1 X6.4123 Y16.9169
G3 X6.4294 Y16.9109 I0.0115 J0.0055
G1 X6.9178 Y17.1461
G3 X6.9237 Y17.1632 I-0.0056 J0.0115
G1 X5.9061 Y19.2762
G3 X5.8894 Y19.2819 I-0.0112 J-0.0054
G1 X5.2713 Y18.9784
G3 X5.2655 Y18.9618 I0.0055 J-0.0112
G1 X6.3441 Y16.722
G3 X6.3612 Y16.7159 I0.0116 J0.0055
G1 X7.1126 Y17.0779
G3 X7.1186 Y17.0949 I-0.0055 J0.0115
G1 X6.04 Y19.3347
G3 X6.0232 Y19.3406 I-0.0113 J-0.0054
G1 X5.1423 Y18.9098
G3 X5.1366 Y18.8932 I0.0055 J-0.0112
G1 X6.2759 Y16.5271
G3 X6.2931 Y16.521 I0.0116 J0.0055
G1 X7.3075 Y17.0097
G3 X7.3135 Y17.0268 I-0.0055 J0.0115
G1 X6.1741 Y19.3929
G3 X6.1573 Y19.3987 I-0.0113 J-0.0055
G1 X5.0156 Y18.8363
G3 X5.0098 Y18.8197 I0.0055 J-0.0112
G1 X6.2078 Y16.3322
G3 X6.2248 Y16.3263 I0.0115 J0.0056
G1 X7.5024 Y16.9415
G3 X7.5084 Y16.9586 I-0.0055 J0.0115
G1 X6.3105 Y19.4461
G3 X6.2937 Y19.4519 I-0.0113 J-0.0054
G1 X4.8887 Y18.7633
G3 X4.883 Y18.7467 I0.0055 J-0.0112
G1 X6.1396 Y16.1373
G3 X6.1566 Y16.1314 I0.0115 J0.0056
G1 X7.6973 Y16.8733
G3 X7.7033 Y16.8904 I-0.0055 J0.0115
G1 X6.4467 Y19.4998
G3 X6.4299 Y19.5056 I-0.0113 J-0.0054
G1 X4.7629 Y18.6881
G3 X4.7572 Y18.6714 I0.0055 J-0.0112
G1 X6.0714 Y15.9424
G3 X6.0884 Y15.9365 I0.0115 J0.0056
G1 X7.8922 Y16.8051
G3 X7.8982 Y16.8222 I-0.0055 J0.0115
G1 X6.5839 Y19.5513
X6.5297 Y19.6639
X6.528 Y19.6674 Z0.2203
X6.5263 Y19.6708 Z0.2212
X6.5248 Y19.6741 Z0.2227
X6.5233 Y19.6771 Z0.2248
X6.522 Y19.6798 Z0.2273
X6.5209 Y19.6821 Z0.2303
X6.52 Y19.684 Z0.2337
X6.5194 Y19.6853 Z0.2373
X6.519 Y19.6861 Z0.2411
X6.5188 Y19.6864 Z0.245
G0 Z1.2037
X4.4516 Y18.969
G1 Z0.245 F15
X4.4517 Y18.9687 Z0.2411 F150
X4.4521 Y18.9679 Z0.2373
X4.4528 Y18.9665 Z0.2337
X4.4537 Y18.9647 Z0.2303
X4.4548 Y18.9624 Z0.2273
X4.4561 Y18.9597 Z0.2248
X4.4575 Y18.9567 Z0.2227
X4.4591 Y18.9534 Z0.2212
X4.4608 Y18.95 Z0.2203
X4.4625 Y18.9464 Z0.22
X4.6328 Y18.5927
X4.694 Y18.4657 F200
X5.9869 Y15.7808
X6.0086 Y15.7358 F50
X8.0538 Y16.7207 F200
X8.0989 Y16.7424 F50
X6.723 Y19.5995 F200
X6.6687 Y19.7121
X6.667 Y19.7156 Z0.2203
X6.6654 Y19.7191 Z0.2212
X6.6638 Y19.7223 Z0.2227
X6.6623 Y19.7253 Z0.2248
X6.661 Y19.728 Z0.2273
X6.6599 Y19.7303 Z0.2303
X6.6591 Y19.7322 Z0.2337
X6.6584 Y19.7335 Z0.2373
X6.658 Y19.7344 Z0.2411
X6.6579 Y19.7346 Z0.245
G0 Z1.2037
X4.4873 Y18.9917
G1 Z0.2425 F15
X4.4874 Y18.9914 Z0.239 F150
X4.4877 Y18.9906 Z0.2355
X4.4881 Y18.9893 Z0.2323
X4.4886 Y18.9876 Z0.2293
X4.4892 Y18.9854 Z0.2266
X4.49 Y18.9828 Z0.2243
X4.4909 Y18.9799 Z0.2225
X4.4918 Y18.9768 Z0.2211
X4.4928 Y18.9735 Z0.2203
X4.4938 Y18.9701 Z0.22
X4.6101 Y18.583
X4.6115 Y18.5793
X4.6714 Y18.4549 F200
X5.9752 Y15.7474
X5.9969 Y15.7024 F50
X8.0872 Y16.709 F200
X8.1322 Y16.7307 F50
X6.8067 Y19.4831 F200
X6.7468 Y19.6077
X6.7448 Y19.6111
X6.6736 Y19.7138
X6.6714 Y19.717 Z0.2203
X6.6692 Y19.7202 Z0.2212
X6.6671 Y19.7232 Z0.2227
X6.6652 Y19.7259 Z0.2248
X6.6635 Y19.7284 Z0.2273
X6.6621 Y19.7304 Z0.2303
X6.6609 Y19.7321 Z0.2337
X6.6601 Y19.7334 Z0.2373
X6.6595 Y19.7341 Z0.2411
X6.6594 Y19.7344 Z0.245
G0 Z1.3894
X10.034 Y20.5727
Z1.2037
G1 Z0.5297 F15
G19 G2 Y20.5477 Z0.5047 J-0.025 K0 F150
G1 Y20.1583
Y18.084 F200
G17 G3 X10.0448 I0.0054 J0 F50
G1 Y20.1583 F200
G3 X10.0323 Y20.1708 I-0.0125 J0
G1 X9.9141 Y20.1707
G3 X9.9016 Y20.1582 I0 J-0.0125
G1 Y17.9555
G3 X9.9143 Y17.9428 I0.0127 J0
G1 X10.1644 Y17.9427
G3 X10.1772 Y17.9555 I0 J0.0128
G1 Y20.1582
G3 X10.1646 Y20.1707 I-0.0125 J0
G1 X9.768 Y20.1672
G3 X9.7556 Y20.1547 I0.0001 J-0.0125
G1 Y17.8095
G3 X9.7683 Y17.7968 I0.0127 J0
G1 X10.3104 Y17.7967
G3 X10.3232 Y17.8095 I0 J0.0128
G1 Y20.1548
G3 X10.3106 Y20.1673 I-0.0125 J0
G1 X9.622 Y20.1617
G3 X9.6096 Y20.1492 I0.0001 J-0.0125
G1 Y17.6635
G3 X9.6223 Y17.6508 I0.0127 J0
G1 X10.4564 Y17.6507
G3 X10.4692 Y17.6635 I0 J0.0128
G1 Y20.1495
G3 X10.4566 Y20.162 I-0.0125 J0
G1 X9.476 Y20.1563
G3 X9.4636 Y20.1438 I0.0001 J-0.0125
G1 Y17.5175
G3 X9.4763 Y17.5048 I0.0127 J0
G1 X10.6024 Y17.5047
G3 X10.6152 Y17.5175 I0 J0.0128
G1 Y20.1436
G3 X10.6026 Y20.1561 I-0.0125 J0
G1 X9.33 Y20.1449
G3 X9.3176 Y20.1324 I0.0001 J-0.0125
G1 Y17.3715
G3 X9.3303 Y17.3588 I0.0127 J0
G1 X10.7484 Y17.3587
G3 X10.7612 Y17.3715 I0 J0.0128
G1 Y20.1324
G3 X10.7486 Y20.1449 I-0.0125 J0
G1 X9.184 Y20.1341
G3 X9.1716 Y20.1216 I0.0001 J-0.0125
G1 Y17.2255
G3 X9.1843 Y17.2128 I0.0127 J0
G1 X10.8944 Y17.2127
G3 X10.9072 Y17.2255 I0 J0.0128
G1 Y20.1217
G3 X10.8946 Y20.1342 I-0.0125 J0
G1 X9.038 Y20.1208
G3 X9.0256 Y20.1083 I0.0001 J-0.0125
G1 Y17.0795
G3 X9.0383 Y17.0668 I0.0127 J0
G1 X11.0404 Y17.0667
G3 X11.0532 Y17.0795 I0 J0.0128
G1 Y20.1085
Y20.2335
G19 G3 Y20.2585 Z0.5297 J0 K0.025
G0 Z1.2037
X8.8794 Y20.509
G1 Z0.5297 F15
G2 Y20.484 Z0.5047 J-0.025 K0 F150
G1 Y20.0918
Y16.9705 F200
Y16.9205 F50
X11.1494 F200
X11.1994 F50
Y20.0917 F200
Y20.2167
G3 Y20.2417 Z0.5297 J0 K0.025
G0 Z1.2037
X8.9214 Y20.5139
G1 Z0.5272 F15
X8.9213 Y20.5136 Z0.5237 F150
X8.9212 Y20.5128 Z0.5202
X8.921 Y20.5114 Z0.517
X8.9207 Y20.5096 Z0.514
X8.9203 Y20.5074 Z0.5113
X8.9199 Y20.5047 Z0.509
X8.9195 Y20.5017 Z0.5071
X8.9189 Y20.4985 Z0.5058
X8.9184 Y20.4951 Z0.505
X8.9179 Y20.4916 Z0.5047
X8.8547 Y20.0928
X8.8544 Y20.0889
Y16.9455 F200
Y16.8955 F50
X11.1744 F200
X11.2244 F50
Y20.0887 F200
G17 G3 X11.2132 Y20.1011 I-0.0125 J0
G1 X10.0477 Y20.2217
G3 X10.034 Y20.2093 I-0.0012 J-0.0124
G19 G3 Y20.1843 Z0.4797 J0 K-0.025 F150
G1 Z0.245
G2 Y20.1593 Z0.22 J-0.025 K0
G1 Y20.1583
Y18.084 F200
G17 G3 X10.0448 I0.0054 J0 F50
G1 Y20.1583 F200
G3 X10.0323 Y20.1708 I-0.0125 J0
G1 X9.9141 Y20.1707
G3 X9.9016 Y20.1582 I0 J-0.0125
G1 Y17.9555
G3 X9.9143 Y17.9428 I0.0127 J0
G1 X10.1644 Y17.9427
G3 X10.1772 Y17.9555 I0 J0.0128
G1 Y20.1582
G3 X10.1646 Y20.1707 I-0.0125 J0
G1 X9.768 Y20.1672
G3 X9.7556 Y20.1547 I0.0001 J-0.0125
G1 Y17.8095
G3 X9.7683 Y17.7968 I0.0127 J0
G1 X10.3104 Y17.7967
G3 X10.3232 Y17.8095 I0 J0.0128
G1 Y20.1548
G3 X10.3106 Y20.1673 I-0.0125 J0
G1 X9.622 Y20.1617
G3 X9.6096 Y20.1492 I0.0001 J-0.0125
G1 Y17.6635
G3 X9.6223 Y17.6508 I0.0127 J0
G1 X10.4564 Y17.6507
G3 X10.4692 Y17.6635 I0 J0.0128
G1 Y20.1495
G3 X10.4566 Y20.162 I-0.0125 J0
G1 X9.476 Y20.1563
G3 X9.4636 Y20.1438 I0.0001 J-0.0125
G1 Y17.5175
G3 X9.4763 Y17.5048 I0.0127 J0
G1 X10.6024 Y17.5047
G3 X10.6152 Y17.5175 I0 J0.0128
G1 Y20.1436
G3 X10.6026 Y20.1561 I-0.0125 J0
G1 X9.33 Y20.1449
G3 X9.3176 Y20.1324 I0.0001 J-0.0125
G1 Y17.3715
G3 X9.3303 Y17.3588 I0.0127 J0
G1 X10.7484 Y17.3587
G3 X10.7612 Y17.3715 I0 J0.0128
G1 Y20.1324
G3 X10.7486 Y20.1449 I-0.0125 J0
G1 X9.184 Y20.1341
G3 X9.1716 Y20.1216 I0.0001 J-0.0125
G1 Y17.2255
G3 X9.1843 Y17.2128 I0.0127 J0
G1 X10.8944 Y17.2127
G3 X10.9072 Y17.2255 I0 J0.0128
G1 Y20.1217
G3 X10.8946 Y20.1342 I-0.0125 J0
G1 X9.038 Y20.1208
G3 X9.0256 Y20.1083 I0.0001 J-0.0125
G1 Y17.0795
G3 X9.0383 Y17.0668 I0.0127 J0
G1 X11.0404 Y17.0667
G3 X11.0532 Y17.0795 I0 J0.0128
G1 Y20.1085
Y20.2335
G19 G3 Y20.2585 Z0.245 J0 K0.025
G0 Z1.2037
X8.8794 Y20.509
G1 Z0.245 F15
G2 Y20.484 Z0.22 J-0.025 K0 F150
G1 Y20.0918
Y16.9705 F200
Y16.9205 F50
X11.1494 F200
X11.1994 F50
Y20.0917 F200
Y20.2167
G3 Y20.2417 Z0.245 J0 K0.025
G0 Z1.2037
X8.9214 Y20.5139
G1 Z0.2425 F15
X8.9213 Y20.5136 Z0.239 F150
X8.9212 Y20.5128 Z0.2355
X8.921 Y20.5114 Z0.2323
X8.9207 Y20.5096 Z0.2293
X8.9203 Y20.5074 Z0.2266
X8.9199 Y20.5047 Z0.2243
X8.9195 Y20.5017 Z0.2225
X8.9189 Y20.4985 Z0.2211
X8.9184 Y20.4951 Z0.2203
X8.9179 Y20.4916 Z0.22
X8.8547 Y20.0928
X8.8544 Y20.0889
Y16.9455 F200
Y16.8955 F50
X11.1744 F200
X11.2244 F50
Y20.0887 F200
X11.2241 Y20.0926
X11.2045 Y20.2161
X11.2039 Y20.22 Z0.2203
X11.2033 Y20.2237 Z0.2212
X11.2027 Y20.2273 Z0.2227
X11.2022 Y20.2306 Z0.2248
X11.2017 Y20.2336 Z0.2273
X11.2013 Y20.2361 Z0.2303
X11.201 Y20.2381 Z0.2337
X11.2008 Y20.2396 Z0.2373
X11.2006 Y20.2405 Z0.2411
Y20.2408 Z0.245
G0 Z1.3894
X14.5689 Y19.5495
Z1.2037
G1 Z0.5297 F15
X14.5687 Y19.5492 Z0.5258 F150
X14.5683 Y19.5484 Z0.522
X14.5677 Y19.547 Z0.5183
X14.5668 Y19.5452 Z0.515
X14.5657 Y19.5429 Z0.512
X14.5644 Y19.5402 Z0.5095
X14.563 Y19.5372 Z0.5074
X14.5614 Y19.5339 Z0.5059
X14.5597 Y19.5305 Z0.505
X14.558 Y19.5269 Z0.5047
X14.3889 Y19.1758
X13.4733 Y17.2745 F200
G17 G3 X13.4793 Y17.2575 I0.0115 J-0.0055
G1 X13.538 Y17.2292
G3 X13.555 Y17.2352 I0.0055 J0.0115
G1 X14.4707 Y19.1367
G3 X14.4649 Y19.1533 I-0.0112 J0.0054
G1 X14.3224 Y19.222
G3 X14.3057 Y19.2161 I-0.0054 J-0.0113
G1 X13.3499 Y17.2313
G3 X13.3559 Y17.2143 I0.0115 J-0.0055
G1 X13.5812 Y17.1058
G3 X13.5982 Y17.1118 I0.0055 J0.0115
G1 X14.5539 Y19.0963
G3 X14.548 Y19.113 I-0.0113 J0.0054
G1 X14.1891 Y19.2819
G3 X14.1726 Y19.276 I-0.0053 J-0.0113
G1 X13.155 Y17.1632
G3 X13.161 Y17.1461 I0.0115 J-0.0056
G1 X13.6494 Y16.9109
G3 X13.6664 Y16.9169 I0.0055 J0.0115
G1 X14.684 Y19.0299
G3 X14.6781 Y19.0467 I-0.0113 J0.0055
G1 X14.0553 Y19.3405
G3 X14.0386 Y19.3346 I-0.0054 J-0.0113
G1 X12.9601 Y17.095
G3 X12.9661 Y17.0779 I0.0115 J-0.0056
G1 X13.7175 Y16.716
G3 X13.7346 Y16.722 I0.0056 J0.0115
G1 X14.8132 Y18.9618
G3 X14.8073 Y18.9785 I-0.0112 J0.0054
G1 X13.9212 Y19.3986
G3 X13.9046 Y19.3927 I-0.0053 J-0.0113
G1 X12.7652 Y17.0268
G3 X12.7712 Y17.0096 I0.0116 J-0.0056
G1 X13.7857 Y16.5211
G3 X13.8028 Y16.5271 I0.0056 J0.0115
G1 X14.9422 Y18.8932
G3 X14.9363 Y18.9099 I-0.0112 J0.0054
G1 X13.785 Y19.4523
G3 X13.7685 Y19.4464 I-0.0053 J-0.0113
G1 X12.5704 Y16.9586
G3 X12.5763 Y16.9415 I0.0115 J-0.0056
G1 X13.8539 Y16.3262
G3 X13.8711 Y16.3322 I0.0056 J0.0116
G1 X15.0689 Y18.8197
G3 X15.063 Y18.8365 I-0.0113 J0.0055
G1 X13.6486 Y19.5056
G3 X13.632 Y19.4997 I-0.0053 J-0.0113
G1 X12.3755 Y16.8904
G3 X12.3814 Y16.8733 I0.0115 J-0.0056
G1 X13.9221 Y16.1314
G3 X13.9392 Y16.1373 I0.0056 J0.0115
G1 X15.1958 Y18.7467
G3 X15.1899 Y18.7635 I-0.0113 J0.0055
G1 X13.5114 Y19.5571
G3 X13.4948 Y19.5512 I-0.0053 J-0.0113
G1 X12.1806 Y16.8222
G3 X12.1865 Y16.8051 I0.0115 J-0.0056
G1 X13.9903 Y15.9365
G3 X14.0074 Y15.9424 I0.0056 J0.0115
G1 X15.3216 Y18.6715
X15.3759 Y18.7841
X15.3776 Y18.7877 Z0.505
X15.3792 Y18.7911 Z0.5059
X15.3808 Y18.7944 Z0.5074
X15.3822 Y18.7974 Z0.5095
X15.3835 Y18.8001 Z0.512
X15.3846 Y18.8024 Z0.515
X15.3855 Y18.8042 Z0.5183
X15.3862 Y18.8056 Z0.522
X15.3866 Y18.8064 Z0.5258
X15.3867 Y18.8067 Z0.5297
G0 Z1.2037
X13.5368 Y19.9754
G1 Z0.5297 F15
X13.5367 Y19.9752 Z0.5258 F150
X13.5363 Y19.9743 Z0.522
X13.5357 Y19.973 Z0.5183
X13.5348 Y19.9711 Z0.515
X13.5337 Y19.9688 Z0.512
X13.5324 Y19.9662 Z0.5095
X13.5309 Y19.9631 Z0.5074
X13.5293 Y19.9599 Z0.5059
X13.5277 Y19.9564 Z0.505
X13.526 Y19.9529 Z0.5047
X13.3558 Y19.5996
X13.2945 Y19.4723 F200
X12.0016 Y16.7874
X11.9799 Y16.7424 F50
X14.0251 Y15.7575 F200
X14.0701 Y15.7358 F50
X15.446 Y18.5929 F200
X15.5003 Y18.7055
X15.502 Y18.7091 Z0.505
X15.5036 Y18.7125 Z0.5059
X15.5052 Y18.7158 Z0.5074
X15.5066 Y18.7188 Z0.5095
X15.5079 Y18.7215 Z0.512
X15.509 Y18.7238 Z0.515
X15.5099 Y18.7256 Z0.5183
X15.5106 Y18.727 Z0.522
X15.511 Y18.7278 Z0.5258
X15.5111 Y18.7281 Z0.5297
G0 Z1.2037
X13.5768 Y19.9616
G1 Z0.5272 F15
X13.5767 Y19.9614 Z0.5237 F150
X13.5762 Y19.9607 Z0.5202
X13.5754 Y19.9596 Z0.517
X13.5744 Y19.9581 Z0.514
X13.5731 Y19.9562 Z0.5113
X13.5715 Y19.954 Z0.509
X13.5698 Y19.9515 Z0.5071
X13.568 Y19.9489 Z0.5058
X13.566 Y19.946 Z0.505
X13.564 Y19.9431 Z0.5047
X13.334 Y19.6112
X13.332 Y19.6078
X13.272 Y19.4831 F200
X11.9682 Y16.7758
X11.9465 Y16.7307 F50
X14.0368 Y15.7241 F200
X14.0818 Y15.7024 F50
X15.4673 Y18.5794 F200
G3 X15.4625 Y18.5955 I-0.0113 J0.0054
G1 X14.4288 Y19.227
G3 X14.411 Y19.2217 I-0.0065 J-0.0107
G1 X14.4093 Y19.2182 Z0.5044 F150
X14.4077 Y19.2148 Z0.5035
X14.4061 Y19.2115 Z0.502
X14.4047 Y19.2085 Z0.4999
X14.4034 Y19.2058 Z0.4974
X14.4023 Y19.2035 Z0.4944
X14.4014 Y19.2016 Z0.491
X14.4007 Y19.2003 Z0.4874
X14.4003 Y19.1995 Z0.4836
X14.4002 Y19.1992 Z0.4797
Z0.245
X14.4001 Y19.1989 Z0.2411
X14.3997 Y19.1981 Z0.2373
X14.399 Y19.1967 Z0.2337
X14.3981 Y19.1949 Z0.2303
X14.397 Y19.1926 Z0.2273
X14.3957 Y19.1899 Z0.2248
X14.3943 Y19.1869 Z0.2227
X14.3927 Y19.1836 Z0.2212
X14.391 Y19.1802 Z0.2203
X14.3893 Y19.1767 Z0.22
X14.3889 Y19.1758
X13.4733 Y17.2745 F200
G3 X13.4793 Y17.2575 I0.0115 J-0.0055
G1 X13.538 Y17.2292
G3 X13.555 Y17.2352 I0.0055 J0.0115
G1 X14.4707 Y19.1367
G3 X14.4649 Y19.1533 I-0.0112 J0.0054
G1 X14.3224 Y19.222
G3 X14.3057 Y19.2161 I-0.0054 J-0.0113
G1 X13.3499 Y17.2313
G3 X13.3559 Y17.2143 I0.0115 J-0.0055
G1 X13.5812 Y17.1058
G3 X13.5982 Y17.1118 I0.0055 J0.0115
G1 X14.5539 Y19.0963
G3 X14.548 Y19.113 I-0.0113 J0.0054
G1 X14.1891 Y19.2819
G3 X14.1726 Y19.276 I-0.0053 J-0.0113
G1 X13.155 Y17.1632
G3 X13.161 Y17.1461 I0.0115 J-0.0056
G1 X13.6494 Y16.9109
G3 X13.6664 Y16.9169 I0.0055 J0.0115
G1 X14.684 Y19.0299
G3 X14.6781 Y19.0467 I-0.0113 J0.0055
G1 X14.0553 Y19.3405
G3 X14.0386 Y19.3346 I-0.0054 J-0.0113
G1 X12.9601 Y17.095
G3 X12.9661 Y17.0779 I0.0115 J-0.0056
G1 X13.7175 Y16.716
G3 X13.7346 Y16.722 I0.0056 J0.0115
G1 X14.8132 Y18.9618
G3 X14.8073 Y18.9785 I-0.0112 J0.0054
G1 X13.9212 Y19.3986
G3 X13.9046 Y19.3927 I-0.0053 J-0.0113
G1 X12.7652 Y17.0268
G3 X12.7712 Y17.0096 I0.0116 J-0.0056
G1 X13.7857 Y16.5211
G3 X13.8028 Y16.5271 I0.0056 J0.0115
G1 X14.9422 Y18.8932
G3 X14.9363 Y18.9099 I-0.0112 J0.0054
G1 X13.785 Y19.4523
G3 X13.7685 Y19.4464 I-0.0053 J-0.0113
G1 X12.5704 Y16.9586
G3 X12.5763 Y16.9415 I0.0115 J-0.0056
G1 X13.8539 Y16.3262
G3 X13.8711 Y16.3322 I0.0056 J0.0116
G1 X15.0689 Y18.8197
G3 X15.063 Y18.8365 I-0.0113 J0.0055
G1 X13.6486 Y19.5056
G3 X13.632 Y19.4997 I-0.0053 J-0.0113
G1 X12.3755 Y16.8904
G3 X12.3814 Y16.8733 I0.0115 J-0.0056
G1 X13.9221 Y16.1314
G3 X13.9392 Y16.1373 I0.0056 J0.0115
G1 X15.1958 Y18.7467
G3 X15.1899 Y18.7635 I-0.0113 J0.0055
G1 X13.5114 Y19.5571
G3 X13.4948 Y19.5512 I-0.0053 J-0.0113
G1 X12.1806 Y16.8222
G3 X12.1865 Y16.8051 I0.0115 J-0.0056
G1 X13.9903 Y15.9365
G3 X14.0074 Y15.9424 I0.0056 J0.0115
G1 X15.3216 Y18.6715
X15.3759 Y18.7841
X15.3776 Y18.7877 Z0.2203
X15.3792 Y18.7911 Z0.2212
X15.3808 Y18.7944 Z0.2227
X15.3822 Y18.7974 Z0.2248
X15.3835 Y18.8001 Z0.2273
X15.3846 Y18.8024 Z0.2303
X15.3855 Y18.8042 Z0.2337
X15.3862 Y18.8056 Z0.2373
X15.3866 Y18.8064 Z0.2411
X15.3867 Y18.8067 Z0.245
G0 Z1.2037
X13.5368 Y19.9754
G1 Z0.245 F15
X13.5367 Y19.9752 Z0.2411 F150
X13.5363 Y19.9743 Z0.2373
X13.5357 Y19.973 Z0.2337
X13.5348 Y19.9711 Z0.2303
X13.5337 Y19.9688 Z0.2273
X13.5324 Y19.9662 Z0.2248
X13.5309 Y19.9631 Z0.2227
X13.5293 Y19.9599 Z0.2212
X13.5277 Y19.9564 Z0.2203
X13.526 Y19.9529 Z0.22
X13.3558 Y19.5996
X13.2945 Y19.4723 F200
X12.0016 Y16.7874
X11.9799 Y16.7424 F50
X14.0251 Y15.7575 F200
X14.0701 Y15.7358 F50
X15.446 Y18.5929 F200
X15.5003 Y18.7055
X15.502 Y18.7091 Z0.2203
X15.5036 Y18.7125 Z0.2212
X15.5052 Y18.7158 Z0.2227
X15.5066 Y18.7188 Z0.2248
X15.5079 Y18.7215 Z0.2273
X15.509 Y18.7238 Z0.2303
X15.5099 Y18.7256 Z0.2337
X15.5106 Y18.727 Z0.2373
X15.511 Y18.7278 Z0.2411
X15.5111 Y18.7281 Z0.245
G0 Z1.2037
X13.5768 Y19.9616
G1 Z0.2425 F15
X13.5767 Y19.9614 Z0.239 F150
X13.5762 Y19.9607 Z0.2355
X13.5754 Y19.9596 Z0.2323
X13.5744 Y19.9581 Z0.2293
X13.5731 Y19.9562 Z0.2266
X13.5715 Y19.954 Z0.2243
X13.5698 Y19.9515 Z0.2225
X13.568 Y19.9489 Z0.2211
X13.566 Y19.946 Z0.2203
X13.564 Y19.9431 Z0.22
X13.334 Y19.6112
X13.332 Y19.6078
X13.272 Y19.4831 F200
X11.9682 Y16.7758
X11.9465 Y16.7307 F50
X14.0368 Y15.7241 F200
X14.0818 Y15.7024 F50
X15.4673 Y18.5794 F200
X15.4687 Y18.5831
X15.5047 Y18.7028
X15.5058 Y18.7065 Z0.2203
X15.5069 Y18.7102 Z0.2212
X15.5079 Y18.7137 Z0.2227
X15.5089 Y18.7169 Z0.2248
X15.5097 Y18.7197 Z0.2273
X15.5105 Y18.7222 Z0.2303
X15.5111 Y18.7241 Z0.2337
X15.5115 Y18.7256 Z0.2373
X15.5118 Y18.7264 Z0.2411
Y18.7267 Z0.245
G0 Z1.3894
X18.2459 Y16.6419
Z1.2037
G1 Z0.5297 F15
X18.2457 Y16.6417 Z0.5258 F150
X18.245 Y16.6411 Z0.522
X18.2438 Y16.6402 Z0.5183
X18.2422 Y16.6389 Z0.515
X18.2402 Y16.6373 Z0.512
X18.2379 Y16.6355 Z0.5095
X18.2353 Y16.6334 Z0.5074
X18.2324 Y16.6311 Z0.5059
X18.2294 Y16.6287 Z0.505
X18.2264 Y16.6263 Z0.5047
X17.9223 Y16.3838
X16.2725 Y15.0681 F200
G3 X16.2704 Y15.0501 I0.0079 J-0.01
G1 X16.3111 Y14.9992
G3 X16.329 Y14.9973 I0.0099 J0.008
G1 X17.9791 Y16.3131
G3 X17.9811 Y16.3307 I-0.0078 J0.0098
G1 X17.8825 Y16.4543
G3 X17.8649 Y16.4563 I-0.0098 J-0.0078
G1 X16.1425 Y15.0827
G3 X16.1406 Y15.0648 I0.008 J-0.0099
G1 X16.2964 Y14.8693
G3 X16.3144 Y14.8673 I0.01 J0.008
G1 X18.0365 Y16.2406
G3 X18.0384 Y16.2583 I-0.0078 J0.0098
G1 X17.7896 Y16.5649
G3 X17.7721 Y16.5668 I-0.0097 J-0.0079
G1 X17.6124 Y16.4393
X15.9374 Y15.1059
G3 X15.9354 Y15.0879 I0.0079 J-0.01
G1 X16.2733 Y14.6641
G3 X16.2913 Y14.6621 I0.01 J0.008
G1 X18.1249 Y16.1244
G3 X18.1268 Y16.142 I-0.0078 J0.0097
G1 X17.6931 Y16.6769
G3 X17.6756 Y16.6788 I-0.0097 J-0.0079
G1 X15.7322 Y15.129
G3 X15.7302 Y15.111 I0.0079 J-0.01
G1 X16.2502 Y14.4589
G3 X16.2682 Y14.4569 I0.01 J0.008
G1 X18.2118 Y16.0069
G3 X18.2137 Y16.0246 I-0.0078 J0.0098
G1 X17.5988 Y16.7862
G3 X17.5813 Y16.7881 I-0.0097 J-0.0079
G1 X17.4303 Y16.6676
X15.527 Y15.1521
G3 X15.525 Y15.1341 I0.008 J-0.01
G1 X16.2271 Y14.2538
G3 X16.245 Y14.2517 I0.01 J0.0079
G1 X18.2982 Y15.8891
G3 X18.3001 Y15.9068 I-0.0078 J0.0098
G1 X17.4981 Y16.8948
G3 X17.4806 Y16.8967 I-0.0097 J-0.0078
G1 X15.3218 Y15.1752
G3 X15.3198 Y15.1572 I0.008 J-0.01
G1 X16.2039 Y14.0486
G3 X16.2219 Y14.0466 I0.01 J0.0079
G1 X18.3805 Y15.768
G3 X18.3824 Y15.7856 I-0.0078 J0.0097
G1 X17.3995 Y17.0007
G3 X17.382 Y17.0026 I-0.0097 J-0.0078
G1 X17.2483 Y16.8959
X15.1167 Y15.1983
G3 X15.1146 Y15.1804 I0.0079 J-0.01
G1 X16.1808 Y13.8434
G3 X16.1988 Y13.8414 I0.01 J0.008
G1 X18.4631 Y15.6471
G3 X18.465 Y15.6648 I-0.0078 J0.0098
G1 X17.2969 Y17.1079
G3 X17.2794 Y17.1098 I-0.0097 J-0.0079
G1 X14.9115 Y15.2214
G3 X14.9095 Y15.2036 I0.0079 J-0.0099
G1 X16.1577 Y13.6382
G3 X16.1757 Y13.6362 I0.01 J0.008
G1 X18.5439 Y15.5248
X18.6416 Y15.6027
X18.6447 Y15.6052 Z0.505
X18.6476 Y15.6075 Z0.5059
X18.6505 Y15.6098 Z0.5074
X18.6531 Y15.6119 Z0.5095
X18.6554 Y15.6137 Z0.512
X18.6574 Y15.6153 Z0.515
X18.659 Y15.6166 Z0.5183
X18.6602 Y15.6175 Z0.522
X18.6609 Y15.6181 Z0.5258
X18.6611 Y15.6183 Z0.5297
G0 Z1.2037
X17.5014 Y17.4738
G1 Z0.5297 F15
X17.5011 Y17.4736 Z0.5258 F150
X17.5004 Y17.473 Z0.522
X17.4992 Y17.4721 Z0.5183
X17.4976 Y17.4708 Z0.515
X17.4956 Y17.4692 Z0.512
X17.4933 Y17.4674 Z0.5095
X17.4907 Y17.4653 Z0.5074
X17.4879 Y17.463 Z0.5059
X17.4849 Y17.4607 Z0.505
X17.4818 Y17.4582 Z0.5047
X17.1752 Y17.2137
X14.7351 Y15.2678 F200
X14.696 Y15.2366 F50
X16.1113 Y13.4619 F200
X16.1425 Y13.4228 F50
X18.5115 Y15.312 F200
X18.6219 Y15.4
X18.7196 Y15.4779
X18.7226 Y15.4804 Z0.505
X18.7256 Y15.4827 Z0.5059
X18.7285 Y15.485 Z0.5074
X18.7311 Y15.4871 Z0.5095
X18.7334 Y15.4889 Z0.512
X18.7354 Y15.4905 Z0.515
X18.737 Y15.4918 Z0.5183
X18.7382 Y15.4927 Z0.522
X18.7389 Y15.4933 Z0.5258
X18.7391 Y15.4935 Z0.5297
G0 Z1.2037
X17.5313 Y17.444
G1 Z0.5272 F15
X17.5311 Y17.4438 Z0.5237 F150
X17.5304 Y17.4434 Z0.5202
X17.5292 Y17.4428 Z0.517
X17.5276 Y17.4419 Z0.514
X17.5256 Y17.4407 Z0.5113
X17.5233 Y17.4394 Z0.509
X17.5207 Y17.4379 Z0.5071
X17.5178 Y17.4363 Z0.5058
X17.5148 Y17.4346 Z0.505
X17.5118 Y17.4329 Z0.5047
X17.1605 Y17.2336
X17.1573 Y17.2314
X14.7 Y15.2718 F200
X14.6609 Y15.2406 F50
X16.1074 Y13.4267 F200
X16.1386 Y13.3877 F50
X18.5271 Y15.2924 F200
X18.6351 Y15.3786
G3 X18.6378 Y15.3952 I-0.0078 J0.0098
G1 X17.9804 Y16.4126
G3 X17.9621 Y16.4156 I-0.0105 J-0.0068
G1 X17.9591 Y16.4131 Z0.5044 F150
X17.9561 Y16.4108 Z0.5035
X17.9533 Y16.4085 Z0.502
X17.9507 Y16.4064 Z0.4999
X17.9483 Y16.4045 Z0.4974
X17.9463 Y16.403 Z0.4944
X17.9447 Y16.4017 Z0.491
X17.9436 Y16.4007 Z0.4874
X17.9428 Y16.4002 Z0.4836
X17.9426 Y16.4 Z0.4797
Z0.245
X17.9424 Y16.3998 Z0.2411
X17.9417 Y16.3992 Z0.2373
X17.9405 Y16.3983 Z0.2337
X17.9389 Y16.397 Z0.2303
X17.9369 Y16.3954 Z0.2273
X17.9346 Y16.3936 Z0.2248
X17.9319 Y16.3915 Z0.2227
X17.9291 Y16.3892 Z0.2212
X17.9261 Y16.3868 Z0.2203
X17.9231 Y16.3844 Z0.22
X17.9223 Y16.3838
X16.2725 Y15.0681 F200
G3 X16.2704 Y15.0501 I0.0079 J-0.01
G1 X16.3111 Y14.9992
G3 X16.329 Y14.9973 I0.0099 J0.008
G1 X17.9791 Y16.3131
G3 X17.9811 Y16.3307 I-0.0078 J0.0098
G1 X17.8825 Y16.4543
G3 X17.8649 Y16.4563 I-0.0098 J-0.0078
G1 X16.1425 Y15.0827
G3 X16.1406 Y15.0648 I0.008 J-0.0099
G1 X16.2964 Y14.8693
G3 X16.3144 Y14.8673 I0.01 J0.008
G1 X18.0365 Y16.2406
G3 X18.0384 Y16.2583 I-0.0078 J0.0098
G1 X17.7896 Y16.5649
G3 X17.7721 Y16.5668 I-0.0097 J-0.0079
G1 X17.6124 Y16.4393
X15.9374 Y15.1059
G3 X15.9354 Y15.0879 I0.0079 J-0.01
G1 X16.2733 Y14.6641
G3 X16.2913 Y14.6621 I0.01 J0.008
G1 X18.1249 Y16.1244
G3 X18.1268 Y16.142 I-0.0078 J0.0097
G1 X17.6931 Y16.6769
G3 X17.6756 Y16.6788 I-0.0097 J-0.0079
G1 X15.7322 Y15.129
G3 X15.7302 Y15.111 I0.0079 J-0.01
G1 X16.2502 Y14.4589
G3 X16.2682 Y14.4569 I0.01 J0.008
G1 X18.2118 Y16.0069
G3 X18.2137 Y16.0246 I-0.0078 J0.0098
G1 X17.5988 Y16.7862
G3 X17.5813 Y16.7881 I-0.0097 J-0.0079
G1 X17.4303 Y16.6676
X15.527 Y15.1521
G3 X15.525 Y15.1341 I0.008 J-0.01
G1 X16.2271 Y14.2538
G3 X16.245 Y14.2517 I0.01 J0.0079
G1 X18.2982 Y15.8891
G3 X18.3001 Y15.9068 I-0.0078 J0.0098
G1 X17.4981 Y16.8948
G3 X17.4806 Y16.8967 I-0.0097 J-0.0078
G1 X15.3218 Y15.1752
G3 X15.3198 Y15.1572 I0.008 J-0.01
G1 X16.2039 Y14.0486
G3 X16.2219 Y14.0466 I0.01 J0.0079
G1 X18.3805 Y15.768
G3 X18.3824 Y15.7856 I-0.0078 J0.0097
G1 X17.3995 Y17.0007
G3 X17.382 Y17.0026 I-0.0097 J-0.0078
G1 X17.2483 Y16.8959
X15.1167 Y15.1983
G3 X15.1146 Y15.1804 I0.0079 J-0.01
G1 X16.1808 Y13.8434
G3 X16.1988 Y13.8414 I0.01 J0.008
G1 X18.4631 Y15.6471
G3 X18.465 Y15.6648 I-0.0078 J0.0098
G1 X17.2969 Y17.1079
G3 X17.2794 Y17.1098 I-0.0097 J-0.0079
G1 X14.9115 Y15.2214
G3 X14.9095 Y15.2036 I0.0079 J-0.0099
G1 X16.1577 Y13.6382
G3 X16.1757 Y13.6362 I0.01 J0.008
G1 X18.5439 Y15.5248
X18.6416 Y15.6027
X18.6447 Y15.6052 Z0.2203
X18.6476 Y15.6075 Z0.2212
X18.6505 Y15.6098 Z0.2227
X18.6531 Y15.6119 Z0.2248
X18.6554 Y15.6137 Z0.2273
X18.6574 Y15.6153 Z0.2303
X18.659 Y15.6166 Z0.2337
X18.6602 Y15.6175 Z0.2373
X18.6609 Y15.6181 Z0.2411
X18.6611 Y15.6183 Z0.245
G0 Z1.2037
X17.5014 Y17.4738
G1 Z0.245 F15
X17.5011 Y17.4736 Z0.2411 F150
X17.5004 Y17.473 Z0.2373
X17.4992 Y17.4721 Z0.2337
X17.4976 Y17.4708 Z0.2303
X17.4956 Y17.4692 Z0.2273
X17.4933 Y17.4674 Z0.2248
X17.4907 Y17.4653 Z0.2227
X17.4879 Y17.463 Z0.2212
X17.4849 Y17.4607 Z0.2203
X17.4818 Y17.4582 Z0.22
X17.1752 Y17.2137
X14.7351 Y15.2678 F200
X14.696 Y15.2366 F50
X16.1113 Y13.4619 F200
X16.1425 Y13.4228 F50
X18.5115 Y15.312 F200
X18.6219 Y15.4
X18.7196 Y15.4779
X18.7226 Y15.4804 Z0.2203
X18.7256 Y15.4827 Z0.2212
X18.7285 Y15.485 Z0.2227
X18.7311 Y15.4871 Z0.2248
X18.7334 Y15.4889 Z0.2273
X18.7354 Y15.4905 Z0.2303
X18.737 Y15.4918 Z0.2337
X18.7382 Y15.4927 Z0.2373
X18.7389 Y15.4933 Z0.2411
X18.7391 Y15.4935 Z0.245
G0 Z1.2037
X17.5313 Y17.444
G1 Z0.2425 F15
X17.5311 Y17.4438 Z0.239 F150
X17.5304 Y17.4434 Z0.2355
X17.5292 Y17.4428 Z0.2323
X17.5276 Y17.4419 Z0.2293
X17.5256 Y17.4407 Z0.2266
X17.5233 Y17.4394 Z0.2243
X17.5207 Y17.4379 Z0.2225
X17.5178 Y17.4363 Z0.2211
X17.5148 Y17.4346 Z0.2203
X17.5118 Y17.4329 Z0.22
X17.1605 Y17.2336
X17.1573 Y17.2314
X14.7 Y15.2718 F200
X14.6609 Y15.2406 F50
X16.1074 Y13.4267 F200
X16.1386 Y13.3877 F50
X18.5271 Y15.2924 F200
X18.6351 Y15.3786
X18.638 Y15.3813
X18.7223 Y15.4735
X18.725 Y15.4764 Z0.2203
X18.7276 Y15.4792 Z0.2212
X18.73 Y15.4819 Z0.2227
X18.7323 Y15.4844 Z0.2248
X18.7343 Y15.4866 Z0.2273
X18.736 Y15.4885 Z0.2303
X18.7374 Y15.49 Z0.2337
X18.7384 Y15.4911 Z0.2373
X18.739 Y15.4918 Z0.2411
X18.7392 Y15.492 Z0.245
G0 Z1.3894
X20.3075 Y12.387
Z1.2037
G1 Z0.5297 F15
X20.3072 Y12.3869 Z0.5258 F150
X20.3063 Y12.3867 Z0.522
X20.3049 Y12.3864 Z0.5183
X20.3029 Y12.3859 Z0.515
X20.3004 Y12.3854 Z0.512
X20.2975 Y12.3847 Z0.5095
X20.2942 Y12.3839 Z0.5074
X20.2907 Y12.3831 Z0.5059
X20.287 Y12.3823 Z0.505
X20.2832 Y12.3814 Z0.5047
X19.9036 Y12.2946
X19.7012 Y12.2483 F200
X17.8775 Y11.8339
X17.876 Y11.8333 F50
X17.8748 Y11.8323
X17.8739 Y11.8309
X17.8735 Y11.8293
X17.8736 Y11.8277
X17.8737 Y11.8273
X17.8743 Y11.8258
X17.8754 Y11.8245
X17.8767 Y11.8237
X17.8783 Y11.8233
X17.8799 Y11.8234
X19.906 Y12.2858 F200
G3 X19.9154 Y12.3008 I-0.0028 J0.0122
G1 X19.8895 Y12.4143
G3 X19.8745 Y12.4238 I-0.0122 J-0.0027
G1 X19.6718 Y12.3774
X17.7264 Y11.9352
G3 X17.7168 Y11.9199 I0.0028 J-0.0124
G1 X17.7724 Y11.6761
G3 X17.7877 Y11.6665 I0.0125 J0.0029
G1 X19.9352 Y12.1567
G3 X19.9446 Y12.1718 I-0.0028 J0.0122
G1 X19.8534 Y12.556
G3 X19.8384 Y12.5653 I-0.0122 J-0.0029
G1 X19.6393 Y12.5197
X17.5516 Y12.0451
G3 X17.5419 Y12.0298 I0.0028 J-0.0125
G1 X17.6626 Y11.5013
G3 X17.6778 Y11.4918 I0.0124 J0.0029
G1 X19.9644 Y12.0136
G3 X19.9738 Y12.0287 I-0.0028 J0.0122
G1 X19.8154 Y12.697
G3 X19.8005 Y12.7063 I-0.0121 J-0.0028
G1 X19.6068 Y12.6621
X17.3767 Y12.1549
G3 X17.3672 Y12.1396 I0.0029 J-0.0124
G1 X17.5527 Y11.3265
G3 X17.568 Y11.3168 I0.0125 J0.0028
G1 X19.9916 Y11.8701
G3 X20.0011 Y11.8851 I-0.0027 J0.0122
G1 X19.7771 Y12.8398
G3 X19.7621 Y12.8491 I-0.0122 J-0.0029
G1 X17.2019 Y12.2648
G3 X17.1922 Y12.2495 I0.0028 J-0.0125
G1 X17.4429 Y11.1517
G3 X17.4581 Y11.1421 I0.0124 J0.0028
G1 X20.0185 Y11.7264
G3 X20.0279 Y11.7415 I-0.0028 J0.0122
G1 X19.7338 Y12.9797
G3 X19.7189 Y12.9889 I-0.0121 J-0.0029
G1 X17.0271 Y12.3746
G3 X17.0175 Y12.3593 I0.0028 J-0.0124
G1 X17.333 Y10.9768
G3 X17.3483 Y10.9672 I0.0125 J0.0029
G1 X20.04 Y11.5816
G3 X20.0494 Y11.5966 I-0.0028 J0.0122
G1 X19.6906 Y13.1196
G3 X19.6756 Y13.1289 I-0.0122 J-0.0029
G1 X16.8522 Y12.4845
G3 X16.8426 Y12.4692 I0.0029 J-0.0125
G1 X17.2232 Y10.802
G3 X17.2384 Y10.7925 I0.0124 J0.0029
G1 X20.0621 Y11.4369
G3 X20.0715 Y11.4519 I-0.0028 J0.0122
G1 X19.6455 Y13.259
G3 X19.6305 Y13.2684 I-0.0122 J-0.0028
G1 X16.6774 Y12.5943
G3 X16.6679 Y12.5791 I0.0029 J-0.0124
G1 X17.1133 Y10.6272
G3 X17.1286 Y10.6175 I0.0125 J0.0028
G1 X20.0817 Y11.2916
X20.2036 Y11.3194
X20.2074 Y11.3203 Z0.505
X20.2111 Y11.3211 Z0.5059
X20.2146 Y11.3219 Z0.5074
X20.2179 Y11.3227 Z0.5095
X20.2208 Y11.3234 Z0.512
X20.2233 Y11.3239 Z0.515
X20.2253 Y11.3244 Z0.5183
X20.2267 Y11.3247 Z0.522
X20.2276 Y11.3249 Z0.5258
X20.2279 Y11.325 Z0.5297
G0 Z1.2037
X19.9878 Y13.4998
G1 Z0.5297 F15
X19.9875 Z0.5258 F150
X19.9866 Y13.4996 Z0.522
X19.9851 Y13.4992 Z0.5183
X19.9831 Y13.4988 Z0.515
X19.9806 Y13.4982 Z0.512
X19.9777 Y13.4976 Z0.5095
X19.9744 Y13.4968 Z0.5074
X19.9709 Y13.496 Z0.5059
X19.9672 Y13.4952 Z0.505
X19.9634 Y13.4943 Z0.5047
X19.5814 Y13.4071
X19.4439 Y13.3757 F200
X16.5386 Y12.7126
X16.4899 Y12.7015 F50
X16.995 Y10.4884 F200
X17.0061 Y10.4397 F50
X19.9602 Y11.1139 F200
X20.0978 Y11.1453
X20.2196 Y11.1731
X20.2235 Y11.174 Z0.505
X20.2272 Y11.1748 Z0.5059
X20.2307 Y11.1756 Z0.5074
X20.234 Y11.1764 Z0.5095
X20.2369 Y11.177 Z0.512
X20.2394 Y11.1776 Z0.515
X20.2414 Y11.1781 Z0.5183
X20.2428 Y11.1784 Z0.522
X20.2437 Y11.1786 Z0.5258
X20.244 Y11.1787 Z0.5297
G0 Z1.2037
X20.0018 Y13.46
G1 Z0.5272 F15
X20.0016 Z0.5237 F150
X20.0007 Z0.5202
X19.9994 Y13.4599 Z0.517
X19.9975 Y13.4598 Z0.514
X19.9953 Y13.4596 Z0.5113
X19.9926 Y13.4594 Z0.509
X19.9896 Y13.4592 Z0.5071
X19.9863 Y13.459 Z0.5058
X19.9829 Y13.4588 Z0.505
X19.9794 Y13.4585 Z0.5047
X19.5769 Y13.4314
X19.573 Y13.4308
X19.4384 Y13.4001 F200
X16.5087 Y12.7314
X16.46 Y12.7203 F50
X16.9762 Y10.4585 F200
X16.9873 Y10.4097 F50
X19.9657 Y11.0895 F200
X20.1005 Y11.1203
G3 X20.1101 Y11.134 I-0.0028 J0.0122
G1 X19.9685 Y12.2953
G3 X19.9533 Y12.306 I-0.0124 J-0.0015
G1 X19.9495 Y12.3051 Z0.5044 F150
X19.9458 Y12.3043 Z0.5035
X19.9422 Y12.3034 Z0.502
X19.939 Y12.3027 Z0.4999
X19.9361 Y12.302 Z0.4974
X19.9336 Y12.3015 Z0.4944
X19.9316 Y12.301 Z0.491
X19.9301 Y12.3007 Z0.4874
X19.9292 Y12.3005 Z0.4836
X19.9289 Y12.3004 Z0.4797
Z0.245
X19.9286 Y12.3003 Z0.2411
X19.9277 Y12.3001 Z0.2373
X19.9263 Y12.2998 Z0.2337
X19.9243 Y12.2993 Z0.2303
X19.9218 Y12.2988 Z0.2273
X19.9189 Y12.2981 Z0.2248
X19.9156 Y12.2974 Z0.2227
X19.9121 Y12.2965 Z0.2212
X19.9084 Y12.2957 Z0.2203
X19.9046 Y12.2948 Z0.22
X19.9036 Y12.2946
X19.7012 Y12.2483 F200
X17.8775 Y11.8339
X17.876 Y11.8333 F50
X17.8748 Y11.8323
X17.8739 Y11.8309
X17.8735 Y11.8293
X17.8736 Y11.8277
X17.8737 Y11.8273
X17.8743 Y11.8258
X17.8754 Y11.8245
X17.8767 Y11.8237
X17.8783 Y11.8233
X17.8799 Y11.8234
X19.906 Y12.2858 F200
G3 X19.9154 Y12.3008 I-0.0028 J0.0122
G1 X19.8895 Y12.4143
G3 X19.8745 Y12.4238 I-0.0122 J-0.0027
G1 X19.6718 Y12.3774
X17.7264 Y11.9352
G3 X17.7168 Y11.9199 I0.0028 J-0.0124
G1 X17.7724 Y11.6761
G3 X17.7877 Y11.6665 I0.0125 J0.0029
G1 X19.9352 Y12.1567
G3 X19.9446 Y12.1718 I-0.0028 J0.0122
G1 X19.8534 Y12.556
G3 X19.8384 Y12.5653 I-0.0122 J-0.0029
G1 X19.6393 Y12.5197
X17.5516 Y12.0451
G3 X17.5419 Y12.0298 I0.0028 J-0.0125
G1 X17.6626 Y11.5013
G3 X17.6778 Y11.4918 I0.0124 J0.0029
G1 X19.9644 Y12.0136
G3 X19.9738 Y12.0287 I-0.0028 J0.0122
G1 X19.8154 Y12.697
G3 X19.8005 Y12.7063 I-0.0121 J-0.0028
G1 X19.6068 Y12.6621
X17.3767 Y12.1549
G3 X17.3672 Y12.1396 I0.0029 J-0.0124
G1 X17.5527 Y11.3265
G3 X17.568 Y11.3168 I0.0125 J0.0028
G1 X19.9916 Y11.8701
G3 X20.0011 Y11.8851 I-0.0027 J0.0122
G1 X19.7771 Y12.8398
G3 X19.7621 Y12.8491 I-0.0122 J-0.0029
G1 X17.2019 Y12.2648
G3 X17.1922 Y12.2495 I0.0028 J-0.0125
G1 X17.4429 Y11.1517
G3 X17.4581 Y11.1421 I0.0124 J0.0028
G1 X20.0185 Y11.7264
G3 X20.0279 Y11.7415 I-0.0028 J0.0122
G1 X19.7338 Y12.9797
G3 X19.7189 Y12.9889 I-0.0121 J-0.0029
G1 X17.0271 Y12.3746
G3 X17.0175 Y12.3593 I0.0028 J-0.0124
G1 X17.333 Y10.9768
G3 X17.3483 Y10.9672 I0.0125 J0.0029
G1 X20.04 Y11.5816
G3 X20.0494 Y11.5966 I-0.0028 J0.0122
G1 X19.6906 Y13.1196
G3 X19.6756 Y13.1289 I-0.0122 J-0.0029
G1 X16.8522 Y12.4845
G3 X16.8426 Y12.4692 I0.0029 J-0.0125
G1 X17.2232 Y10.802
G3 X17.2384 Y10.7925 I0.0124 J0.0029
G1 X20.0621 Y11.4369
G3 X20.0715 Y11.4519 I-0.0028 J0.0122
G1 X19.6455 Y13.259
G3 X19.6305 Y13.2684 I-0.0122 J-0.0028
G1 X16.6774 Y12.5943
G3 X16.6679 Y12.5791 I0.0029 J-0.0124
G1 X17.1133 Y10.6272
G3 X17.1286 Y10.6175 I0.0125 J0.0028
G1 X20.0817 Y11.2916
X20.2036 Y11.3194
X20.2074 Y11.3203 Z0.2203
X20.2111 Y11.3211 Z0.2212
X20.2146 Y11.3219 Z0.2227
X20.2179 Y11.3227 Z0.2248
X20.2208 Y11.3234 Z0.2273
X20.2233 Y11.3239 Z0.2303
X20.2253 Y11.3244 Z0.2337
X20.2267 Y11.3247 Z0.2373
X20.2276 Y11.3249 Z0.2411
X20.2279 Y11.325 Z0.245
G0 Z1.2037
X19.9878 Y13.4998
G1 Z0.245 F15
X19.9875 Z0.2411 F150
X19.9866 Y13.4996 Z0.2373
X19.9851 Y13.4992 Z0.2337
X19.9831 Y13.4988 Z0.2303
X19.9806 Y13.4982 Z0.2273
X19.9777 Y13.4976 Z0.2248
X19.9744 Y13.4968 Z0.2227
X19.9709 Y13.496 Z0.2212
X19.9672 Y13.4952 Z0.2203
X19.9634 Y13.4943 Z0.22
X19.5814 Y13.4071
X19.4439 Y13.3757 F200
X16.5386 Y12.7126
X16.4899 Y12.7015 F50
X16.995 Y10.4884 F200
X17.0061 Y10.4397 F50
X19.9602 Y11.1139 F200
X20.0978 Y11.1453
X20.2196 Y11.1731
X20.2235 Y11.174 Z0.2203
X20.2272 Y11.1748 Z0.2212
X20.2307 Y11.1756 Z0.2227
X20.234 Y11.1764 Z0.2248
X20.2369 Y11.177 Z0.2273
X20.2394 Y11.1776 Z0.2303
X20.2414 Y11.1781 Z0.2337
X20.2428 Y11.1784 Z0.2373
X20.2437 Y11.1786 Z0.2411
X20.244 Y11.1787 Z0.245
G0 Z1.2037
X20.0018 Y13.46
G1 Z0.2425 F15
X20.0016 Z0.239 F150
X20.0007 Z0.2355
X19.9994 Y13.4599 Z0.2323
X19.9975 Y13.4598 Z0.2293
X19.9953 Y13.4596 Z0.2266
X19.9926 Y13.4594 Z0.2243
X19.9896 Y13.4592 Z0.2225
X19.9863 Y13.459 Z0.2211
X19.9829 Y13.4588 Z0.2203
X19.9794 Y13.4585 Z0.22
X19.5769 Y13.4314
X19.573 Y13.4308
X19.4384 Y13.4001 F200
X16.5087 Y12.7314
X16.46 Y12.7203 F50
X16.9762 Y10.4585 F200
X16.9873 Y10.4097 F50
X19.9657 Y11.0895 F200
X20.1005 Y11.1203
X20.1042 Y11.1214
X20.2202 Y11.168
X20.2239 Y11.1694 Z0.2203
X20.2274 Y11.1709 Z0.2212
X20.2308 Y11.1722 Z0.2227
X20.2339 Y11.1734 Z0.2248
X20.2366 Y11.1746 Z0.2273
X20.239 Y11.1755 Z0.2303
X20.2409 Y11.1763 Z0.2337
X20.2423 Y11.1768 Z0.2373
X20.2432 Y11.1772 Z0.2411
X20.2434 Y11.1773 Z0.245
G0 Z1.3894
X20.3096 Y7.7008
Z1.2037
G1 Z0.5297 F15
X20.3093 Y7.7009 Z0.5258 F150
X20.3084 Y7.7011 Z0.522
X20.3069 Y7.7014 Z0.5183
X20.3049 Y7.7019 Z0.515
X20.3025 Y7.7024 Z0.512
X20.2996 Y7.7031 Z0.5095
X20.2963 Y7.7038 Z0.5074
X20.2928 Y7.7046 Z0.5059
X20.289 Y7.7055 Z0.505
X20.2852 Y7.7064 Z0.5047
X19.906 Y7.7929
X17.8835 Y8.2545 F200
G3 X17.8771 Y8.2505 I-0.0012 J-0.0052 F50
X17.8812 Y8.2441 I0.0052 J-0.0012
G1 X19.9034 Y7.7824 F200
G3 X19.9184 Y7.7918 I0.0028 J0.0122
G1 X19.9448 Y7.907
G3 X19.9354 Y7.922 I-0.0122 J0.0028
G1 X17.7877 Y8.4122
G3 X17.7725 Y8.4026 I-0.0028 J-0.0124
G1 X17.7168 Y8.1588
G3 X17.7264 Y8.1436 I0.0124 J-0.0028
G1 X19.6718 Y7.7013
X19.8744 Y7.655
G3 X19.8894 Y7.6645 I0.0028 J0.0122
G1 X19.9738 Y8.0503
G3 X19.9644 Y8.0652 I-0.0122 J0.0027
G1 X17.6779 Y8.587
G3 X17.6626 Y8.5774 I-0.0029 J-0.0124
G1 X17.5419 Y8.049
G3 X17.5515 Y8.0336 I0.0125 J-0.0029
G1 X19.6393 Y7.559
X19.8386 Y7.5134
G3 X19.8535 Y7.523 I0.0027 J0.0122
G1 X20.0008 Y8.1939
G3 X19.9914 Y8.2088 I-0.0122 J0.0027
G1 X17.568 Y8.7619
G3 X17.5527 Y8.7522 I-0.0028 J-0.0125
G1 X17.3671 Y7.9391
G3 X17.3767 Y7.9238 I0.0125 J-0.0028
G1 X19.6068 Y7.4167
X19.8008 Y7.3723
G3 X19.8158 Y7.3818 I0.0028 J0.0122
G1 X20.0278 Y8.3374
G3 X20.0184 Y8.3523 I-0.0122 J0.0027
G1 X17.4582 Y8.9367
G3 X17.4428 Y8.9271 I-0.0029 J-0.0125
G1 X17.1923 Y7.8293
G3 X17.2019 Y7.814 I0.0124 J-0.0029
G1 X19.5743 Y7.2743
X19.7626 Y7.2313
G3 X19.7776 Y7.2408 I0.0028 J0.0122
G1 X20.0496 Y8.4823
G3 X20.0401 Y8.4971 I-0.0122 J0.0026
G1 X17.3483 Y9.1115
G3 X17.3331 Y9.1019 I-0.0028 J-0.0124
G1 X17.0175 Y7.7194
G3 X17.0271 Y7.7042 I0.0124 J-0.0028
G1 X19.7188 Y7.0897
G3 X19.7338 Y7.0992 I0.0028 J0.0122
G1 X20.0713 Y8.627
G3 X20.0619 Y8.6419 I-0.0122 J0.0027
G1 X17.2384 Y9.2863
G3 X17.2232 Y9.2767 I-0.0028 J-0.0124
G1 X16.8426 Y7.6096
G3 X16.8522 Y7.5942 I0.0125 J-0.0029
G1 X19.6758 Y6.9498
G3 X19.6908 Y6.9593 I0.0028 J0.0122
G1 X20.0912 Y8.7722
G3 X20.0817 Y8.7871 I-0.0122 J0.0027
G1 X17.1286 Y9.4612
G3 X17.1133 Y9.4516 I-0.0028 J-0.0125
G1 X16.6678 Y7.4997
G3 X16.6774 Y7.4844 I0.0125 J-0.0028
G1 X19.6305 Y6.8104
X19.7524 Y6.7826
X19.7562 Y6.7817 Z0.505
X19.7599 Y6.7808 Z0.5059
X19.7634 Y6.78 Z0.5074
X19.7667 Y6.7793 Z0.5095
X19.7696 Y6.7786 Z0.512
X19.7721 Y6.7781 Z0.515
X19.7741 Y6.7776 Z0.5183
X19.7756 Y6.7773 Z0.522
X19.7765 Y6.7771 Z0.5258
X19.7768 Y6.777 Z0.5297
G0 Z1.2037
X20.5042 Y8.8407
G1 Z0.5297 F15
X20.5039 Z0.5258 F150
X20.503 Y8.8409 Z0.522
X20.5016 Y8.8413 Z0.5183
X20.4996 Y8.8417 Z0.515
X20.4971 Y8.8423 Z0.512
X20.4942 Y8.843 Z0.5095
X20.4909 Y8.8437 Z0.5074
X20.4874 Y8.8445 Z0.5059
X20.4837 Y8.8454 Z0.505
X20.4799 Y8.8462 Z0.5047
X20.0975 Y8.9335
X19.9602 Y8.9649 F200
X17.0549 Y9.6279
X17.0061 Y9.6391 F50
X16.501 Y7.426 F200
X16.4899 Y7.3772 F50
X19.4439 Y6.703 F200
X19.5815 Y6.6716
X19.7034 Y6.6438
X19.7072 Y6.6429 Z0.505
X19.7109 Y6.6421 Z0.5059
X19.7145 Y6.6413 Z0.5074
X19.7177 Y6.6405 Z0.5095
X19.7207 Y6.6399 Z0.512
X19.7231 Y6.6393 Z0.515
X19.7251 Y6.6388 Z0.5183
X19.7266 Y6.6385 Z0.522
X19.7275 Y6.6383 Z0.5258
X19.7278 Y6.6382 Z0.5297
G0 Z1.2037
X20.4992 Y8.7989
G1 Z0.5272 F15
X20.499 Y8.799 Z0.5237 F150
X20.4982 Y8.7993 Z0.5202
X20.4969 Y8.7998 Z0.517
X20.4952 Y8.8005 Z0.514
X20.4931 Y8.8013 Z0.5113
X20.4906 Y8.8023 Z0.509
X20.4878 Y8.8034 Z0.5071
X20.4848 Y8.8046 Z0.5058
X20.4816 Y8.8059 Z0.505
X20.4783 Y8.8072 Z0.5047
X20.1043 Y8.9573
X20.1005 Y8.9585
X19.9657 Y8.9892 F200
X17.0361 Y9.6579
X16.9873 Y9.669 F50
X16.4711 Y7.4072 F200
X16.46 Y7.3584 F50
X19.4384 Y6.6786 F200
X19.5731 Y6.6479
G3 X19.5877 Y6.6561 I0.0028 J0.0122
G1 X19.9648 Y7.7654
G3 X19.9557 Y7.7816 I-0.0118 J0.004
G1 X19.9519 Y7.7824 Z0.5044 F150
X19.9482 Y7.7833 Z0.5035
X19.9447 Y7.7841 Z0.502
X19.9414 Y7.7848 Z0.4999
X19.9385 Y7.7855 Z0.4974
X19.936 Y7.7861 Z0.4944
X19.934 Y7.7865 Z0.491
X19.9326 Y7.7869 Z0.4874
X19.9317 Y7.7871 Z0.4836
X19.9314 Z0.4797
Z0.245
X19.9311 Y7.7872 Z0.2411
X19.9302 Y7.7874 Z0.2373
X19.9287 Y7.7877 Z0.2337
X19.9267 Y7.7882 Z0.2303
X19.9242 Y7.7888 Z0.2273
X19.9213 Y7.7894 Z0.2248
X19.9181 Y7.7902 Z0.2227
X19.9145 Y7.791 Z0.2212
X19.9108 Y7.7918 Z0.2203
X19.907 Y7.7927 Z0.22
X19.906 Y7.7929
X17.8835 Y8.2545 F200
G3 X17.8771 Y8.2505 I-0.0012 J-0.0052 F50
X17.8812 Y8.2441 I0.0052 J-0.0012
G1 X19.9034 Y7.7824 F200
G3 X19.9184 Y7.7918 I0.0028 J0.0122
G1 X19.9448 Y7.907
G3 X19.9354 Y7.922 I-0.0122 J0.0028
G1 X17.7877 Y8.4122
G3 X17.7725 Y8.4026 I-0.0028 J-0.0124
G1 X17.7168 Y8.1588
G3 X17.7264 Y8.1436 I0.0124 J-0.0028
G1 X19.6718 Y7.7013
X19.8744 Y7.655
G3 X19.8894 Y7.6645 I0.0028 J0.0122
G1 X19.9738 Y8.0503
G3 X19.9644 Y8.0652 I-0.0122 J0.0027
G1 X17.6779 Y8.587
G3 X17.6626 Y8.5774 I-0.0029 J-0.0124
G1 X17.5419 Y8.049
G3 X17.5515 Y8.0336 I0.0125 J-0.0029
G1 X19.6393 Y7.559
X19.8386 Y7.5134
G3 X19.8535 Y7.523 I0.0027 J0.0122
G1 X20.0008 Y8.1939
G3 X19.9914 Y8.2088 I-0.0122 J0.0027
G1 X17.568 Y8.7619
G3 X17.5527 Y8.7522 I-0.0028 J-0.0125
G1 X17.3671 Y7.9391
G3 X17.3767 Y7.9238 I0.0125 J-0.0028
G1 X19.6068 Y7.4167
X19.8008 Y7.3723
G3 X19.8158 Y7.3818 I0.0028 J0.0122
G1 X20.0278 Y8.3374
G3 X20.0184 Y8.3523 I-0.0122 J0.0027
G1 X17.4582 Y8.9367
G3 X17.4428 Y8.9271 I-0.0029 J-0.0125
G1 X17.1923 Y7.8293
G3 X17.2019 Y7.814 I0.0124 J-0.0029
G1 X19.5743 Y7.2743
X19.7626 Y7.2313
G3 X19.7776 Y7.2408 I0.0028 J0.0122
G1 X20.0496 Y8.4823
G3 X20.0401 Y8.4971 I-0.0122 J0.0026
G1 X17.3483 Y9.1115
G3 X17.3331 Y9.1019 I-0.0028 J-0.0124
G1 X17.0175 Y7.7194
G3 X17.0271 Y7.7042 I0.0124 J-0.0028
G1 X19.7188 Y7.0897
G3 X19.7338 Y7.0992 I0.0028 J0.0122
G1 X20.0713 Y8.627
G3 X20.0619 Y8.6419 I-0.0122 J0.0027
G1 X17.2384 Y9.2863
G3 X17.2232 Y9.2767 I-0.0028 J-0.0124
G1 X16.8426 Y7.6096
G3 X16.8522 Y7.5942 I0.0125 J-0.0029
G1 X19.6758 Y6.9498
G3 X19.6908 Y6.9593 I0.0028 J0.0122
G1 X20.0912 Y8.7722
G3 X20.0817 Y8.7871 I-0.0122 J0.0027
G1 X17.1286 Y9.4612
G3 X17.1133 Y9.4516 I-0.0028 J-0.0125
G1 X16.6678 Y7.4997
G3 X16.6774 Y7.4844 I0.0125 J-0.0028
G1 X19.6305 Y6.8104
X19.7524 Y6.7826
X19.7562 Y6.7817 Z0.2203
X19.7599 Y6.7808 Z0.2212
X19.7634 Y6.78 Z0.2227
X19.7667 Y6.7793 Z0.2248
X19.7696 Y6.7786 Z0.2273
X19.7721 Y6.7781 Z0.2303
X19.7741 Y6.7776 Z0.2337
X19.7756 Y6.7773 Z0.2373
X19.7765 Y6.7771 Z0.2411
X19.7768 Y6.777 Z0.245
G0 Z1.2037
X20.5042 Y8.8407
G1 Z0.245 F15
X20.5039 Z0.2411 F150
X20.503 Y8.8409 Z0.2373
X20.5016 Y8.8413 Z0.2337
X20.4996 Y8.8417 Z0.2303
X20.4971 Y8.8423 Z0.2273
X20.4942 Y8.843 Z0.2248
X20.4909 Y8.8437 Z0.2227
X20.4874 Y8.8445 Z0.2212
X20.4837 Y8.8454 Z0.2203
X20.4799 Y8.8462 Z0.22
X20.0975 Y8.9335
X19.9602 Y8.9649 F200
X17.0549 Y9.6279
X17.0061 Y9.6391 F50
X16.501 Y7.426 F200
X16.4899 Y7.3772 F50
X19.4439 Y6.703 F200
X19.5815 Y6.6716
X19.7034 Y6.6438
X19.7072 Y6.6429 Z0.2203
X19.7109 Y6.6421 Z0.2212
X19.7145 Y6.6413 Z0.2227
X19.7177 Y6.6405 Z0.2248
X19.7207 Y6.6399 Z0.2273
X19.7231 Y6.6393 Z0.2303
X19.7251 Y6.6388 Z0.2337
X19.7266 Y6.6385 Z0.2373
X19.7275 Y6.6383 Z0.2411
X19.7278 Y6.6382 Z0.245
G0 Z1.2037
X20.4992 Y8.7989
G1 Z0.2425 F15
X20.499 Y8.799 Z0.239 F150
X20.4982 Y8.7993 Z0.2355
X20.4969 Y8.7998 Z0.2323
X20.4952 Y8.8005 Z0.2293
X20.4931 Y8.8013 Z0.2266
X20.4906 Y8.8023 Z0.2243
X20.4878 Y8.8034 Z0.2225
X20.4848 Y8.8046 Z0.2211
X20.4816 Y8.8059 Z0.2203
X20.4783 Y8.8072 Z0.22
X20.1043 Y8.9573
X20.1005 Y8.9585
X19.9657 Y8.9892 F200
X17.0361 Y9.6579
X16.9873 Y9.669 F50
X16.4711 Y7.4072 F200
X16.46 Y7.3584 F50
X19.4384 Y6.6786 F200
X19.5731 Y6.6479
X19.577 Y6.6473
X19.7017 Y6.6389
X19.7056 Y6.6386 Z0.2203
X19.7094 Y6.6384 Z0.2212
X19.713 Y6.6381 Z0.2227
X19.7164 Y6.6379 Z0.2248
X19.7194 Y6.6377 Z0.2273
X19.7219 Y6.6376 Z0.2303
X19.7239 Y6.6374 Z0.2337
X19.7254 Y6.6373 Z0.2373
X19.7264 Z0.2411
X19.7267 Y6.6372 Z0.245
G0 Z1.3894
X18.303 Y3.5073
Z1.2037
G1 Z0.5297 F15
X18.3028 Y3.5075 Z0.5258 F150
X18.302 Y3.5081 Z0.522
X18.3009 Y3.509 Z0.5183
X18.2993 Y3.5103 Z0.515
X18.2973 Y3.5119 Z0.512
X18.2949 Y3.5138 Z0.5095
X18.2923 Y3.5158 Z0.5074
X18.2895 Y3.5181 Z0.5059
X18.2865 Y3.5205 Z0.505
X18.2835 Y3.5229 Z0.5047
X17.979 Y3.7657
X16.329 Y5.0815 F200
G3 X16.311 Y5.0795 I-0.008 J-0.01
G1 X16.2705 Y5.0286
G3 X16.2725 Y5.0106 I0.0099 J-0.008
G1 X17.7611 Y3.8258
X17.9235 Y3.6962
G3 X17.9411 Y3.6982 I0.0078 J0.0098
G1 X18.0386 Y3.8205
G3 X18.0366 Y3.8379 I-0.0098 J0.0077
G1 X16.3144 Y5.2115
G3 X16.2964 Y5.2095 I-0.008 J-0.01
G1 X16.1405 Y5.014
G3 X16.1425 Y4.996 I0.01 J-0.008
G1 X17.7034 Y3.7535
X17.8659 Y3.6239
G3 X17.8835 Y3.626 I0.0078 J0.0098
G1 X18.1268 Y3.937
G3 X18.1248 Y3.9545 I-0.0098 J0.0077
G1 X16.2913 Y5.4166
G3 X16.2733 Y5.4146 I-0.008 J-0.0099
G1 X15.9353 Y4.9908
G3 X15.9374 Y4.9729 I0.01 J-0.0079
G1 X17.771 Y3.5106
G3 X17.7886 Y3.5126 I0.0078 J0.0098
G1 X18.2138 Y4.0544
G3 X18.2118 Y4.0719 I-0.0098 J0.0077
G1 X16.2681 Y5.6218
G3 X16.2502 Y5.6198 I-0.0079 J-0.01
G1 X15.7302 Y4.9677
G3 X15.7323 Y4.9499 I0.0099 J-0.0079
G1 X17.5214 Y3.5252
X17.6769 Y3.4011
G3 X17.6945 Y3.4032 I0.0078 J0.0098
G1 X18.3004 Y4.172
G3 X18.2983 Y4.1895 I-0.0098 J0.0077
G1 X16.245 Y5.827
G3 X16.2271 Y5.8249 I-0.0079 J-0.01
G1 X15.525 Y4.9446
G3 X15.527 Y4.9266 I0.01 J-0.008
G1 X17.5802 Y3.2893
G3 X17.5978 Y3.2914 I0.0078 J0.0097
G1 X18.3828 Y4.2931
G3 X18.3807 Y4.3106 I-0.0098 J0.0077
G1 X16.2219 Y6.0322
G3 X16.2039 Y6.0302 I-0.008 J-0.01
G1 X15.3198 Y4.9215
G3 X15.3218 Y4.9035 I0.01 J-0.008
G1 X17.3393 Y3.2969
X17.4819 Y3.1832
G3 X17.4995 Y3.1852 I0.0078 J0.0098
G1 X18.4652 Y4.4141
G3 X18.4631 Y4.4316 I-0.0099 J0.0077
G1 X16.1988 Y6.2374
G3 X16.1808 Y6.2354 I-0.008 J-0.01
G1 X15.1146 Y4.8984
G3 X15.1166 Y4.8804 I0.01 J-0.008
G1 X17.381 Y3.0746
G3 X17.3987 Y3.0767 I0.0078 J0.0098
G1 X18.5456 Y4.5367
G3 X18.5436 Y4.5541 I-0.0098 J0.0077
G1 X16.1757 Y6.4425
G3 X16.1577 Y6.4405 I-0.008 J-0.01
G1 X14.9095 Y4.8752
G3 X14.9115 Y4.8574 I0.0099 J-0.0079
G1 X17.1573 Y3.0686
X17.2806 Y2.9702
X17.3784 Y2.8923
X17.3814 Y2.8898 Z0.505
X17.3844 Y2.8874 Z0.5059
X17.3872 Y2.8852 Z0.5074
X17.3898 Y2.8831 Z0.5095
X17.3922 Y2.8812 Z0.512
X17.3942 Y2.8796 Z0.515
X17.3958 Y2.8784 Z0.5183
X17.3969 Y2.8774 Z0.522
X17.3977 Y2.8769 Z0.5258
X17.3979 Y2.8767 Z0.5297
G0 Z1.2037
X18.9476 Y4.419
G1 Z0.5297 F15
X18.9474 Y4.4191 Z0.5258 F150
X18.9467 Y4.4197 Z0.522
X18.9455 Y4.4207 Z0.5183
X18.9439 Y4.4219 Z0.515
X18.9419 Y4.4235 Z0.512
X18.9396 Y4.4254 Z0.5095
X18.937 Y4.4275 Z0.5074
X18.9341 Y4.4297 Z0.5059
X18.9312 Y4.4321 Z0.505
X18.9281 Y4.4345 Z0.5047
X18.6218 Y4.6788
X18.5115 Y4.7668 F200
X16.1816 Y6.6248
X16.1425 Y6.656 F50
X14.7272 Y4.8812 F200
X14.696 Y4.8421 F50
X17.1753 Y2.8649 F200
X17.2731 Y2.787
X17.2761 Y2.7846 Z0.505
X17.2791 Y2.7822 Z0.5059
X17.2819 Y2.7799 Z0.5074
X17.2846 Y2.7778 Z0.5095
X17.2869 Y2.776 Z0.512
X17.2889 Y2.7744 Z0.515
X17.2905 Y2.7731 Z0.5183
X17.2917 Y2.7722 Z0.522
X17.2924 Y2.7716 Z0.5258
X17.2926 Y2.7714 Z0.5297
G0 Z1.2037
X18.9253 Y4.3832
G1 Z0.5272 F15
X18.9251 Y4.3834 Z0.5237 F150
X18.9245 Y4.3841 Z0.5202
X18.9236 Y4.3851 Z0.517
X18.9224 Y4.3864 Z0.514
X18.9208 Y4.3881 Z0.5113
X18.919 Y4.3901 Z0.509
X18.917 Y4.3923 Z0.5071
X18.9148 Y4.3947 Z0.5058
X18.9125 Y4.3973 Z0.505
X18.9101 Y4.3999 Z0.5047
X18.6382 Y4.6973
X18.6353 Y4.7
X16.1777 Y6.6599 F200
X16.1386 Y6.6911 F50
X14.6921 Y4.8772 F200
X14.6609 Y4.8381 F50
X17.1574 Y2.8472 F200
G3 X17.1742 Y2.8483 I0.0078 J0.0098
G1 X18.0201 Y3.7154
G3 X18.0189 Y3.7339 I-0.009 J0.0087
G1 X18.0158 Y3.7363 Z0.5044 F150
X18.0129 Y3.7387 Z0.5035
X18.01 Y3.741 Z0.502
X18.0074 Y3.7431 Z0.4999
X18.0051 Y3.7449 Z0.4974
X18.0031 Y3.7465 Z0.4944
X18.0015 Y3.7478 Z0.491
X18.0003 Y3.7487 Z0.4874
X17.9996 Y3.7493 Z0.4836
X17.9994 Y3.7495 Z0.4797
Z0.245
X17.9991 Y3.7497 Z0.2411
X17.9984 Y3.7502 Z0.2373
X17.9972 Y3.7512 Z0.2336
X17.9956 Y3.7525 Z0.2303
X17.9936 Y3.7541 Z0.2273
X17.9913 Y3.7559 Z0.2248
X17.9887 Y3.758 Z0.2227
X17.9858 Y3.7603 Z0.2212
X17.9829 Y3.7626 Z0.2203
X17.9798 Y3.7651 Z0.22
X17.979 Y3.7657
X16.329 Y5.0815 F200
G3 X16.311 Y5.0795 I-0.008 J-0.01
G1 X16.2705 Y5.0286
G3 X16.2725 Y5.0106 I0.0099 J-0.008
G1 X17.7611 Y3.8258
X17.9235 Y3.6962
G3 X17.9411 Y3.6982 I0.0078 J0.0098
G1 X18.0386 Y3.8205
G3 X18.0366 Y3.8379 I-0.0098 J0.0077
G1 X16.3144 Y5.2115
G3 X16.2964 Y5.2095 I-0.008 J-0.01
G1 X16.1405 Y5.014
G3 X16.1425 Y4.996 I0.01 J-0.008
G1 X17.7034 Y3.7535
X17.8659 Y3.6239
G3 X17.8835 Y3.626 I0.0078 J0.0098
G1 X18.1268 Y3.937
G3 X18.1248 Y3.9545 I-0.0098 J0.0077
G1 X16.2913 Y5.4166
G3 X16.2733 Y5.4146 I-0.008 J-0.0099
G1 X15.9353 Y4.9908
G3 X15.9374 Y4.9729 I0.01 J-0.0079
G1 X17.771 Y3.5106
G3 X17.7886 Y3.5126 I0.0078 J0.0098
G1 X18.2138 Y4.0544
G3 X18.2118 Y4.0719 I-0.0098 J0.0077
G1 X16.2681 Y5.6218
G3 X16.2502 Y5.6198 I-0.0079 J-0.01
G1 X15.7302 Y4.9677
G3 X15.7323 Y4.9499 I0.0099 J-0.0079
G1 X17.5214 Y3.5252
X17.6769 Y3.4011
G3 X17.6945 Y3.4032 I0.0078 J0.0098
G1 X18.3004 Y4.172
G3 X18.2983 Y4.1895 I-0.0098 J0.0077
G1 X16.245 Y5.827
G3 X16.2271 Y5.8249 I-0.0079 J-0.01
G1 X15.525 Y4.9446
G3 X15.527 Y4.9266 I0.01 J-0.008
G1 X17.5802 Y3.2893
G3 X17.5978 Y3.2914 I0.0078 J0.0097
G1 X18.3828 Y4.2931
G3 X18.3807 Y4.3106 I-0.0098 J0.0077
G1 X16.2219 Y6.0322
G3 X16.2039 Y6.0302 I-0.008 J-0.01
G1 X15.3198 Y4.9215
G3 X15.3218 Y4.9035 I0.01 J-0.008
G1 X17.3393 Y3.2969
X17.4819 Y3.1832
G3 X17.4995 Y3.1852 I0.0078 J0.0098
G1 X18.4652 Y4.4141
G3 X18.4631 Y4.4316 I-0.0099 J0.0077
G1 X16.1988 Y6.2374
G3 X16.1808 Y6.2354 I-0.008 J-0.01
G1 X15.1146 Y4.8984
G3 X15.1166 Y4.8804 I0.01 J-0.008
G1 X17.381 Y3.0746
G3 X17.3987 Y3.0767 I0.0078 J0.0098
G1 X18.5456 Y4.5367
G3 X18.5436 Y4.5541 I-0.0098 J0.0077
G1 X16.1757 Y6.4425
G3 X16.1577 Y6.4405 I-0.008 J-0.01
G1 X14.9095 Y4.8752
G3 X14.9115 Y4.8574 I0.0099 J-0.0079
G1 X17.1573 Y3.0686
X17.2806 Y2.9702
X17.3784 Y2.8923
X17.3814 Y2.8898 Z0.2203
X17.3844 Y2.8874 Z0.2212
X17.3872 Y2.8852 Z0.2227
X17.3898 Y2.8831 Z0.2248
X17.3922 Y2.8812 Z0.2273
X17.3942 Y2.8796 Z0.2303
X17.3958 Y2.8784 Z0.2337
X17.3969 Y2.8774 Z0.2373
X17.3977 Y2.8769 Z0.2411
X17.3979 Y2.8767 Z0.245
G0 Z1.2037
X18.9476 Y4.419
G1 Z0.245 F15
X18.9474 Y4.4191 Z0.2411 F150
X18.9467 Y4.4197 Z0.2373
X18.9455 Y4.4207 Z0.2336
X18.9439 Y4.4219 Z0.2303
X18.9419 Y4.4235 Z0.2273
X18.9396 Y4.4254 Z0.2248
X18.937 Y4.4275 Z0.2227
X18.9341 Y4.4297 Z0.2212
X18.9312 Y4.4321 Z0.2203
X18.9281 Y4.4345 Z0.22
X18.6218 Y4.6788
X18.5115 Y4.7668 F200
X16.1816 Y6.6248
X16.1425 Y6.656 F50
X14.7272 Y4.8812 F200
X14.696 Y4.8421 F50
X17.1753 Y2.8649 F200
X17.2731 Y2.787
X17.2761 Y2.7846 Z0.2203
X17.2791 Y2.7822 Z0.2212
X17.2819 Y2.7799 Z0.2227
X17.2846 Y2.7778 Z0.2248
X17.2869 Y2.776 Z0.2273
X17.2889 Y2.7744 Z0.2303
X17.2905 Y2.7731 Z0.2337
X17.2917 Y2.7722 Z0.2373
X17.2924 Y2.7716 Z0.2411
X17.2926 Y2.7714 Z0.245
G0 Z1.2037
X18.9253 Y4.3832
G1 Z0.2425 F15
X18.9251 Y4.3834 Z0.239 F150
X18.9245 Y4.3841 Z0.2355
X18.9236 Y4.3851 Z0.2323
X18.9224 Y4.3864 Z0.2293
X18.9208 Y4.3881 Z0.2266
X18.919 Y4.3901 Z0.2243
X18.917 Y4.3923 Z0.2225
X18.9148 Y4.3947 Z0.2211
X18.9125 Y4.3973 Z0.2203
X18.9101 Y4.3999 Z0.22
X18.6382 Y4.6973
X18.6353 Y4.7
X16.1777 Y6.6599 F200
X16.1386 Y6.6911 F50
X14.6921 Y4.8772 F200
X14.6609 Y4.8381 F50
X17.1574 Y2.8472 F200
X17.1607 Y2.845
X17.2694 Y2.7833
X17.2728 Y2.7814 Z0.2203
X17.2761 Y2.7795 Z0.2212
X17.2793 Y2.7777 Z0.2227
X17.2822 Y2.7761 Z0.2248
X17.2848 Y2.7746 Z0.2273
X17.287 Y2.7733 Z0.2303
X17.2888 Y2.7723 Z0.2337
X17.2901 Y2.7716 Z0.2373
X17.2909 Y2.7711 Z0.2411
X17.2912 Y2.771 Z0.245
G0 Z1.3894
X14.6505 Y0.5688
Z1.2037
G1 Z0.5297 F15
X14.6504 Y0.5691 Z0.5258 F150
X14.65 Y0.5699 Z0.522
X14.6493 Y0.5713 Z0.5183
X14.6484 Y0.5731 Z0.515
X14.6473 Y0.5754 Z0.512
X14.646 Y0.5781 Z0.5095
X14.6446 Y0.5811 Z0.5074
X14.643 Y0.5844 Z0.5059
X14.6413 Y0.5878 Z0.505
X14.6396 Y0.5913 Z0.5047
X14.4707 Y0.9421
X13.555 Y2.8436 F200
G3 X13.538 Y2.8495 I-0.0115 J-0.0056
G1 X13.4793 Y2.8213
G3 X13.4733 Y2.8042 I0.0055 J-0.0115
G1 X14.389 Y0.9027
G3 X14.4057 Y0.8968 I0.0113 J0.0054
G1 X14.5482 Y0.9655
G3 X14.554 Y0.9821 I-0.0054 J0.0112
G1 X13.5982 Y2.967
G3 X13.5812 Y2.9729 I-0.0115 J-0.0056
G1 X13.3559 Y2.8644
G3 X13.3499 Y2.8474 I0.0055 J-0.0115
G1 X14.3056 Y0.8629
G3 X14.3224 Y0.857 I0.0113 J0.0054
G1 X14.6782 Y1.0324
G3 X14.6839 Y1.049 I-0.0056 J0.0112
G1 X13.6664 Y3.1619
G3 X13.6494 Y3.1678 I-0.0115 J-0.0056
G1 X13.161 Y2.9326
G3 X13.155 Y2.9156 I0.0055 J-0.0115
G1 X14.1726 Y0.8025
G3 X14.1894 Y0.7967 I0.0113 J0.0055
G1 X14.8074 Y1.1005
G3 X14.8131 Y1.1172 I-0.0055 J0.0112
G1 X13.7346 Y3.3568
G3 X13.7175 Y3.3627 I-0.0115 J-0.0056
G1 X12.9661 Y3.0008
G3 X12.9601 Y2.9838 I0.0055 J-0.0115
G1 X14.0388 Y0.744
G3 X14.0555 Y0.7382 I0.0112 J0.0054
G1 X14.9366 Y1.1687
G3 X14.9423 Y1.1853 I-0.0055 J0.0112
G1 X13.8028 Y3.5516
G3 X13.7858 Y3.5576 I-0.0115 J-0.0055
G1 X12.7712 Y3.069
G3 X12.7652 Y3.052 I0.0055 J-0.0115
G1 X13.9047 Y0.6859
G3 X13.9214 Y0.6802 I0.0112 J0.0054
G1 X15.0633 Y1.2422
G3 X15.069 Y1.2588 I-0.0056 J0.0112
G1 X13.871 Y3.7465
G3 X13.8539 Y3.7525 I-0.0115 J-0.0055
G1 X12.5763 Y3.1372
G3 X12.5704 Y3.1202 I0.0056 J-0.0115
G1 X13.7683 Y0.6327
G3 X13.785 Y0.6269 I0.0112 J0.0054
G1 X15.1899 Y1.3156
G3 X15.1957 Y1.3323 I-0.0055 J0.0113
G1 X13.9392 Y3.9414
G3 X13.9221 Y3.9474 I-0.0115 J-0.0055
G1 X12.3814 Y3.2054
G3 X12.3755 Y3.1884 I0.0056 J-0.0115
G1 X13.6321 Y0.579
G3 X13.6488 Y0.5733 I0.0112 J0.0054
G1 X15.3157 Y1.3909
G3 X15.3214 Y1.4075 I-0.0055 J0.0112
G1 X14.0074 Y4.1363
G3 X13.9903 Y4.1423 I-0.0115 J-0.0055
G1 X12.1865 Y3.2736
G3 X12.1806 Y3.2566 I0.0056 J-0.0115
G1 X13.4948 Y0.5275
X13.5491 Y0.4149
X13.5508 Y0.4113 Z0.505
X13.5524 Y0.4079 Z0.5059
X13.554 Y0.4046 Z0.5074
X13.5554 Y0.4016 Z0.5095
X13.5567 Y0.3989 Z0.512
X13.5578 Y0.3966 Z0.515
X13.5587 Y0.3948 Z0.5183
X13.5594 Y0.3934 Z0.522
X13.5598 Y0.3926 Z0.5258
X13.5599 Y0.3923 Z0.5297
G0 Z1.2037
X15.6271 Y1.1099
G1 Z0.5297 F15
X15.6269 Y1.1102 Z0.5258 F150
X15.6265 Y1.111 Z0.522
X15.6259 Y1.1124 Z0.5183
X15.625 Y1.1142 Z0.515
X15.6239 Y1.1165 Z0.512
X15.6226 Y1.1192 Z0.5095
X15.6212 Y1.1222 Z0.5074
X15.6196 Y1.1255 Z0.5059
X15.6179 Y1.1289 Z0.505
X15.6162 Y1.1324 Z0.5047
X15.4461 Y1.4858
X14.0918 Y4.2979 F200
X14.0701 Y4.343 F50
X12.0249 Y3.3581 F200
X11.9799 Y3.3364 F50
X13.3558 Y0.4792 F200
X13.41 Y0.3666
X13.4117 Y0.3631 Z0.505
X13.4134 Y0.3597 Z0.5059
X13.4149 Y0.3564 Z0.5074
X13.4164 Y0.3534 Z0.5095
X13.4177 Y0.3507 Z0.512
X13.4188 Y0.3484 Z0.515
X13.4197 Y0.3465 Z0.5183
X13.4203 Y0.3452 Z0.522
X13.4207 Y0.3444 Z0.5258
X13.4209 Y0.3441 Z0.5297
G0 Z1.2037
X15.5914 Y1.0872
G1 Z0.5272 F15
X15.5913 Y1.0875 Z0.5237 F150
X15.5911 Y1.0883 Z0.5202
X15.5907 Y1.0896 Z0.517
