%
(Dominion Wheel Sleeved 24.0)
(Machine)
(  vendor: Carbide3D)
(  model: Shapeoko 4 XXL)
(  description: Shapeoko 4 XXL)
(T1  D=0.25 CR=0 - ZMIN=0 - flat end mill)
G90
G17
G20
G28 G91 Z0
G90

(2D Pocket1)
T1 M6
S22000 M3
G54
G0 X12.0417 Y11.1352
Z1.39
Z0.99
G1 Z0.915 F15
X12.0427 Y11.1359 Z0.9074
X12.0455 Y11.1377 Z0.9006
X12.0501 Y11.1404 Z0.8951
X12.0561 Y11.1435 Z0.8914
X12.063 Y11.1465 Z0.89
G2 X12.1524 Y10.9265 Z0.877 I0.0447 J-0.11
X12.063 Y11.1465 Z0.8639 I-0.0447 J0.11
X12.1524 Y10.9265 Z0.8509 I0.0447 J-0.11
X12.063 Y11.1465 Z0.8379 I-0.0447 J0.11
X12.1524 Y10.9265 Z0.8249 I0.0447 J-0.11
X12.063 Y11.1465 Z0.8118 I-0.0447 J0.11
X12.1524 Y10.9265 Z0.7988 I0.0447 J-0.11
X12.063 Y11.1465 Z0.7858 I-0.0447 J0.11
X12.1524 Y10.9265 Z0.7728 I0.0447 J-0.11
X12.063 Y11.1465 Z0.7597 I-0.0447 J0.11
X12.1524 Y10.9265 Z0.7467 I0.0447 J-0.11
X12.063 Y11.1465 Z0.7337 I-0.0447 J0.11
X12.1524 Y10.9265 Z0.7206 I0.0447 J-0.11
X12.063 Y11.1465 Z0.7076 I-0.0447 J0.11
X12.1524 Y10.9265 Z0.6946 I0.0447 J-0.11
X12.063 Y11.1465 Z0.6816 I-0.0447 J0.11
X12.1524 Y10.9265 Z0.6685 I0.0447 J-0.11
X12.063 Y11.1465 Z0.6555 I-0.0447 J0.11
X12.1524 Y10.9265 Z0.6425 I0.0447 J-0.11
X12.063 Y11.1465 Z0.6294 I-0.0447 J0.11
X12.1524 Y10.9265 Z0.6164 I0.0447 J-0.11
X12.063 Y11.1465 Z0.6034 I-0.0447 J0.11
X12.1524 Y10.9265 Z0.5904 I0.0447 J-0.11
X12.063 Y11.1465 Z0.5773 I-0.0447 J0.11
X12.1524 Y10.9265 Z0.5643 I0.0447 J-0.11
X12.063 Y11.1465 Z0.5513 I-0.0447 J0.11
X12.1524 Y10.9265 Z0.5383 I0.0447 J-0.11
X12.063 Y11.1465 Z0.5252 I-0.0447 J0.11
X12.1524 Y10.9265 Z0.5122 I0.0447 J-0.11
X12.063 Y11.1465 Z0.4992 I-0.0447 J0.11
X12.1524 Y10.9265 Z0.4861 I0.0447 J-0.11
X12.063 Y11.1465 Z0.4731 I-0.0447 J0.11
X12.2264 Y11.0365 Z0.465 I0.0447 J-0.11
G1 Y10.0926 F150
Y10.0426 F37.5
G2 X12.2194 Y10.0356 I-0.007 J0
G1 X12.2176
G2 X12.2106 Y10.0426 I0 J0.007
G1 Y10.9874 F150
Y11.0374 F37.5
G2 X12.2176 Y11.0444 I0.007 J0
G1 X12.2194
G2 X12.2264 Y11.0374 I0 J-0.007
G1 Y11.0365 F150
G3 X12.2994 Y10.927 I0.1186 J0 F200
G2 X12.3724 Y10.8175 I-0.0456 J-0.1095
G1 Y9.9024 F150
G2 X12.3596 Y9.8896 I-0.0128 J0
G1 X12.0774
G2 X12.0646 Y9.9024 I0 J0.0128
G1 Y11.1776
G2 X12.0774 Y11.1904 I0.0128 J0
G1 X12.3596
G2 X12.3724 Y11.1776 I0 J-0.0128
G1 Y10.8175
G3 X12.4454 Y10.708 I0.1186 J0 F200
G2 X12.5184 Y10.5985 I-0.0456 J-0.1095
G1 Y9.7564 F150
G2 X12.5056 Y9.7436 I-0.0128 J0
G1 X12.04 Y9.7454
G3 X11.9843 Y9.7433 I0 J-0.7348
G1 X11.9786 Y9.7428
G3 X11.9288 Y9.7387 I0.3811 J-4.9404 F37.5
G2 X11.9186 Y9.7481 I-0.0008 J0.0094
G1 Y11.2819 F150
Y11.3319 F37.5
G2 X11.9288 Y11.3413 I0.0094 J0
G3 X11.9843 Y11.3368 I0.4309 J4.9363 F150
X12.04 Y11.3347 I0.0557 J0.7326
G1 X12.5056 Y11.3364
G2 X12.5184 Y11.3236 I0 J-0.0128
G1 Y10.5985
G3 X12.5914 Y10.489 I0.1186 J0 F200
G2 X12.6644 Y10.3795 I-0.0456 J-0.1095
G1 Y9.6104 F150
G2 X12.6516 Y9.5976 I-0.0128 J0
G1 X12.04 Y9.5994
G3 X11.9112 Y9.5912 I0 J-1.0106
X11.833 Y9.5787 I0.1645 J-1.2801
X11.7841 Y9.5684 I0.2427 J-1.2676 F37.5
G2 X11.7727 Y9.5775 I-0.0021 J0.0091
G1 X11.7726 Y11.4525 F150
Y11.5025 F37.5
G2 X11.7841 Y11.5117 I0.0094 J0
G3 X11.9112 Y11.4889 I0.2916 J1.2572 F150
X12.04 Y11.4807 I0.1288 J1.0023
G1 X12.6516 Y11.4824
G2 X12.6644 Y11.4696 I0 J-0.0128
G1 Y10.3795
G3 X12.7374 Y10.27 I0.1186 J0 F200
G2 X12.8104 Y10.1605 I-0.0456 J-0.1095
G1 Y9.4644 F150
G2 X12.7976 Y9.4516 I-0.0128 J0
G1 X12.04 Y9.4534
G3 X11.8336 Y9.4307 I0 J-0.9493
X11.6826 Y9.3846 I0.2237 J-1.0044
X11.6365 Y9.3653 I0.3747 J-0.9583 F37.5
G2 X11.6266 Y9.3717 I-0.0029 J0.0064
G1 Y11.6583 F150
Y11.7083 F37.5
G2 X11.6365 Y11.7147 I0.007 J0
G3 X11.8336 Y11.6493 I0.4208 J0.939 F150
X12.04 Y11.6266 I0.2064 J0.9266
G1 X12.7976 Y11.6284
G2 X12.8104 Y11.6156 I0 J-0.0128
G1 Y10.1605
G3 X12.8834 Y10.051 I0.1186 J0 F200
G2 X12.9564 Y9.9415 I-0.0456 J-0.1095
G1 Y9.3184 F150
G2 X12.9436 Y9.3056 I-0.0128 J0
G1 X12.04 Y9.3074
G3 X11.7459 Y9.2534 I0 J-0.8284
X11.5279 Y9.1316 I0.3036 J-0.7993
X11.4892 Y9.1 I0.5216 J-0.6775 F37.5
G1 X11.4878 Y9.0991
X11.4861 Y9.0987
X11.4844 Y9.0989
X11.4829 Y9.0996
X11.4817 Y9.1008
X11.4809 Y9.1023
X11.4806 Y9.1039
Y11.9261 F150
Y11.9761 F37.5
X11.4809 Y11.9777
X11.4817 Y11.9792
X11.4829 Y11.9804
X11.4844 Y11.9811
X11.4861 Y11.9813
X11.4878 Y11.9809
X11.4892 Y11.98
G3 X11.7459 Y11.8266 I0.5603 J0.6459 F150
X12.04 Y11.7726 I0.2941 J0.7744
G1 X12.9436 Y11.7744
G2 X12.9564 Y11.7616 I0 J-0.0128
G1 Y9.9415
G3 X13.0294 Y9.832 I0.1186 J0 F200
G2 X13.1024 Y9.7225 I-0.0456 J-0.1095
G1 Y9.1724 F150
G2 X13.0896 Y9.1596 I-0.0128 J0
G1 X12.04 Y9.1614
G3 X11.3436 Y8.465 I0 J-0.6964
X11.3445 Y8.3899 I3.1341 J0
G2 X11.345 Y8.3648 I-3.1331 J-0.0751
X11.3454 Y8.3148 I-3.1336 J-0.05 F37.5
G1 X11.3452 Y8.3132
X11.3444 Y8.3117
X11.3433 Y8.3106
X11.3418 Y8.3098
X11.3402 Y8.3096
X11.3398
X11.3382 Y8.3098
X11.3367 Y8.3106
X11.3356 Y8.3117
X11.3348 Y8.3132
X11.3346 Y8.3148
Y12.7152 F150
Y12.7652 F37.5
X11.3348 Y12.7668
X11.3356 Y12.7683
X11.3367 Y12.7694
X11.3382 Y12.7702
X11.3398 Y12.7704
X11.3402
X11.3418 Y12.7702
X11.3433 Y12.7694
X11.3444 Y12.7683
X11.3452 Y12.7668
X11.3454 Y12.7652
G2 X11.3445 Y12.6901 I-3.134 J0 F150
G3 X11.3436 Y12.615 I3.1332 J-0.0751
X12.04 Y11.9186 I0.6964 J0
G1 X13.0896 Y11.9204
G2 X13.1024 Y11.9076 I0 J-0.0128
G1 Y9.7225
G3 X13.1686 Y9.6232 I0.1076 J0 F200
G2 X13.2348 Y9.5239 I-0.0414 J-0.0993
G1 Y9.04 F150
G2 X13.222 Y9.0272 I-0.0128 J0
G1 X12.04 Y9.029
G3 X11.476 Y8.465 I0 J-0.564
X11.4769 Y8.3275 I10.5059 J0
G2 X11.4778 Y8.19 I-10.505 J-0.1375
X11.465 Y8.1772 I-0.0128 J0
G1 X11.215
G2 X11.2022 Y8.19 I0 J0.0128
G1 Y12.89
G2 X11.215 Y12.9028 I0.0128 J0
G1 X11.465
G2 X11.4778 Y12.89 I0 J-0.0128
X11.4769 Y12.7525 I-10.5059 J0
G3 X11.476 Y12.615 I10.505 J-0.1375
X12.04 Y12.051 I0.564 J0
G1 X13.222 Y12.0528
G2 X13.2348 Y12.04 I0 J-0.0128
G1 Y9.5239
G3 X13.3078 Y9.4144 I0.1186 J0 F200
G2 X13.3808 Y9.3049 I-0.0456 J-0.1095
G1 Y8.894 F150
G2 X13.368 Y8.8812 I-0.0128 J0
G1 X12.04 Y8.883
G3 X11.622 Y8.465 I0 J-0.418
G1 X11.6238 Y8.044
G2 X11.611 Y8.0312 I-0.0128 J0
G1 X11.069
G2 X11.0562 Y8.044 I0 J0.0128
G1 Y13.036
G2 X11.069 Y13.0488 I0.0128 J0
G1 X11.611
G2 X11.6238 Y13.036 I0 J-0.0128
G1 X11.622 Y12.615
G3 X12.04 Y12.197 I0.418 J0
G1 X13.368 Y12.1988
G2 X13.3808 Y12.186 I0 J-0.0128
G1 Y9.3049
G3 X13.4539 Y9.1952 I0.1188 J0 F200
G2 X13.5269 Y9.0856 I-0.0457 J-0.1096
G1 X13.527 Y8.785 F150
Y8.735 F37.5
X12.04 F150
G3 X11.77 Y8.465 I0 J-0.27
G1 Y7.935
Y7.885 F37.5
X10.96 F150
X10.91 F37.5
Y13.145 F150
Y13.195 F37.5
X11.72 F150
X11.77 F37.5
Y12.615 F150
G3 X12.04 Y12.345 I0.27 J0
G1 X13.477
X13.527 F37.5
Y9.0856 F150
G3 X13.5395 Y9.0669 I0.0203 J0 F200
G2 X13.5521 Y9.0481 I-0.0078 J-0.0188
G1 X13.552 Y8.76 F400
Y8.71 F37.5
X12.04 F400
G3 X11.795 Y8.465 I0 J-0.245
G1 Y7.91
Y7.86 F37.5
X10.935 F400
X10.885 F37.5
Y13.17 F400
Y13.22 F37.5
X11.745 F400
X11.795 F37.5
Y12.615 F400
G3 X12.04 Y12.37 I0.245 J0
G1 X13.502
X13.552 F37.5
Y9.0481 F400
X13.5517 Y9.0443 Z0.4656 F200
X13.5508 Y9.0405 Z0.4662
X13.5495 Y9.0373 Z0.468
X13.5478 Y9.0343 Z0.4698
X13.5462 Y9.032 Z0.4725
X13.5443 Y9.03 Z0.4753
X13.5415 Y9.0278 Z0.4823
X13.5405 Y9.0271 Z0.49
G0 Z0.99
X12.2238 Y11.0116
G1 Z0.59 F15
X12.2235 Y11.0104 Z0.5824
X12.2227 Y11.0071 Z0.5756
X12.2213 Y11.002 Z0.5701
X12.2192 Y10.9956 Z0.5664
X12.2164 Y10.9886 Z0.565
G2 X11.999 Y11.0843 Z0.552 I-0.1087 J0.0479
X12.2164 Y10.9886 Z0.5389 I0.1087 J-0.0478
X11.999 Y11.0843 Z0.5259 I-0.1087 J0.0479
X12.2164 Y10.9886 Z0.5129 I0.1087 J-0.0478
X11.999 Y11.0843 Z0.4999 I-0.1087 J0.0479
X12.2164 Y10.9886 Z0.4868 I0.1087 J-0.0478
X11.999 Y11.0843 Z0.4738 I-0.1087 J0.0479
X12.2164 Y10.9886 Z0.4608 I0.1087 J-0.0478
X11.999 Y11.0843 Z0.4478 I-0.1087 J0.0479
X12.2164 Y10.9886 Z0.4347 I0.1087 J-0.0478
X11.999 Y11.0843 Z0.4217 I-0.1087 J0.0479
X12.2164 Y10.9886 Z0.4087 I0.1087 J-0.0478
X11.999 Y11.0843 Z0.3956 I-0.1087 J0.0479
X12.2164 Y10.9886 Z0.3826 I0.1087 J-0.0478
X11.999 Y11.0843 Z0.3696 I-0.1087 J0.0479
X12.2164 Y10.9886 Z0.3566 I0.1087 J-0.0478
X11.999 Y11.0843 Z0.3435 I-0.1087 J0.0479
X12.2164 Y10.9886 Z0.3305 I0.1087 J-0.0478
X11.999 Y11.0843 Z0.3175 I-0.1087 J0.0479
X12.2164 Y10.9886 Z0.3044 I0.1087 J-0.0478
X11.999 Y11.0843 Z0.2914 I-0.1087 J0.0479
X12.2164 Y10.9886 Z0.2784 I0.1087 J-0.0478
X11.999 Y11.0843 Z0.2654 I-0.1087 J0.0479
X12.2164 Y10.9886 Z0.2523 I0.1087 J-0.0478
X11.999 Y11.0843 Z0.2393 I-0.1087 J0.0479
X12.2264 Y11.0365 Z0.228 I0.1087 J-0.0478
G1 Y10.0926 F150
Y10.0426 F37.5
G2 X12.2194 Y10.0356 I-0.007 J0
G1 X12.2176
G2 X12.2106 Y10.0426 I0 J0.007
G1 Y10.9874 F150
Y11.0374 F37.5
G2 X12.2176 Y11.0444 I0.007 J0
G1 X12.2194
G2 X12.2264 Y11.0374 I0 J-0.007
G1 Y11.0365 F150
G3 X12.2994 Y10.927 I0.1186 J0 F200
G2 X12.3724 Y10.8175 I-0.0456 J-0.1095
G1 Y9.9024 F150
G2 X12.3596 Y9.8896 I-0.0128 J0
G1 X12.0774
G2 X12.0646 Y9.9024 I0 J0.0128
G1 Y11.1776
G2 X12.0774 Y11.1904 I0.0128 J0
G1 X12.3596
G2 X12.3724 Y11.1776 I0 J-0.0128
G1 Y10.8175
G3 X12.4454 Y10.708 I0.1186 J0 F200
G2 X12.5184 Y10.5985 I-0.0456 J-0.1095
G1 Y9.7564 F150
G2 X12.5056 Y9.7436 I-0.0128 J0
G1 X12.04 Y9.7454
G3 X11.9843 Y9.7433 I0 J-0.7348
G1 X11.9786 Y9.7428
G3 X11.9288 Y9.7387 I0.3811 J-4.9404 F37.5
G2 X11.9186 Y9.7481 I-0.0008 J0.0094
G1 Y11.2819 F150
Y11.3319 F37.5
G2 X11.9288 Y11.3413 I0.0094 J0
G3 X11.9843 Y11.3368 I0.4309 J4.9363 F150
X12.04 Y11.3347 I0.0557 J0.7326
G1 X12.5056 Y11.3364
G2 X12.5184 Y11.3236 I0 J-0.0128
G1 Y10.5985
G3 X12.5914 Y10.489 I0.1186 J0 F200
G2 X12.6644 Y10.3795 I-0.0456 J-0.1095
G1 Y9.6104 F150
G2 X12.6516 Y9.5976 I-0.0128 J0
G1 X12.04 Y9.5994
G3 X11.9112 Y9.5912 I0 J-1.0106
X11.833 Y9.5787 I0.1645 J-1.2801
X11.7841 Y9.5684 I0.2427 J-1.2676 F37.5
G2 X11.7727 Y9.5775 I-0.0021 J0.0091
G1 X11.7726 Y11.4525 F150
Y11.5025 F37.5
G2 X11.7841 Y11.5117 I0.0094 J0
G3 X11.9112 Y11.4889 I0.2916 J1.2572 F150
X12.04 Y11.4807 I0.1288 J1.0023
G1 X12.6516 Y11.4824
G2 X12.6644 Y11.4696 I0 J-0.0128
G1 Y10.3795
G3 X12.7374 Y10.27 I0.1186 J0 F200
G2 X12.8104 Y10.1605 I-0.0456 J-0.1095
G1 Y9.4644 F150
G2 X12.7976 Y9.4516 I-0.0128 J0
G1 X12.04 Y9.4534
G3 X11.8336 Y9.4307 I0 J-0.9493
X11.6826 Y9.3846 I0.2237 J-1.0044
X11.6365 Y9.3653 I0.3747 J-0.9583 F37.5
G2 X11.6266 Y9.3717 I-0.0029 J0.0064
G1 Y11.6583 F150
Y11.7083 F37.5
G2 X11.6365 Y11.7147 I0.007 J0
G3 X11.8336 Y11.6493 I0.4208 J0.939 F150
X12.04 Y11.6266 I0.2064 J0.9266
G1 X12.7976 Y11.6284
G2 X12.8104 Y11.6156 I0 J-0.0128
G1 Y10.1605
G3 X12.8834 Y10.051 I0.1186 J0 F200
G2 X12.9564 Y9.9415 I-0.0456 J-0.1095
G1 Y9.3184 F150
G2 X12.9436 Y9.3056 I-0.0128 J0
G1 X12.04 Y9.3074
G3 X11.7459 Y9.2534 I0 J-0.8284
X11.5279 Y9.1316 I0.3036 J-0.7993
X11.4892 Y9.1 I0.5216 J-0.6775 F37.5
G1 X11.4878 Y9.0991
X11.4861 Y9.0987
X11.4844 Y9.0989
X11.4829 Y9.0996
X11.4817 Y9.1008
X11.4809 Y9.1023
X11.4806 Y9.1039
Y11.9261 F150
Y11.9761 F37.5
X11.4809 Y11.9777
X11.4817 Y11.9792
X11.4829 Y11.9804
X11.4844 Y11.9811
X11.4861 Y11.9813
X11.4878 Y11.9809
X11.4892 Y11.98
G3 X11.7459 Y11.8266 I0.5603 J0.6459 F150
X12.04 Y11.7726 I0.2941 J0.7744
G1 X12.9436 Y11.7744
G2 X12.9564 Y11.7616 I0 J-0.0128
G1 Y9.9415
G3 X13.0294 Y9.832 I0.1186 J0 F200
G2 X13.1024 Y9.7225 I-0.0456 J-0.1095
G1 Y9.1724 F150
G2 X13.0896 Y9.1596 I-0.0128 J0
G1 X12.04 Y9.1614
G3 X11.3436 Y8.465 I0 J-0.6964
X11.3445 Y8.3899 I3.1341 J0
G2 X11.345 Y8.3648 I-3.1331 J-0.0751
X11.3454 Y8.3148 I-3.1336 J-0.05 F37.5
G1 X11.3452 Y8.3132
X11.3444 Y8.3117
X11.3433 Y8.3106
X11.3418 Y8.3098
X11.3402 Y8.3096
X11.3398
X11.3382 Y8.3098
X11.3367 Y8.3106
X11.3356 Y8.3117
X11.3348 Y8.3132
X11.3346 Y8.3148
Y12.7152 F150
Y12.7652 F37.5
X11.3348 Y12.7668
X11.3356 Y12.7683
X11.3367 Y12.7694
X11.3382 Y12.7702
X11.3398 Y12.7704
X11.3402
X11.3418 Y12.7702
X11.3433 Y12.7694
X11.3444 Y12.7683
X11.3452 Y12.7668
X11.3454 Y12.7652
G2 X11.3445 Y12.6901 I-3.134 J0 F150
G3 X11.3436 Y12.615 I3.1332 J-0.0751
X12.04 Y11.9186 I0.6964 J0
G1 X13.0896 Y11.9204
G2 X13.1024 Y11.9076 I0 J-0.0128
G1 Y9.7225
G3 X13.1686 Y9.6232 I0.1076 J0 F200
G2 X13.2348 Y9.5239 I-0.0414 J-0.0993
G1 Y9.04 F150
G2 X13.222 Y9.0272 I-0.0128 J0
G1 X12.04 Y9.029
G3 X11.476 Y8.465 I0 J-0.564
X11.4769 Y8.3275 I10.5059 J0
G2 X11.4778 Y8.19 I-10.505 J-0.1375
X11.465 Y8.1772 I-0.0128 J0
G1 X11.215
G2 X11.2022 Y8.19 I0 J0.0128
G1 Y12.89
G2 X11.215 Y12.9028 I0.0128 J0
G1 X11.465
G2 X11.4778 Y12.89 I0 J-0.0128
X11.4769 Y12.7525 I-10.5059 J0
G3 X11.476 Y12.615 I10.505 J-0.1375
X12.04 Y12.051 I0.564 J0
G1 X13.222 Y12.0528
G2 X13.2348 Y12.04 I0 J-0.0128
G1 Y9.5239
G3 X13.3078 Y9.4144 I0.1186 J0 F200
G2 X13.3808 Y9.3049 I-0.0456 J-0.1095
G1 Y8.894 F150
G2 X13.368 Y8.8812 I-0.0128 J0
G1 X12.04 Y8.883
G3 X11.622 Y8.465 I0 J-0.418
G1 X11.6238 Y8.044
G2 X11.611 Y8.0312 I-0.0128 J0
G1 X11.069
G2 X11.0562 Y8.044 I0 J0.0128
G1 Y13.036
G2 X11.069 Y13.0488 I0.0128 J0
G1 X11.611
G2 X11.6238 Y13.036 I0 J-0.0128
G1 X11.622 Y12.615
G3 X12.04 Y12.197 I0.418 J0
G1 X13.368 Y12.1988
G2 X13.3808 Y12.186 I0 J-0.0128
G1 Y9.3049
G3 X13.4539 Y9.1952 I0.1188 J0 F200
G2 X13.5269 Y9.0856 I-0.0457 J-0.1096
G1 X13.527 Y8.785 F150
Y8.735 F37.5
X12.04 F150
G3 X11.77 Y8.465 I0 J-0.27
G1 Y7.935
Y7.885 F37.5
X10.96 F150
X10.91 F37.5
Y13.145 F150
Y13.195 F37.5
X11.72 F150
X11.77 F37.5
Y12.615 F150
G3 X12.04 Y12.345 I0.27 J0
G1 X13.477
X13.527 F37.5
Y9.0856 F150
G3 X13.5395 Y9.0669 I0.0203 J0 F200
G2 X13.5521 Y9.0481 I-0.0078 J-0.0188
G1 X13.552 Y8.76 F400
Y8.71 F37.5
X12.04 F400
G3 X11.795 Y8.465 I0 J-0.245
G1 Y7.91
Y7.86 F37.5
X10.935 F400
X10.885 F37.5
Y13.17 F400
Y13.22 F37.5
X11.745 F400
X11.795 F37.5
Y12.615 F400
G3 X12.04 Y12.37 I0.245 J0
G1 X13.502
X13.552 F37.5
Y9.0481 F400
X13.5517 Y9.0443 Z0.2286 F200
X13.5508 Y9.0405 Z0.2292
X13.5495 Y9.0373 Z0.231
X13.5478 Y9.0343 Z0.2328
X13.5462 Y9.032 Z0.2355
X13.5443 Y9.03 Z0.2383
X13.5415 Y9.0278 Z0.2453
X13.5405 Y9.0271 Z0.253
G0 Z0.99
X12.16 Y11.1431
G1 Z0.353 F15
X12.1611 Y11.1426 Z0.3454
X12.1641 Y11.141 Z0.3386
X12.1687 Y11.1384 Z0.3331
X12.1744 Y11.1347 Z0.3294
X12.1804 Y11.1303 Z0.328
G2 X12.035 Y10.9427 Z0.315 I-0.0727 J-0.0938
X12.1804 Y11.1303 Z0.3019 I0.0727 J0.0938
X12.035 Y10.9427 Z0.2889 I-0.0727 J-0.0938
X12.1804 Y11.1303 Z0.2759 I0.0727 J0.0938
X12.035 Y10.9427 Z0.2629 I-0.0727 J-0.0938
X12.1804 Y11.1303 Z0.2498 I0.0727 J0.0938
X12.035 Y10.9427 Z0.2368 I-0.0727 J-0.0938
X12.1804 Y11.1303 Z0.2238 I0.0727 J0.0938
X12.2264 Y11.0365 Z0.22 I-0.0727 J-0.0938
G1 Y10.0926 F150
Y10.0426 F37.5
G2 X12.2194 Y10.0356 I-0.007 J0
G1 X12.2176
G2 X12.2106 Y10.0426 I0 J0.007
G1 Y10.9874 F150
Y11.0374 F37.5
G2 X12.2176 Y11.0444 I0.007 J0
G1 X12.2194
G2 X12.2264 Y11.0374 I0 J-0.007
G1 Y11.0365 F150
G3 X12.2994 Y10.927 I0.1186 J0 F200
G2 X12.3724 Y10.8175 I-0.0456 J-0.1095
G1 Y9.9024 F150
G2 X12.3596 Y9.8896 I-0.0128 J0
G1 X12.0774
G2 X12.0646 Y9.9024 I0 J0.0128
G1 Y11.1776
G2 X12.0774 Y11.1904 I0.0128 J0
G1 X12.3596
G2 X12.3724 Y11.1776 I0 J-0.0128
G1 Y10.8175
G3 X12.4454 Y10.708 I0.1186 J0 F200
G2 X12.5184 Y10.5985 I-0.0456 J-0.1095
G1 Y9.7564 F150
G2 X12.5056 Y9.7436 I-0.0128 J0
G1 X12.04 Y9.7454
G3 X11.9843 Y9.7433 I0 J-0.7348
G1 X11.9786 Y9.7428
G3 X11.9288 Y9.7387 I0.3811 J-4.9404 F37.5
G2 X11.9186 Y9.7481 I-0.0008 J0.0094
G1 Y11.2819 F150
Y11.3319 F37.5
G2 X11.9288 Y11.3413 I0.0094 J0
G3 X11.9843 Y11.3368 I0.4309 J4.9363 F150
X12.04 Y11.3347 I0.0557 J0.7326
G1 X12.5056 Y11.3364
G2 X12.5184 Y11.3236 I0 J-0.0128
G1 Y10.5985
G3 X12.5914 Y10.489 I0.1186 J0 F200
G2 X12.6644 Y10.3795 I-0.0456 J-0.1095
G1 Y9.6104 F150
G2 X12.6516 Y9.5976 I-0.0128 J0
G1 X12.04 Y9.5994
G3 X11.9112 Y9.5912 I0 J-1.0106
X11.833 Y9.5787 I0.1645 J-1.2801
X11.7841 Y9.5684 I0.2427 J-1.2676 F37.5
G2 X11.7727 Y9.5775 I-0.0021 J0.0091
G1 X11.7726 Y11.4525 F150
Y11.5025 F37.5
G2 X11.7841 Y11.5117 I0.0094 J0
G3 X11.9112 Y11.4889 I0.2916 J1.2572 F150
X12.04 Y11.4807 I0.1288 J1.0023
G1 X12.6516 Y11.4824
G2 X12.6644 Y11.4696 I0 J-0.0128
G1 Y10.3795
G3 X12.7374 Y10.27 I0.1186 J0 F200
G2 X12.8104 Y10.1605 I-0.0456 J-0.1095
G1 Y9.4644 F150
G2 X12.7976 Y9.4516 I-0.0128 J0
G1 X12.04 Y9.4534
G3 X11.8336 Y9.4307 I0 J-0.9493
X11.6826 Y9.3846 I0.2237 J-1.0044
X11.6365 Y9.3653 I0.3747 J-0.9583 F37.5
G2 X11.6266 Y9.3717 I-0.0029 J0.0064
G1 Y11.6583 F150
Y11.7083 F37.5
G2 X11.6365 Y11.7147 I0.007 J0
G3 X11.8336 Y11.6493 I0.4208 J0.939 F150
X12.04 Y11.6266 I0.2064 J0.9266
G1 X12.7976 Y11.6284
G2 X12.8104 Y11.6156 I0 J-0.0128
G1 Y10.1605
G3 X12.8834 Y10.051 I0.1186 J0 F200
G2 X12.9564 Y9.9415 I-0.0456 J-0.1095
G1 Y9.3184 F150
G2 X12.9436 Y9.3056 I-0.0128 J0
G1 X12.04 Y9.3074
G3 X11.7459 Y9.2534 I0 J-0.8284
X11.5279 Y9.1316 I0.3036 J-0.7993
X11.4892 Y9.1 I0.5216 J-0.6775 F37.5
G1 X11.4878 Y9.0991
X11.4861 Y9.0987
X11.4844 Y9.0989
X11.4829 Y9.0996
X11.4817 Y9.1008
X11.4809 Y9.1023
X11.4806 Y9.1039
Y11.9261 F150
Y11.9761 F37.5
X11.4809 Y11.9777
X11.4817 Y11.9792
X11.4829 Y11.9804
X11.4844 Y11.9811
X11.4861 Y11.9813
X11.4878 Y11.9809
X11.4892 Y11.98
G3 X11.7459 Y11.8266 I0.5603 J0.6459 F150
X12.04 Y11.7726 I0.2941 J0.7744
G1 X12.9436 Y11.7744
G2 X12.9564 Y11.7616 I0 J-0.0128
G1 Y9.9415
G3 X13.0294 Y9.832 I0.1186 J0 F200
G2 X13.1024 Y9.7225 I-0.0456 J-0.1095
G1 Y9.1724 F150
G2 X13.0896 Y9.1596 I-0.0128 J0
G1 X12.04 Y9.1614
G3 X11.3436 Y8.465 I0 J-0.6964
X11.3445 Y8.3899 I3.1341 J0
G2 X11.345 Y8.3648 I-3.1331 J-0.0751
X11.3454 Y8.3148 I-3.1336 J-0.05 F37.5
G1 X11.3452 Y8.3132
X11.3444 Y8.3117
X11.3433 Y8.3106
X11.3418 Y8.3098
X11.3402 Y8.3096
X11.3398
X11.3382 Y8.3098
X11.3367 Y8.3106
X11.3356 Y8.3117
X11.3348 Y8.3132
X11.3346 Y8.3148
Y12.7152 F150
Y12.7652 F37.5
X11.3348 Y12.7668
X11.3356 Y12.7683
X11.3367 Y12.7694
X11.3382 Y12.7702
X11.3398 Y12.7704
X11.3402
X11.3418 Y12.7702
X11.3433 Y12.7694
X11.3444 Y12.7683
X11.3452 Y12.7668
X11.3454 Y12.7652
G2 X11.3445 Y12.6901 I-3.134 J0 F150
G3 X11.3436 Y12.615 I3.1332 J-0.0751
X12.04 Y11.9186 I0.6964 J0
G1 X13.0896 Y11.9204
G2 X13.1024 Y11.9076 I0 J-0.0128
G1 Y9.7225
G3 X13.1686 Y9.6232 I0.1076 J0 F200
G2 X13.2348 Y9.5239 I-0.0414 J-0.0993
G1 Y9.04 F150
G2 X13.222 Y9.0272 I-0.0128 J0
G1 X12.04 Y9.029
G3 X11.476 Y8.465 I0 J-0.564
X11.4769 Y8.3275 I10.5059 J0
G2 X11.4778 Y8.19 I-10.505 J-0.1375
X11.465 Y8.1772 I-0.0128 J0
G1 X11.215
G2 X11.2022 Y8.19 I0 J0.0128
G1 Y12.89
G2 X11.215 Y12.9028 I0.0128 J0
G1 X11.465
G2 X11.4778 Y12.89 I0 J-0.0128
X11.4769 Y12.7525 I-10.5059 J0
G3 X11.476 Y12.615 I10.505 J-0.1375
X12.04 Y12.051 I0.564 J0
G1 X13.222 Y12.0528
G2 X13.2348 Y12.04 I0 J-0.0128
G1 Y9.5239
G3 X13.3078 Y9.4144 I0.1186 J0 F200
G2 X13.3808 Y9.3049 I-0.0456 J-0.1095
G1 Y8.894 F150
G2 X13.368 Y8.8812 I-0.0128 J0
G1 X12.04 Y8.883
G3 X11.622 Y8.465 I0 J-0.418
G1 X11.6238 Y8.044
G2 X11.611 Y8.0312 I-0.0128 J0
G1 X11.069
G2 X11.0562 Y8.044 I0 J0.0128
G1 Y13.036
G2 X11.069 Y13.0488 I0.0128 J0
G1 X11.611
G2 X11.6238 Y13.036 I0 J-0.0128
G1 X11.622 Y12.615
G3 X12.04 Y12.197 I0.418 J0
G1 X13.368 Y12.1988
G2 X13.3808 Y12.186 I0 J-0.0128
G1 Y9.3049
G3 X13.4539 Y9.1952 I0.1188 J0 F200
G2 X13.5269 Y9.0856 I-0.0457 J-0.1096
G1 X13.527 Y8.785 F150
Y8.735 F37.5
X12.04 F150
G3 X11.77 Y8.465 I0 J-0.27
G1 Y7.935
Y7.885 F37.5
X10.96 F150
X10.91 F37.5
Y13.145 F150
Y13.195 F37.5
X11.72 F150
X11.77 F37.5
Y12.615 F150
G3 X12.04 Y12.345 I0.27 J0
G1 X13.477
X13.527 F37.5
Y9.0856 F150
G3 X13.5395 Y9.0669 I0.0203 J0 F200
G2 X13.5521 Y9.0481 I-0.0078 J-0.0188
G1 X13.552 Y8.76 F400
Y8.71 F37.5
X12.04 F400
G3 X11.795 Y8.465 I0 J-0.245
G1 Y7.91
Y7.86 F37.5
X10.935 F400
X10.885 F37.5
Y13.17 F400
Y13.22 F37.5
X11.745 F400
X11.795 F37.5
Y12.615 F400
G3 X12.04 Y12.37 I0.245 J0
G1 X13.502
X13.552 F37.5
Y9.0481 F400
X13.5517 Y9.0443 Z0.2206 F200
X13.5508 Y9.0405 Z0.2212
X13.5495 Y9.0373 Z0.223
X13.5478 Y9.0343 Z0.2248
X13.5462 Y9.032 Z0.2275
X13.5443 Y9.03 Z0.2303
X13.5415 Y9.0278 Z0.2373
X13.5405 Y9.0271 Z0.245
G0 Z0.99
X15.6742 Y10.2203
G1 Z0.915 F15
X15.6749 Y10.2193 Z0.9074
X15.6767 Y10.2165 Z0.9006
X15.6794 Y10.2119 Z0.8951
X15.6825 Y10.2059 Z0.8914
X15.6855 Y10.199 Z0.89
G2 X15.4655 Y10.1096 Z0.877 I-0.11 J-0.0447
X15.6855 Y10.199 Z0.8639 I0.11 J0.0447
X15.4655 Y10.1096 Z0.8509 I-0.11 J-0.0447
X15.6855 Y10.199 Z0.8379 I0.11 J0.0447
X15.4655 Y10.1096 Z0.8249 I-0.11 J-0.0447
X15.6855 Y10.199 Z0.8118 I0.11 J0.0447
X15.4655 Y10.1096 Z0.7988 I-0.11 J-0.0447
X15.6855 Y10.199 Z0.7858 I0.11 J0.0447
X15.4655 Y10.1096 Z0.7728 I-0.11 J-0.0447
X15.6855 Y10.199 Z0.7597 I0.11 J0.0447
X15.4655 Y10.1096 Z0.7467 I-0.11 J-0.0447
X15.6855 Y10.199 Z0.7337 I0.11 J0.0447
X15.4655 Y10.1096 Z0.7206 I-0.11 J-0.0447
X15.6855 Y10.199 Z0.7076 I0.11 J0.0447
X15.4655 Y10.1096 Z0.6946 I-0.11 J-0.0447
X15.6855 Y10.199 Z0.6816 I0.11 J0.0447
X15.4655 Y10.1096 Z0.6685 I-0.11 J-0.0447
X15.6855 Y10.199 Z0.6555 I0.11 J0.0447
X15.4655 Y10.1096 Z0.6425 I-0.11 J-0.0447
X15.6855 Y10.199 Z0.6294 I0.11 J0.0447
X15.4655 Y10.1096 Z0.6164 I-0.11 J-0.0447
X15.6855 Y10.199 Z0.6034 I0.11 J0.0447
X15.4655 Y10.1096 Z0.5904 I-0.11 J-0.0447
X15.6855 Y10.199 Z0.5773 I0.11 J0.0447
X15.4655 Y10.1096 Z0.5643 I-0.11 J-0.0447
X15.6855 Y10.199 Z0.5513 I0.11 J0.0447
X15.4655 Y10.1096 Z0.5383 I-0.11 J-0.0447
X15.6855 Y10.199 Z0.5252 I0.11 J0.0447
X15.4655 Y10.1096 Z0.5122 I-0.11 J-0.0447
X15.6855 Y10.199 Z0.4992 I0.11 J0.0447
X15.4655 Y10.1096 Z0.4861 I-0.11 J-0.0447
X15.6855 Y10.199 Z0.4731 I0.11 J0.0447
X15.5755 Y10.0356 Z0.465 I-0.11 J-0.0447
G1 X15.5746 F37.5
G2 X15.5676 Y10.0426 I0 J0.007
G1 Y10.9874 F150
Y11.0374 F37.5
G2 X15.5746 Y11.0444 I0.007 J0
G1 X15.5764
G2 X15.5834 Y11.0374 I0 J-0.007
G1 Y10.0926 F150
Y10.0426 F37.5
G2 X15.5764 Y10.0356 I-0.007 J0
G1 X15.5755 F150
G3 X15.499 Y10.0025 I0 J-0.1049 F200
G2 X15.4216 Y10.0332 I-0.0326 J0.0307
G1 Y11.1776 F150
G2 X15.4344 Y11.1904 I0.0128 J0
G1 X15.7167
G2 X15.7295 Y11.1776 I0 J-0.0128
G1 X15.7294 Y9.9024
G2 X15.7167 Y9.8897 I-0.0127 J0
G1 X15.4344 Y9.8896
G2 X15.4216 Y9.9024 I0 J0.0128
G1 Y10.0332
G3 X15.3486 Y10.1427 I-0.1186 J0 F200
G2 X15.2756 Y10.2522 I0.0456 J0.1095
G1 Y11.3236 F150
G2 X15.2884 Y11.3364 I0.0128 J0
G1 X15.754 Y11.3346
G3 X15.8097 Y11.3367 I0 J0.7348
G1 X15.8154 Y11.3372
G3 X15.8652 Y11.3413 I-0.3811 J4.9404 F37.5
G2 X15.8754 Y11.3319 I0.0008 J-0.0094
G1 Y9.7981 F150
Y9.7481 F37.5
G2 X15.8652 Y9.7387 I-0.0094 J0
G3 X15.8097 Y9.7432 I-0.4309 J-4.9363 F150
X15.754 Y9.7453 I-0.0557 J-0.7326
G1 X15.2884 Y9.7436
G2 X15.2756 Y9.7564 I0 J0.0128
G1 Y10.2522
G3 X15.2026 Y10.3617 I-0.1186 J0 F200
G2 X15.1296 Y10.4712 I0.0456 J0.1095
G1 Y11.4696 F150
G2 X15.1424 Y11.4824 I0.0128 J0
G1 X15.754 Y11.4806
G3 X15.8828 Y11.4888 I0 J1.0106
X15.961 Y11.5013 I-0.1645 J1.2801
X16.0099 Y11.5116 I-0.2427 J1.2676 F37.5
G2 X16.0213 Y11.5025 I0.0021 J-0.0091
G1 X16.0214 Y9.6275 F150
Y9.5775 F37.5
G2 X16.0099 Y9.5683 I-0.0094 J0
G3 X15.8828 Y9.5911 I-0.2916 J-1.2572 F150
X15.754 Y9.5993 I-0.1288 J-1.0023
G1 X15.1424 Y9.5976
G2 X15.1296 Y9.6104 I0 J0.0128
G1 Y10.4712
G3 X15.0566 Y10.5807 I-0.1186 J0 F200
G2 X14.9836 Y10.6902 I0.0456 J0.1095
G1 Y11.6156 F150
G2 X14.9964 Y11.6284 I0.0128 J0
G1 X15.754 Y11.6266
G3 X15.9604 Y11.6493 I0 J0.9493
X16.1115 Y11.6954 I-0.2237 J1.0044
X16.1576 Y11.7147 I-0.3748 J0.9583 F37.5
G2 X16.1674 Y11.7083 I0.0028 J-0.0064
G1 Y9.4217 F150
Y9.3717 F37.5
G2 X16.1576 Y9.3653 I-0.007 J0
G3 X15.9604 Y9.4307 I-0.4209 J-0.939 F150
X15.754 Y9.4534 I-0.2064 J-0.9266
G1 X14.9964 Y9.4516
G2 X14.9836 Y9.4644 I0 J0.0128
G1 Y10.6902
G3 X14.9106 Y10.7997 I-0.1186 J0 F200
G2 X14.8376 Y10.9092 I0.0456 J0.1095
G1 Y11.7616 F150
G2 X14.8504 Y11.7744 I0.0128 J0
G1 X15.754 Y11.7726
G3 X16.0481 Y11.8266 I0 J0.8284
X16.2661 Y11.9484 I-0.3036 J0.7993
X16.3048 Y11.98 I-0.5216 J0.6775 F37.5
G1 X16.3063 Y11.9809
X16.3079 Y11.9813
X16.3096 Y11.9811
X16.3111 Y11.9804
X16.3124 Y11.9792
X16.3132 Y11.9777
X16.3134 Y11.9761
Y9.1539 F150
Y9.1039 F37.5
X16.3132 Y9.1023
X16.3124 Y9.1008
X16.3111 Y9.0996
X16.3096 Y9.0989
X16.3079 Y9.0987
X16.3063 Y9.0991
X16.3048 Y9.1
G3 X16.0481 Y9.2534 I-0.5603 J-0.6459 F150
X15.754 Y9.3074 I-0.2941 J-0.7744
G1 X14.8504 Y9.3056
G2 X14.8376 Y9.3184 I0 J0.0128
G1 Y10.9092
G3 X14.7646 Y11.0187 I-0.1186 J0 F200
G2 X14.6916 Y11.1282 I0.0456 J0.1095
G1 Y11.9076 F150
G2 X14.7044 Y11.9204 I0.0128 J0
G1 X15.754 Y11.9186
G3 X16.4504 Y12.615 I0 J0.6964
X16.4495 Y12.6901 I-3.1341 J0
G2 X16.449 Y12.7152 I3.1332 J0.0751
X16.4486 Y12.7652 I3.1337 J0.05 F37.5
G1 X16.4489 Y12.7668
X16.4496 Y12.7683
X16.4507 Y12.7694
X16.4522 Y12.7702
X16.4538 Y12.7704
X16.4542
X16.4558 Y12.7702
X16.4573 Y12.7694
X16.4584 Y12.7683
X16.4592 Y12.7668
X16.4594 Y12.7652
Y8.3648 F150
Y8.3148 F37.5
X16.4592 Y8.3132
X16.4584 Y8.3117
X16.4573 Y8.3106
X16.4558 Y8.3098
X16.4542 Y8.3096
X16.4538
X16.4522 Y8.3098
X16.4507 Y8.3106
X16.4496 Y8.3117
X16.4489 Y8.3132
X16.4486 Y8.3148
G2 X16.4495 Y8.3899 I3.1341 J0 F150
G3 X16.4504 Y8.465 I-3.1332 J0.0751
X15.754 Y9.1614 I-0.6964 J0
G1 X14.7044 Y9.1596
G2 X14.6916 Y9.1724 I0 J0.0128
G1 Y11.1282
G3 X14.6254 Y11.2275 I-0.1076 J0 F200
G2 X14.5593 Y11.3267 I0.0414 J0.0992
G1 X14.5592 Y12.04 F150
G2 X14.572 Y12.0528 I0.0128 J0
G1 X15.754 Y12.051
G3 X16.318 Y12.615 I0 J0.564
X16.3171 Y12.7525 I-10.5059 J0
G2 X16.3162 Y12.89 I10.505 J0.1375
X16.329 Y12.9028 I0.0128 J0
G1 X16.579
G2 X16.5918 Y12.89 I0 J-0.0128
G1 Y8.19
G2 X16.579 Y8.1772 I-0.0128 J0
G1 X16.329
G2 X16.3162 Y8.19 I0 J0.0128
X16.3171 Y8.3275 I10.5059 J0
G3 X16.318 Y8.465 I-10.505 J0.1375
X15.754 Y9.029 I-0.564 J0
G1 X14.572 Y9.0272
G2 X14.5592 Y9.04 I0 J0.0128
G1 Y11.3267
G3 X14.4862 Y11.4362 I-0.1186 J0 F200
G2 X14.4132 Y11.5457 I0.0456 J0.1095
G1 Y12.186 F150
G2 X14.426 Y12.1988 I0.0128 J0
G1 X15.754 Y12.197
G3 X16.172 Y12.615 I0 J0.418
G1 X16.1702 Y13.036
G2 X16.183 Y13.0488 I0.0128 J0
G1 X16.725
G2 X16.7378 Y13.036 I0 J-0.0128
G1 Y8.044
G2 X16.725 Y8.0312 I-0.0128 J0
G1 X16.183
G2 X16.1702 Y8.044 I0 J0.0128
G1 X16.172 Y8.465
G3 X15.754 Y8.883 I-0.418 J0
G1 X14.426 Y8.8812
G2 X14.4132 Y8.894 I0 J0.0128
G1 Y11.5457
G3 X14.3401 Y11.6554 I-0.1188 J0 F200
G2 X14.2671 Y11.765 I0.0457 J0.1096
G1 X14.267 Y12.295 F150
Y12.345 F37.5
X15.754 F150
G3 X16.024 Y12.615 I0 J0.27
G1 Y13.145
Y13.195 F37.5
X16.834 F150
X16.884 F37.5
Y7.935 F150
Y7.885 F37.5
X16.074 F150
X16.024 F37.5
Y8.465 F150
G3 X15.754 Y8.735 I-0.27 J0
G1 X14.317
X14.267 F37.5
Y11.765 F150
G3 X14.2545 Y11.7837 I-0.0203 J0 F200
G2 X14.2419 Y11.8025 I0.0078 J0.0188
G1 X14.242 Y12.32 F400
Y12.37 F37.5
X15.754 F400
G3 X15.999 Y12.615 I0 J0.245
G1 Y13.17
Y13.22 F37.5
X16.859 F400
X16.909 F37.5
Y7.91 F400
Y7.86 F37.5
X16.049 F400
X15.999 F37.5
Y8.465 F400
G3 X15.754 Y8.71 I-0.245 J0
G1 X14.292
X14.242 F37.5
Y11.8025 F400
X14.2423 Y11.8064 Z0.4656 F200
X14.2432 Y11.8101 Z0.4662
X14.2445 Y11.8134 Z0.468
X14.2462 Y11.8164 Z0.4698
X14.2479 Y11.8186 Z0.4725
X14.2498 Y11.8206 Z0.4753
X14.2525 Y11.8229 Z0.4823
X14.2535 Y11.8236 Z0.49
G0 Z0.99
X15.5506 Y10.0382
G1 Z0.59 F15
X15.5494 Y10.0385 Z0.5824
X15.5461 Y10.0393 Z0.5756
X15.541 Y10.0407 Z0.5701
X15.5346 Y10.0428 Z0.5664
X15.5277 Y10.0457 Z0.565
G2 X15.6233 Y10.2629 Z0.552 I0.0478 J0.1086
X15.5277 Y10.0457 Z0.5389 I-0.0478 J-0.1086
X15.6233 Y10.2629 Z0.5259 I0.0478 J0.1086
X15.5277 Y10.0457 Z0.5129 I-0.0478 J-0.1086
X15.6233 Y10.2629 Z0.4999 I0.0478 J0.1086
X15.5277 Y10.0457 Z0.4868 I-0.0478 J-0.1086
X15.6233 Y10.2629 Z0.4738 I0.0478 J0.1086
X15.5277 Y10.0457 Z0.4608 I-0.0478 J-0.1086
X15.6233 Y10.2629 Z0.4478 I0.0478 J0.1086
X15.5277 Y10.0457 Z0.4347 I-0.0478 J-0.1086
X15.6233 Y10.2629 Z0.4217 I0.0478 J0.1086
X15.5277 Y10.0457 Z0.4087 I-0.0478 J-0.1086
X15.6233 Y10.2629 Z0.3956 I0.0478 J0.1086
X15.5277 Y10.0457 Z0.3826 I-0.0478 J-0.1086
X15.6233 Y10.2629 Z0.3696 I0.0478 J0.1086
X15.5277 Y10.0457 Z0.3566 I-0.0478 J-0.1086
X15.6233 Y10.2629 Z0.3435 I0.0478 J0.1086
X15.5277 Y10.0457 Z0.3305 I-0.0478 J-0.1086
X15.6233 Y10.2629 Z0.3175 I0.0478 J0.1086
X15.5277 Y10.0457 Z0.3044 I-0.0478 J-0.1086
X15.6233 Y10.2629 Z0.2914 I0.0478 J0.1086
X15.5277 Y10.0457 Z0.2784 I-0.0478 J-0.1086
X15.6233 Y10.2629 Z0.2654 I0.0478 J0.1086
X15.5277 Y10.0457 Z0.2523 I-0.0478 J-0.1086
X15.6233 Y10.2629 Z0.2393 I0.0478 J0.1086
X15.5755 Y10.0356 Z0.228 I-0.0478 J-0.1086
G1 X15.5746 F37.5
G2 X15.5676 Y10.0426 I0 J0.007
G1 Y10.9874 F150
Y11.0374 F37.5
G2 X15.5746 Y11.0444 I0.007 J0
G1 X15.5764
G2 X15.5834 Y11.0374 I0 J-0.007
G1 Y10.0926 F150
Y10.0426 F37.5
G2 X15.5764 Y10.0356 I-0.007 J0
G1 X15.5755 F150
G3 X15.499 Y10.0025 I0 J-0.1049 F200
G2 X15.4216 Y10.0332 I-0.0326 J0.0307
G1 Y11.1776 F150
G2 X15.4344 Y11.1904 I0.0128 J0
G1 X15.7167
G2 X15.7295 Y11.1776 I0 J-0.0128
G1 X15.7294 Y9.9024
G2 X15.7167 Y9.8897 I-0.0127 J0
G1 X15.4344 Y9.8896
G2 X15.4216 Y9.9024 I0 J0.0128
G1 Y10.0332
G3 X15.3486 Y10.1427 I-0.1186 J0 F200
G2 X15.2756 Y10.2522 I0.0456 J0.1095
G1 Y11.3236 F150
G2 X15.2884 Y11.3364 I0.0128 J0
G1 X15.754 Y11.3346
G3 X15.8097 Y11.3367 I0 J0.7348
G1 X15.8154 Y11.3372
G3 X15.8652 Y11.3413 I-0.3811 J4.9404 F37.5
G2 X15.8754 Y11.3319 I0.0008 J-0.0094
G1 Y9.7981 F150
Y9.7481 F37.5
G2 X15.8652 Y9.7387 I-0.0094 J0
G3 X15.8097 Y9.7432 I-0.4309 J-4.9363 F150
X15.754 Y9.7453 I-0.0557 J-0.7326
G1 X15.2884 Y9.7436
G2 X15.2756 Y9.7564 I0 J0.0128
G1 Y10.2522
G3 X15.2026 Y10.3617 I-0.1186 J0 F200
G2 X15.1296 Y10.4712 I0.0456 J0.1095
G1 Y11.4696 F150
G2 X15.1424 Y11.4824 I0.0128 J0
G1 X15.754 Y11.4806
G3 X15.8828 Y11.4888 I0 J1.0106
X15.961 Y11.5013 I-0.1645 J1.2801
X16.0099 Y11.5116 I-0.2427 J1.2676 F37.5
G2 X16.0213 Y11.5025 I0.0021 J-0.0091
G1 X16.0214 Y9.6275 F150
Y9.5775 F37.5
G2 X16.0099 Y9.5683 I-0.0094 J0
G3 X15.8828 Y9.5911 I-0.2916 J-1.2572 F150
X15.754 Y9.5993 I-0.1288 J-1.0023
G1 X15.1424 Y9.5976
G2 X15.1296 Y9.6104 I0 J0.0128
G1 Y10.4712
G3 X15.0566 Y10.5807 I-0.1186 J0 F200
G2 X14.9836 Y10.6902 I0.0456 J0.1095
G1 Y11.6156 F150
G2 X14.9964 Y11.6284 I0.0128 J0
G1 X15.754 Y11.6266
G3 X15.9604 Y11.6493 I0 J0.9493
X16.1115 Y11.6954 I-0.2237 J1.0044
X16.1576 Y11.7147 I-0.3748 J0.9583 F37.5
G2 X16.1674 Y11.7083 I0.0028 J-0.0064
G1 Y9.4217 F150
Y9.3717 F37.5
G2 X16.1576 Y9.3653 I-0.007 J0
G3 X15.9604 Y9.4307 I-0.4209 J-0.939 F150
X15.754 Y9.4534 I-0.2064 J-0.9266
G1 X14.9964 Y9.4516
G2 X14.9836 Y9.4644 I0 J0.0128
G1 Y10.6902
G3 X14.9106 Y10.7997 I-0.1186 J0 F200
G2 X14.8376 Y10.9092 I0.0456 J0.1095
G1 Y11.7616 F150
G2 X14.8504 Y11.7744 I0.0128 J0
G1 X15.754 Y11.7726
G3 X16.0481 Y11.8266 I0 J0.8284
X16.2661 Y11.9484 I-0.3036 J0.7993
X16.3048 Y11.98 I-0.5216 J0.6775 F37.5
G1 X16.3063 Y11.9809
X16.3079 Y11.9813
X16.3096 Y11.9811
X16.3111 Y11.9804
X16.3124 Y11.9792
X16.3132 Y11.9777
X16.3134 Y11.9761
Y9.1539 F150
Y9.1039 F37.5
X16.3132 Y9.1023
X16.3124 Y9.1008
X16.3111 Y9.0996
X16.3096 Y9.0989
X16.3079 Y9.0987
X16.3063 Y9.0991
X16.3048 Y9.1
G3 X16.0481 Y9.2534 I-0.5603 J-0.6459 F150
X15.754 Y9.3074 I-0.2941 J-0.7744
G1 X14.8504 Y9.3056
G2 X14.8376 Y9.3184 I0 J0.0128
G1 Y10.9092
G3 X14.7646 Y11.0187 I-0.1186 J0 F200
G2 X14.6916 Y11.1282 I0.0456 J0.1095
G1 Y11.9076 F150
G2 X14.7044 Y11.9204 I0.0128 J0
G1 X15.754 Y11.9186
G3 X16.4504 Y12.615 I0 J0.6964
X16.4495 Y12.6901 I-3.1341 J0
G2 X16.449 Y12.7152 I3.1332 J0.0751
X16.4486 Y12.7652 I3.1337 J0.05 F37.5
G1 X16.4489 Y12.7668
X16.4496 Y12.7683
X16.4507 Y12.7694
X16.4522 Y12.7702
X16.4538 Y12.7704
X16.4542
X16.4558 Y12.7702
X16.4573 Y12.7694
X16.4584 Y12.7683
X16.4592 Y12.7668
X16.4594 Y12.7652
Y8.3648 F150
Y8.3148 F37.5
X16.4592 Y8.3132
X16.4584 Y8.3117
X16.4573 Y8.3106
X16.4558 Y8.3098
X16.4542 Y8.3096
X16.4538
X16.4522 Y8.3098
X16.4507 Y8.3106
X16.4496 Y8.3117
X16.4489 Y8.3132
X16.4486 Y8.3148
G2 X16.4495 Y8.3899 I3.1341 J0 F150
G3 X16.4504 Y8.465 I-3.1332 J0.0751
X15.754 Y9.1614 I-0.6964 J0
G1 X14.7044 Y9.1596
G2 X14.6916 Y9.1724 I0 J0.0128
G1 Y11.1282
G3 X14.6254 Y11.2275 I-0.1076 J0 F200
G2 X14.5593 Y11.3267 I0.0414 J0.0992
G1 X14.5592 Y12.04 F150
G2 X14.572 Y12.0528 I0.0128 J0
G1 X15.754 Y12.051
G3 X16.318 Y12.615 I0 J0.564
X16.3171 Y12.7525 I-10.5059 J0
G2 X16.3162 Y12.89 I10.505 J0.1375
X16.329 Y12.9028 I0.0128 J0
G1 X16.579
G2 X16.5918 Y12.89 I0 J-0.0128
G1 Y8.19
G2 X16.579 Y8.1772 I-0.0128 J0
G1 X16.329
G2 X16.3162 Y8.19 I0 J0.0128
X16.3171 Y8.3275 I10.5059 J0
G3 X16.318 Y8.465 I-10.505 J0.1375
X15.754 Y9.029 I-0.564 J0
G1 X14.572 Y9.0272
G2 X14.5592 Y9.04 I0 J0.0128
G1 Y11.3267
G3 X14.4862 Y11.4362 I-0.1186 J0 F200
G2 X14.4132 Y11.5457 I0.0456 J0.1095
G1 Y12.186 F150
G2 X14.426 Y12.1988 I0.0128 J0
G1 X15.754 Y12.197
G3 X16.172 Y12.615 I0 J0.418
G1 X16.1702 Y13.036
G2 X16.183 Y13.0488 I0.0128 J0
G1 X16.725
G2 X16.7378 Y13.036 I0 J-0.0128
G1 Y8.044
G2 X16.725 Y8.0312 I-0.0128 J0
G1 X16.183
G2 X16.1702 Y8.044 I0 J0.0128
G1 X16.172 Y8.465
G3 X15.754 Y8.883 I-0.418 J0
G1 X14.426 Y8.8812
G2 X14.4132 Y8.894 I0 J0.0128
G1 Y11.5457
G3 X14.3401 Y11.6554 I-0.1188 J0 F200
G2 X14.2671 Y11.765 I0.0457 J0.1096
G1 X14.267 Y12.295 F150
Y12.345 F37.5
X15.754 F150
G3 X16.024 Y12.615 I0 J0.27
G1 Y13.145
Y13.195 F37.5
X16.834 F150
X16.884 F37.5
Y7.935 F150
Y7.885 F37.5
X16.074 F150
X16.024 F37.5
Y8.465 F150
G3 X15.754 Y8.735 I-0.27 J0
G1 X14.317
X14.267 F37.5
Y11.765 F150
G3 X14.2545 Y11.7837 I-0.0203 J0 F200
G2 X14.2419 Y11.8025 I0.0078 J0.0188
G1 X14.242 Y12.32 F400
Y12.37 F37.5
X15.754 F400
G3 X15.999 Y12.615 I0 J0.245
G1 Y13.17
Y13.22 F37.5
X16.859 F400
X16.909 F37.5
Y7.91 F400
Y7.86 F37.5
X16.049 F400
X15.999 F37.5
Y8.465 F400
G3 X15.754 Y8.71 I-0.245 J0
G1 X14.292
X14.242 F37.5
Y11.8025 F400
X14.2423 Y11.8064 Z0.2286 F200
X14.2432 Y11.8101 Z0.2292
X14.2445 Y11.8134 Z0.231
X14.2462 Y11.8164 Z0.2328
X14.2479 Y11.8186 Z0.2355
X14.2498 Y11.8206 Z0.2383
X14.2525 Y11.8229 Z0.2453
X14.2535 Y11.8236 Z0.253
G0 Z0.99
X15.6821 Y10.102
G1 Z0.353 F15
X15.6816 Y10.1009 Z0.3454
X15.68 Y10.0979 Z0.3386
X15.6774 Y10.0933 Z0.3331
X15.6738 Y10.0876 Z0.3294
X15.6694 Y10.0816 Z0.328
G2 X15.4817 Y10.2271 Z0.315 I-0.0939 J0.0727
X15.6694 Y10.0816 Z0.3019 I0.0938 J-0.0728
X15.4817 Y10.2271 Z0.2889 I-0.0939 J0.0727
X15.6694 Y10.0816 Z0.2759 I0.0938 J-0.0728
X15.4817 Y10.2271 Z0.2629 I-0.0939 J0.0727
X15.6694 Y10.0816 Z0.2498 I0.0938 J-0.0728
X15.4817 Y10.2271 Z0.2368 I-0.0939 J0.0727
X15.6694 Y10.0816 Z0.2238 I0.0938 J-0.0728
X15.5755 Y10.0355 Z0.22 I-0.0939 J0.0727
G1 X15.5746 Y10.0356 F37.5
G2 X15.5676 Y10.0426 I0 J0.007
G1 Y10.9874 F150
Y11.0374 F37.5
G2 X15.5746 Y11.0444 I0.007 J0
G1 X15.5764
G2 X15.5834 Y11.0374 I0 J-0.007
G1 Y10.0926 F150
Y10.0426 F37.5
G2 X15.5764 Y10.0356 I-0.007 J0
G1 X15.5755 F150
G3 X15.499 Y10.0025 I0 J-0.1049 F200
G2 X15.4216 Y10.0332 I-0.0326 J0.0307
G1 Y11.1776 F150
G2 X15.4344 Y11.1904 I0.0128 J0
G1 X15.7167
G2 X15.7295 Y11.1776 I0 J-0.0128
G1 X15.7294 Y9.9024
G2 X15.7167 Y9.8897 I-0.0127 J0
G1 X15.4344 Y9.8896
G2 X15.4216 Y9.9024 I0 J0.0128
G1 Y10.0332
G3 X15.3486 Y10.1427 I-0.1186 J0 F200
G2 X15.2756 Y10.2522 I0.0456 J0.1095
G1 Y11.3236 F150
G2 X15.2884 Y11.3364 I0.0128 J0
G1 X15.754 Y11.3346
G3 X15.8097 Y11.3367 I0 J0.7348
G1 X15.8154 Y11.3372
G3 X15.8652 Y11.3413 I-0.3811 J4.9404 F37.5
G2 X15.8754 Y11.3319 I0.0008 J-0.0094
G1 Y9.7981 F150
Y9.7481 F37.5
G2 X15.8652 Y9.7387 I-0.0094 J0
G3 X15.8097 Y9.7432 I-0.4309 J-4.9363 F150
X15.754 Y9.7453 I-0.0557 J-0.7326
G1 X15.2884 Y9.7436
G2 X15.2756 Y9.7564 I0 J0.0128
G1 Y10.2522
G3 X15.2026 Y10.3617 I-0.1186 J0 F200
G2 X15.1296 Y10.4712 I0.0456 J0.1095
G1 Y11.4696 F150
G2 X15.1424 Y11.4824 I0.0128 J0
G1 X15.754 Y11.4806
G3 X15.8828 Y11.4888 I0 J1.0106
X15.961 Y11.5013 I-0.1645 J1.2801
X16.0099 Y11.5116 I-0.2427 J1.2676 F37.5
G2 X16.0213 Y11.5025 I0.0021 J-0.0091
G1 X16.0214 Y9.6275 F150
Y9.5775 F37.5
G2 X16.0099 Y9.5683 I-0.0094 J0
G3 X15.8828 Y9.5911 I-0.2916 J-1.2572 F150
X15.754 Y9.5993 I-0.1288 J-1.0023
G1 X15.1424 Y9.5976
G2 X15.1296 Y9.6104 I0 J0.0128
G1 Y10.4712
G3 X15.0566 Y10.5807 I-0.1186 J0 F200
G2 X14.9836 Y10.6902 I0.0456 J0.1095
G1 Y11.6156 F150
G2 X14.9964 Y11.6284 I0.0128 J0
G1 X15.754 Y11.6266
G3 X15.9604 Y11.6493 I0 J0.9493
X16.1115 Y11.6954 I-0.2237 J1.0044
X16.1576 Y11.7147 I-0.3748 J0.9583 F37.5
G2 X16.1674 Y11.7083 I0.0028 J-0.0064
G1 Y9.4217 F150
Y9.3717 F37.5
G2 X16.1576 Y9.3653 I-0.007 J0
G3 X15.9604 Y9.4307 I-0.4209 J-0.939 F150
X15.754 Y9.4534 I-0.2064 J-0.9266
G1 X14.9964 Y9.4516
G2 X14.9836 Y9.4644 I0 J0.0128
G1 Y10.6902
G3 X14.9106 Y10.7997 I-0.1186 J0 F200
G2 X14.8376 Y10.9092 I0.0456 J0.1095
G1 Y11.7616 F150
G2 X14.8504 Y11.7744 I0.0128 J0
G1 X15.754 Y11.7726
G3 X16.0481 Y11.8266 I0 J0.8284
X16.2661 Y11.9484 I-0.3036 J0.7993
X16.3048 Y11.98 I-0.5216 J0.6775 F37.5
G1 X16.3063 Y11.9809
X16.3079 Y11.9813
X16.3096 Y11.9811
X16.3111 Y11.9804
X16.3124 Y11.9792
X16.3132 Y11.9777
X16.3134 Y11.9761
Y9.1539 F150
Y9.1039 F37.5
X16.3132 Y9.1023
X16.3124 Y9.1008
X16.3111 Y9.0996
X16.3096 Y9.0989
X16.3079 Y9.0987
X16.3063 Y9.0991
X16.3048 Y9.1
G3 X16.0481 Y9.2534 I-0.5603 J-0.6459 F150
X15.754 Y9.3074 I-0.2941 J-0.7744
G1 X14.8504 Y9.3056
G2 X14.8376 Y9.3184 I0 J0.0128
G1 Y10.9092
G3 X14.7646 Y11.0187 I-0.1186 J0 F200
G2 X14.6916 Y11.1282 I0.0456 J0.1095
G1 Y11.9076 F150
G2 X14.7044 Y11.9204 I0.0128 J0
G1 X15.754 Y11.9186
G3 X16.4504 Y12.615 I0 J0.6964
X16.4495 Y12.6901 I-3.1341 J0
G2 X16.449 Y12.7152 I3.1332 J0.0751
X16.4486 Y12.7652 I3.1337 J0.05 F37.5
G1 X16.4489 Y12.7668
X16.4496 Y12.7683
X16.4507 Y12.7694
X16.4522 Y12.7702
X16.4538 Y12.7704
X16.4542
X16.4558 Y12.7702
X16.4573 Y12.7694
X16.4584 Y12.7683
X16.4592 Y12.7668
X16.4594 Y12.7652
Y8.3648 F150
Y8.3148 F37.5
X16.4592 Y8.3132
X16.4584 Y8.3117
X16.4573 Y8.3106
X16.4558 Y8.3098
X16.4542 Y8.3096
X16.4538
X16.4522 Y8.3098
X16.4507 Y8.3106
X16.4496 Y8.3117
X16.4489 Y8.3132
X16.4486 Y8.3148
G2 X16.4495 Y8.3899 I3.1341 J0 F150
G3 X16.4504 Y8.465 I-3.1332 J0.0751
X15.754 Y9.1614 I-0.6964 J0
G1 X14.7044 Y9.1596
G2 X14.6916 Y9.1724 I0 J0.0128
G1 Y11.1282
G3 X14.6254 Y11.2275 I-0.1076 J0 F200
G2 X14.5593 Y11.3267 I0.0414 J0.0992
G1 X14.5592 Y12.04 F150
G2 X14.572 Y12.0528 I0.0128 J0
G1 X15.754 Y12.051
G3 X16.318 Y12.615 I0 J0.564
X16.3171 Y12.7525 I-10.5059 J0
G2 X16.3162 Y12.89 I10.505 J0.1375
X16.329 Y12.9028 I0.0128 J0
G1 X16.579
G2 X16.5918 Y12.89 I0 J-0.0128
G1 Y8.19
G2 X16.579 Y8.1772 I-0.0128 J0
G1 X16.329
G2 X16.3162 Y8.19 I0 J0.0128
X16.3171 Y8.3275 I10.5059 J0
G3 X16.318 Y8.465 I-10.505 J0.1375
X15.754 Y9.029 I-0.564 J0
G1 X14.572 Y9.0272
G2 X14.5592 Y9.04 I0 J0.0128
G1 Y11.3267
G3 X14.4862 Y11.4362 I-0.1186 J0 F200
G2 X14.4132 Y11.5457 I0.0456 J0.1095
G1 Y12.186 F150
G2 X14.426 Y12.1988 I0.0128 J0
G1 X15.754 Y12.197
G3 X16.172 Y12.615 I0 J0.418
G1 X16.1702 Y13.036
G2 X16.183 Y13.0488 I0.0128 J0
G1 X16.725
G2 X16.7378 Y13.036 I0 J-0.0128
G1 Y8.044
G2 X16.725 Y8.0312 I-0.0128 J0
G1 X16.183
G2 X16.1702 Y8.044 I0 J0.0128
G1 X16.172 Y8.465
G3 X15.754 Y8.883 I-0.418 J0
G1 X14.426 Y8.8812
G2 X14.4132 Y8.894 I0 J0.0128
G1 Y11.5457
G3 X14.3401 Y11.6554 I-0.1188 J0 F200
G2 X14.2671 Y11.765 I0.0457 J0.1096
G1 X14.267 Y12.295 F150
Y12.345 F37.5
X15.754 F150
G3 X16.024 Y12.615 I0 J0.27
G1 Y13.145
Y13.195 F37.5
X16.834 F150
X16.884 F37.5
Y7.935 F150
Y7.885 F37.5
X16.074 F150
X16.024 F37.5
Y8.465 F150
G3 X15.754 Y8.735 I-0.27 J0
G1 X14.317
X14.267 F37.5
Y11.765 F150
G3 X14.2545 Y11.7837 I-0.0203 J0 F200
G2 X14.2419 Y11.8025 I0.0078 J0.0188
G1 X14.242 Y12.32 F400
Y12.37 F37.5
X15.754 F400
G3 X15.999 Y12.615 I0 J0.245
G1 Y13.17
Y13.22 F37.5
X16.859 F400
X16.909 F37.5
Y7.91 F400
Y7.86 F37.5
X16.049 F400
X15.999 F37.5
Y8.465 F400
G3 X15.754 Y8.71 I-0.245 J0
G1 X14.292
X14.242 F37.5
Y11.8025 F400
X14.2423 Y11.8064 Z0.2206 F200
X14.2432 Y11.8101 Z0.2212
X14.2445 Y11.8134 Z0.223
X14.2462 Y11.8164 Z0.2248
X14.2479 Y11.8186 Z0.2275
X14.2498 Y11.8206 Z0.2303
X14.2525 Y11.8229 Z0.2373
X14.2535 Y11.8236 Z0.245
G0 Z0.99
X12.7817 Y15.2183
G1 Z0.915 F15
X12.7818 Y15.2171 Z0.9074
X12.782 Y15.2137 Z0.9006
Y15.2084 Z0.8951
X12.7817 Y15.2017 Z0.8914
X12.7809 Y15.1942 Z0.89
G2 X12.5455 Y15.2269 Z0.877 I-0.1177 J0.0163
X12.7809 Y15.1942 Z0.8639 I0.1177 J-0.0164
X12.5455 Y15.2269 Z0.8509 I-0.1177 J0.0163
X12.7809 Y15.1942 Z0.8379 I0.1177 J-0.0164
X12.5455 Y15.2269 Z0.8249 I-0.1177 J0.0163
X12.7809 Y15.1942 Z0.8118 I0.1177 J-0.0164
X12.5455 Y15.2269 Z0.7988 I-0.1177 J0.0163
X12.7809 Y15.1942 Z0.7858 I0.1177 J-0.0164
X12.5455 Y15.2269 Z0.7728 I-0.1177 J0.0163
X12.7809 Y15.1942 Z0.7597 I0.1177 J-0.0164
X12.5455 Y15.2269 Z0.7467 I-0.1177 J0.0163
X12.7809 Y15.1942 Z0.7337 I0.1177 J-0.0164
X12.5455 Y15.2269 Z0.7206 I-0.1177 J0.0163
X12.7809 Y15.1942 Z0.7076 I0.1177 J-0.0164
X12.5455 Y15.2269 Z0.6946 I-0.1177 J0.0163
X12.7809 Y15.1942 Z0.6816 I0.1177 J-0.0164
X12.5455 Y15.2269 Z0.6685 I-0.1177 J0.0163
X12.7809 Y15.1942 Z0.6555 I0.1177 J-0.0164
X12.5455 Y15.2269 Z0.6425 I-0.1177 J0.0163
X12.7809 Y15.1942 Z0.6294 I0.1177 J-0.0164
X12.5455 Y15.2269 Z0.6164 I-0.1177 J0.0163
X12.7809 Y15.1942 Z0.6034 I0.1177 J-0.0164
X12.5455 Y15.2269 Z0.5904 I-0.1177 J0.0163
X12.7809 Y15.1942 Z0.5773 I0.1177 J-0.0164
X12.5455 Y15.2269 Z0.5643 I-0.1177 J0.0163
X12.7809 Y15.1942 Z0.5513 I0.1177 J-0.0164
X12.5455 Y15.2269 Z0.5383 I-0.1177 J0.0163
X12.7809 Y15.1942 Z0.5252 I0.1177 J-0.0164
X12.5455 Y15.2269 Z0.5122 I-0.1177 J0.0163
X12.7809 Y15.1942 Z0.4992 I0.1177 J-0.0164
X12.5455 Y15.2269 Z0.4861 I-0.1177 J0.0163
X12.7809 Y15.1942 Z0.4731 I0.1177 J-0.0164
X12.6038 Y15.1076 Z0.465 I-0.1177 J0.0163
G1 X12.5735 Y15.1252 F150
G2 X12.5688 Y15.1427 I0.0064 J0.0111
G1 X12.6039 Y15.2034
G2 X12.6214 Y15.2081 I0.0111 J-0.0064
G1 X13.542 Y14.6765
G2 X13.5467 Y14.659 I-0.0064 J-0.0111
G1 X13.5116 Y14.5984
G2 X13.4942 Y14.5938 I-0.011 J0.0064
G1 X12.6039 Y15.1077
G3 X12.4969 Y15.0987 I-0.047 J-0.0814 F200
G2 X12.4149 Y15.168 I-0.0348 J0.042
G1 X12.5505 Y15.4029 F150
G2 X12.5678 Y15.4076 I0.011 J-0.0063
G1 X13.7416 Y14.7299
G2 X13.7462 Y14.7126 I-0.0064 J-0.011
G1 X13.5651 Y14.3989
G2 X13.5476 Y14.3942 I-0.0111 J0.0064
G1 X12.3741 Y15.0718
G2 X12.3695 Y15.0892 I0.0064 J0.011
G1 X12.4149 Y15.168
G3 X12.4067 Y15.2983 I-0.1024 J0.059 F200
G2 X12.3986 Y15.4288 I0.0936 J0.0713
G1 X12.4243 Y15.4728 F150
G3 X12.4593 Y15.5398 I-0.7724 J0.4459
X12.47 Y15.563 I-1.8399 J0.8634
X12.4901 Y15.6088 I-1.8506 J0.8402 F37.5
G2 X12.5035 Y15.6133 I0.0087 J-0.0037
G1 X13.9085 Y14.8021 F150
X13.9518 Y14.7771 F37.5
G2 X13.9547 Y14.7632 I-0.0047 J-0.0082
G3 X13.9103 Y14.702 I1.622 J-1.2218 F150
X13.8697 Y14.6382 I0.7322 J-0.51
G1 X13.6185 Y14.1995
G2 X13.601 Y14.1948 I-0.0111 J0.0064
G1 X12.1747 Y15.0183
G2 X12.17 Y15.0358 I0.0063 J0.0111
G1 X12.3987 Y15.4287
G3 X12.3898 Y15.564 I-0.1048 J0.061 F200
G2 X12.3696 Y15.698 I0.1101 J0.0851
G3 X12.3954 Y15.7745 I-1.1218 J0.421 F150
X12.4088 Y15.8227 I-1.1476 J0.3445 F37.5
G2 X12.4226 Y15.8285 I0.0091 J-0.0023
G1 X14.1354 Y14.8396 F150
X14.1787 Y14.8146 F37.5
G2 X14.1805 Y14.7998 I-0.0047 J-0.0081
G3 X14.0802 Y14.6889 I0.8371 J-0.8572 F150
X13.996 Y14.5653 I0.7872 J-0.6267
G1 X13.6719 Y14.0001
G2 X13.6545 Y13.9954 I-0.011 J0.0063
G1 X11.9752 Y14.9649
G2 X11.9705 Y14.9824 I0.0064 J0.0111
G1 X12.2979 Y15.5458
G3 X12.3628 Y15.6804 I-0.8712 J0.5029
G1 X12.3696 Y15.698
G3 X12.3358 Y15.8312 I-0.1126 J0.0423 F200
G2 X12.2875 Y15.9597 I0.0942 J0.1087
G3 X12.293 Y16.0084 I-0.969 J0.1344 F150
X12.2961 Y16.0583 I-0.9745 J0.0857 F37.5
G2 X12.3066 Y16.0641 I0.007 J-0.0003
G1 X14.3974 Y14.8569 F150
X14.4407 Y14.8319 F37.5
G2 X14.4409 Y14.82 I-0.0035 J-0.006
G3 X14.2617 Y14.6756 I0.5198 J-0.8287 F150
X14.1225 Y14.4922 I0.6567 J-0.6429
G1 X13.7254 Y13.8006
G2 X13.7079 Y13.7959 I-0.0111 J0.0064
G1 X11.7758 Y14.9115
G2 X11.7712 Y14.9289 I0.0064 J0.011
G1 X12.1715 Y15.6187
G3 X12.2607 Y15.8309 I-0.7959 J0.4594
X12.2875 Y15.9597 I-0.9422 J0.2632
X12.2238 Y16.083 I-0.1193 J0.0165 F200
G2 X12.144 Y16.1967 I0.0695 J0.1336
G3 X12.1271 Y16.2857 I-0.804 J-0.1069 F150
X12.1135 Y16.3339 I-0.7871 J-0.1959 F37.5
G1 X12.1134 Y16.3356
X12.1137 Y16.3373
X12.1146 Y16.3388
X12.116 Y16.3399
X12.1176 Y16.3404
X12.1194
X12.121 Y16.3398
X14.729 Y14.8341 F150
X14.7723 Y14.8091 F37.5
X14.7736 Y14.808
X14.7745 Y14.8065
X14.7749 Y14.8048
X14.7746 Y14.8031
X14.7738 Y14.8015
X14.7725 Y14.8004
X14.7709 Y14.7997
G3 X14.2491 Y14.4192 I0.1743 J-0.7871 F150
G1 X13.7787 Y13.601
G2 X13.7616 Y13.5963 I-0.0109 J0.0062
G1 X11.5761 Y14.8582
G2 X11.5716 Y14.8752 I0.0063 J0.0108
G1 X12.045 Y15.6918
G3 X12.1468 Y16.0056 I-0.6861 J0.396
X12.1441 Y16.1967 I-0.8068 J0.0842
X12.0489 Y16.2987 I-0.1193 J-0.0159 F200
G2 X11.9383 Y16.384 I0.032 J0.1558
G3 X11.6782 Y16.6614 I-0.5883 J-0.291 F150
X11.5987 Y16.7063 I-2.3178 J-4.0146
G2 X11.5192 Y16.7512 I2.2356 J4.0548
X11.5145 Y16.7687 I0.0064 J0.0111
G1 X11.5471 Y16.8251
G2 X11.5646 Y16.8298 I0.0111 J-0.0064
G1 X15.4748 Y14.5722
G2 X15.4795 Y14.5547 I-0.0064 J-0.0111
G1 X15.4469 Y14.4983
G2 X15.4294 Y14.4936 I-0.0111 J0.0064
X15.3508 Y14.54 I2.315 J4.0097
G3 X15.2722 Y14.5864 I-2.3792 J-3.9388
X14.3756 Y14.3461 I-0.3282 J-0.5684
G1 X13.8323 Y13.4017
G2 X13.8148 Y13.397 I-0.0111 J0.0064
G1 X11.3768 Y14.8046
G2 X11.3722 Y14.822 I0.0064 J0.011
G1 X11.9185 Y15.7648
G3 X11.9384 Y16.384 I-0.5685 J0.3282
X11.8612 Y16.4262 I-0.0687 J-0.0339 F200
G2 X11.7795 Y16.4586 I-0.0104 J0.0931
G3 X11.632 Y16.5815 I-0.4295 J-0.3656 F150
X11.5125 Y16.6495 I-5.2633 J-9.1167
G2 X11.393 Y16.7175 I5.1336 J9.1666
X11.3884 Y16.7347 I0.0063 J0.0109
G1 X11.5133 Y16.9514
G2 X11.5307 Y16.956 I0.011 J-0.0064
G1 X15.6011 Y14.606
G2 X15.6058 Y14.5885 I-0.0064 J-0.0111
G1 X15.4807 Y14.372
G2 X15.4633 Y14.3674 I-0.011 J0.0064
X15.3447 Y14.4369 I5.2527 J9.098
G3 X15.226 Y14.5065 I-5.3228 J-8.9454
X14.4555 Y14.3 I-0.282 J-0.4885
G1 X13.8661 Y13.2754
G2 X13.8486 Y13.2707 I-0.0111 J0.0064
G1 X11.2505 Y14.7707
G2 X11.2458 Y14.7882 I0.0064 J0.0111
G1 X11.8385 Y15.811
G3 X11.7795 Y16.4586 I-0.4885 J0.282
X11.6377 Y16.4881 I-0.0899 J-0.0766 F200
G2 X11.493 Y16.4927 I-0.068 J0.1389
G1 X11.1935 Y16.6639 F150
G2 X11.1888 Y16.6814 I0.0064 J0.0111
G1 X11.4598 Y17.1508
G2 X11.4773 Y17.1555 I0.0111 J-0.0064
G1 X15.8005 Y14.6594
G2 X15.8051 Y14.642 I-0.0064 J-0.011
G1 X15.5342 Y14.1726
G2 X15.5167 Y14.1679 I-0.0111 J0.0064
G1 X15.153 Y14.38
G3 X14.582 Y14.227 I-0.209 J-0.362
G1 X13.9195 Y13.0759
G2 X13.9021 Y13.0713 I-0.011 J0.0064
G1 X11.0511 Y14.7173
G2 X11.0464 Y14.7348 I0.0064 J0.0111
G1 X11.712 Y15.884
G3 X11.559 Y16.455 I-0.362 J0.209
G1 X11.493 Y16.4927
G3 X11.3604 Y16.484 I-0.0597 J-0.1044 F200
G2 X11.2278 Y16.4753 I-0.0728 J0.0948
G1 X11.026 Y16.5918 F150
X10.9827 Y16.6168 F37.5
X11.3877 Y17.3183 F150
X11.4127 Y17.3616 F37.5
X15.509 Y14.9966 F150
X15.968 Y14.7316
X16.0113 Y14.7066 F37.5
X15.6063 Y14.0051 F150
X15.5813 Y13.9618 F37.5
X15.079 Y14.2518 F150
G3 X14.7102 Y14.153 I-0.135 J-0.2338
G1 X13.9917 Y12.9085
X13.9667 Y12.8652 F37.5
X10.8836 Y14.6452 F150
X10.8403 Y14.6702 F37.5
X11.5838 Y15.958 F150
G3 X11.485 Y16.3268 I-0.2338 J0.135
G1 X11.2278 Y16.4753
G3 X11.2054 Y16.4738 I-0.0101 J-0.0176 F200
G2 X11.1828 Y16.4723 I-0.0124 J0.0162
G1 X10.9918 Y16.5826 F400
X10.9485 Y16.6076 F37.5
X11.3785 Y17.3524 F400
X11.4035 Y17.3957 F37.5
X16.0021 Y14.7407 F400
X16.0454 Y14.7157 F37.5
X15.6154 Y13.971 F400
X15.5904 Y13.9277 F37.5
X15.0665 Y14.2301 F400
G3 X14.7319 Y14.1404 I-0.1225 J-0.2121
G1 X14.0008 Y12.8743
X13.9758 Y12.831 F37.5
X10.8495 Y14.636 F400
X10.8062 Y14.661 F37.5
X11.5622 Y15.9705 F400
G3 X11.4725 Y16.3052 I-0.2122 J0.1225
G1 X11.1829 Y16.4724
X11.1797 Y16.4745 Z0.4656 F200
X11.1769 Y16.4772 Z0.4662
X11.1747 Y16.4799 Z0.468
X11.173 Y16.4829 Z0.4698
X11.1719 Y16.4855 Z0.4725
X11.1711 Y16.4881 Z0.4753
X11.1705 Y16.4916 Z0.4823
X11.1704 Y16.4928 Z0.49
G0 Z0.99
X12.5836 Y15.1225
G1 Z0.59 F15
X12.5827 Y15.1233 Z0.5824
X12.5803 Y15.1256 Z0.5756
X12.5766 Y15.1294 Z0.5701
X12.5721 Y15.1344 Z0.5664
X12.5675 Y15.1403 Z0.565
G2 X12.7589 Y15.2807 Z0.552 I0.0957 J0.0702
X12.5675 Y15.1403 Z0.5389 I-0.0957 J-0.0702
X12.7589 Y15.2807 Z0.5259 I0.0957 J0.0702
X12.5675 Y15.1403 Z0.5129 I-0.0957 J-0.0702
X12.7589 Y15.2807 Z0.4999 I0.0957 J0.0702
X12.5675 Y15.1403 Z0.4868 I-0.0957 J-0.0702
X12.7589 Y15.2807 Z0.4738 I0.0957 J0.0702
X12.5675 Y15.1403 Z0.4608 I-0.0957 J-0.0702
X12.7589 Y15.2807 Z0.4478 I0.0957 J0.0702
X12.5675 Y15.1403 Z0.4347 I-0.0957 J-0.0702
X12.7589 Y15.2807 Z0.4217 I0.0957 J0.0702
X12.5675 Y15.1403 Z0.4087 I-0.0957 J-0.0702
X12.7589 Y15.2807 Z0.3956 I0.0957 J0.0702
X12.5675 Y15.1403 Z0.3826 I-0.0957 J-0.0702
X12.7589 Y15.2807 Z0.3696 I0.0957 J0.0702
X12.5675 Y15.1403 Z0.3566 I-0.0957 J-0.0702
X12.7589 Y15.2807 Z0.3435 I0.0957 J0.0702
X12.5675 Y15.1403 Z0.3305 I-0.0957 J-0.0702
X12.7589 Y15.2807 Z0.3175 I0.0957 J0.0702
X12.5675 Y15.1403 Z0.3044 I-0.0957 J-0.0702
X12.7589 Y15.2807 Z0.2914 I0.0957 J0.0702
X12.5675 Y15.1403 Z0.2784 I-0.0957 J-0.0702
X12.7589 Y15.2807 Z0.2654 I0.0957 J0.0702
X12.5675 Y15.1403 Z0.2523 I-0.0957 J-0.0702
X12.7589 Y15.2807 Z0.2393 I0.0957 J0.0702
X12.6039 Y15.1077 Z0.228 I-0.0957 J-0.0702
G1 X12.5735 Y15.1252 F150
G2 X12.5688 Y15.1427 I0.0064 J0.0111
G1 X12.6039 Y15.2034
G2 X12.6214 Y15.2081 I0.0111 J-0.0064
G1 X13.542 Y14.6765
G2 X13.5467 Y14.659 I-0.0064 J-0.0111
G1 X13.5116 Y14.5984
G2 X13.4942 Y14.5938 I-0.011 J0.0064
G1 X12.6039 Y15.1077
G3 X12.4969 Y15.0987 I-0.047 J-0.0814 F200
G2 X12.4149 Y15.168 I-0.0348 J0.042
G1 X12.5505 Y15.4029 F150
G2 X12.5678 Y15.4076 I0.011 J-0.0063
G1 X13.7416 Y14.7299
G2 X13.7462 Y14.7126 I-0.0064 J-0.011
G1 X13.5651 Y14.3989
G2 X13.5476 Y14.3942 I-0.0111 J0.0064
G1 X12.3741 Y15.0718
G2 X12.3695 Y15.0892 I0.0064 J0.011
G1 X12.4149 Y15.168
G3 X12.4067 Y15.2983 I-0.1024 J0.059 F200
G2 X12.3986 Y15.4288 I0.0936 J0.0713
G1 X12.4243 Y15.4728 F150
G3 X12.4593 Y15.5398 I-0.7724 J0.4459
X12.47 Y15.563 I-1.8399 J0.8634
X12.4901 Y15.6088 I-1.8506 J0.8402 F37.5
G2 X12.5035 Y15.6133 I0.0087 J-0.0037
G1 X13.9085 Y14.8021 F150
X13.9518 Y14.7771 F37.5
G2 X13.9547 Y14.7632 I-0.0047 J-0.0082
G3 X13.9103 Y14.702 I1.622 J-1.2218 F150
X13.8697 Y14.6382 I0.7322 J-0.51
G1 X13.6185 Y14.1995
G2 X13.601 Y14.1948 I-0.0111 J0.0064
G1 X12.1747 Y15.0183
G2 X12.17 Y15.0358 I0.0063 J0.0111
G1 X12.3987 Y15.4287
G3 X12.3898 Y15.564 I-0.1048 J0.061 F200
G2 X12.3696 Y15.698 I0.1101 J0.0851
G3 X12.3954 Y15.7745 I-1.1218 J0.421 F150
X12.4088 Y15.8227 I-1.1476 J0.3445 F37.5
G2 X12.4226 Y15.8285 I0.0091 J-0.0023
G1 X14.1354 Y14.8396 F150
X14.1787 Y14.8146 F37.5
G2 X14.1805 Y14.7998 I-0.0047 J-0.0081
G3 X14.0802 Y14.6889 I0.8371 J-0.8572 F150
X13.996 Y14.5653 I0.7872 J-0.6267
G1 X13.6719 Y14.0001
G2 X13.6545 Y13.9954 I-0.011 J0.0063
G1 X11.9752 Y14.9649
G2 X11.9705 Y14.9824 I0.0064 J0.0111
G1 X12.2979 Y15.5458
G3 X12.3628 Y15.6804 I-0.8712 J0.5029
G1 X12.3696 Y15.698
G3 X12.3358 Y15.8312 I-0.1126 J0.0423 F200
G2 X12.2875 Y15.9597 I0.0942 J0.1087
G3 X12.293 Y16.0084 I-0.969 J0.1344 F150
X12.2961 Y16.0583 I-0.9745 J0.0857 F37.5
G2 X12.3066 Y16.0641 I0.007 J-0.0003
G1 X14.3974 Y14.8569 F150
X14.4407 Y14.8319 F37.5
G2 X14.4409 Y14.82 I-0.0035 J-0.006
G3 X14.2617 Y14.6756 I0.5198 J-0.8287 F150
X14.1225 Y14.4922 I0.6567 J-0.6429
G1 X13.7254 Y13.8006
G2 X13.7079 Y13.7959 I-0.0111 J0.0064
G1 X11.7758 Y14.9115
G2 X11.7712 Y14.9289 I0.0064 J0.011
G1 X12.1715 Y15.6187
G3 X12.2607 Y15.8309 I-0.7959 J0.4594
X12.2875 Y15.9597 I-0.9422 J0.2632
X12.2238 Y16.083 I-0.1193 J0.0165 F200
G2 X12.144 Y16.1967 I0.0695 J0.1336
G3 X12.1271 Y16.2857 I-0.804 J-0.1069 F150
X12.1135 Y16.3339 I-0.7871 J-0.1959 F37.5
G1 X12.1134 Y16.3356
X12.1137 Y16.3373
X12.1146 Y16.3388
X12.116 Y16.3399
X12.1176 Y16.3404
X12.1194
X12.121 Y16.3398
X14.729 Y14.8341 F150
X14.7723 Y14.8091 F37.5
X14.7736 Y14.808
X14.7745 Y14.8065
X14.7749 Y14.8048
X14.7746 Y14.8031
X14.7738 Y14.8015
X14.7725 Y14.8004
X14.7709 Y14.7997
G3 X14.2491 Y14.4192 I0.1743 J-0.7871 F150
G1 X13.7787 Y13.601
G2 X13.7616 Y13.5963 I-0.0109 J0.0062
G1 X11.5761 Y14.8582
G2 X11.5716 Y14.8752 I0.0063 J0.0108
G1 X12.045 Y15.6918
G3 X12.1468 Y16.0056 I-0.6861 J0.396
X12.1441 Y16.1967 I-0.8068 J0.0842
X12.0489 Y16.2987 I-0.1193 J-0.0159 F200
G2 X11.9383 Y16.384 I0.032 J0.1558
G3 X11.6782 Y16.6614 I-0.5883 J-0.291 F150
X11.5987 Y16.7063 I-2.3178 J-4.0146
G2 X11.5192 Y16.7512 I2.2356 J4.0548
X11.5145 Y16.7687 I0.0064 J0.0111
G1 X11.5471 Y16.8251
G2 X11.5646 Y16.8298 I0.0111 J-0.0064
G1 X15.4748 Y14.5722
G2 X15.4795 Y14.5547 I-0.0064 J-0.0111
G1 X15.4469 Y14.4983
G2 X15.4294 Y14.4936 I-0.0111 J0.0064
X15.3508 Y14.54 I2.315 J4.0097
G3 X15.2722 Y14.5864 I-2.3792 J-3.9388
X14.3756 Y14.3461 I-0.3282 J-0.5684
G1 X13.8323 Y13.4017
G2 X13.8148 Y13.397 I-0.0111 J0.0064
G1 X11.3768 Y14.8046
G2 X11.3722 Y14.822 I0.0064 J0.011
G1 X11.9185 Y15.7648
G3 X11.9384 Y16.384 I-0.5685 J0.3282
X11.8612 Y16.4262 I-0.0687 J-0.0339 F200
G2 X11.7795 Y16.4586 I-0.0104 J0.0931
G3 X11.632 Y16.5815 I-0.4295 J-0.3656 F150
X11.5125 Y16.6495 I-5.2633 J-9.1167
G2 X11.393 Y16.7175 I5.1336 J9.1666
X11.3884 Y16.7347 I0.0063 J0.0109
G1 X11.5133 Y16.9514
G2 X11.5307 Y16.956 I0.011 J-0.0064
G1 X15.6011 Y14.606
G2 X15.6058 Y14.5885 I-0.0064 J-0.0111
G1 X15.4807 Y14.372
G2 X15.4633 Y14.3674 I-0.011 J0.0064
X15.3447 Y14.4369 I5.2527 J9.098
G3 X15.226 Y14.5065 I-5.3228 J-8.9454
X14.4555 Y14.3 I-0.282 J-0.4885
G1 X13.8661 Y13.2754
G2 X13.8486 Y13.2707 I-0.0111 J0.0064
G1 X11.2505 Y14.7707
G2 X11.2458 Y14.7882 I0.0064 J0.0111
G1 X11.8385 Y15.811
G3 X11.7795 Y16.4586 I-0.4885 J0.282
X11.6377 Y16.4881 I-0.0899 J-0.0766 F200
G2 X11.493 Y16.4927 I-0.068 J0.1389
G1 X11.1935 Y16.6639 F150
G2 X11.1888 Y16.6814 I0.0064 J0.0111
G1 X11.4598 Y17.1508
G2 X11.4773 Y17.1555 I0.0111 J-0.0064
G1 X15.8005 Y14.6594
G2 X15.8051 Y14.642 I-0.0064 J-0.011
G1 X15.5342 Y14.1726
G2 X15.5167 Y14.1679 I-0.0111 J0.0064
G1 X15.153 Y14.38
G3 X14.582 Y14.227 I-0.209 J-0.362
G1 X13.9195 Y13.0759
G2 X13.9021 Y13.0713 I-0.011 J0.0064
G1 X11.0511 Y14.7173
G2 X11.0464 Y14.7348 I0.0064 J0.0111
G1 X11.712 Y15.884
G3 X11.559 Y16.455 I-0.362 J0.209
G1 X11.493 Y16.4927
G3 X11.3604 Y16.484 I-0.0597 J-0.1044 F200
G2 X11.2278 Y16.4753 I-0.0728 J0.0948
G1 X11.026 Y16.5918 F150
X10.9827 Y16.6168 F37.5
X11.3877 Y17.3183 F150
X11.4127 Y17.3616 F37.5
X15.509 Y14.9966 F150
X15.968 Y14.7316
X16.0113 Y14.7066 F37.5
X15.6063 Y14.0051 F150
X15.5813 Y13.9618 F37.5
X15.079 Y14.2518 F150
G3 X14.7102 Y14.153 I-0.135 J-0.2338
G1 X13.9917 Y12.9085
X13.9667 Y12.8652 F37.5
X10.8836 Y14.6452 F150
X10.8403 Y14.6702 F37.5
X11.5838 Y15.958 F150
G3 X11.485 Y16.3268 I-0.2338 J0.135
G1 X11.2278 Y16.4753
G3 X11.2054 Y16.4738 I-0.0101 J-0.0176 F200
G2 X11.1828 Y16.4723 I-0.0124 J0.0162
G1 X10.9918 Y16.5826 F400
X10.9485 Y16.6076 F37.5
X11.3785 Y17.3524 F400
X11.4035 Y17.3957 F37.5
X16.0021 Y14.7407 F400
X16.0454 Y14.7157 F37.5
X15.6154 Y13.971 F400
X15.5904 Y13.9277 F37.5
X15.0665 Y14.2301 F400
G3 X14.7319 Y14.1404 I-0.1225 J-0.2121
G1 X14.0008 Y12.8743
X13.9758 Y12.831 F37.5
X10.8495 Y14.636 F400
X10.8062 Y14.661 F37.5
X11.5622 Y15.9705 F400
G3 X11.4725 Y16.3052 I-0.2122 J0.1225
G1 X11.1829 Y16.4724
X11.1797 Y16.4745 Z0.2286 F200
X11.1769 Y16.4772 Z0.2292
X11.1747 Y16.4799 Z0.231
X11.173 Y16.4829 Z0.2328
X11.1719 Y16.4855 Z0.2355
X11.1711 Y16.4881 Z0.2383
X11.1705 Y16.4916 Z0.2453
X11.1704 Y16.4928 Z0.253
G0 Z0.99
X12.7294 Y15.1119
G1 Z0.353 F15
X12.7284 Y15.1113 Z0.3454
X12.7255 Y15.1094 Z0.3386
X12.721 Y15.1068 Z0.3331
X12.715 Y15.1037 Z0.3294
X12.7081 Y15.1006 Z0.328
G2 X12.6184 Y15.3204 Z0.315 I-0.0449 J0.1099
X12.7081 Y15.1006 Z0.3019 I0.0448 J-0.1099
X12.6184 Y15.3204 Z0.2889 I-0.0449 J0.1099
X12.7081 Y15.1006 Z0.2759 I0.0448 J-0.1099
X12.6184 Y15.3204 Z0.2629 I-0.0449 J0.1099
X12.7081 Y15.1006 Z0.2498 I0.0448 J-0.1099
X12.6184 Y15.3204 Z0.2368 I-0.0449 J0.1099
X12.7081 Y15.1006 Z0.2238 I0.0448 J-0.1099
X12.6039 Y15.1077 Z0.22 I-0.0449 J0.1099
G1 X12.5735 Y15.1252 F150
G2 X12.5688 Y15.1427 I0.0064 J0.0111
G1 X12.6039 Y15.2034
G2 X12.6214 Y15.2081 I0.0111 J-0.0064
G1 X13.542 Y14.6765
G2 X13.5467 Y14.659 I-0.0064 J-0.0111
G1 X13.5116 Y14.5984
G2 X13.4942 Y14.5938 I-0.011 J0.0064
G1 X12.6039 Y15.1077
G3 X12.4969 Y15.0987 I-0.047 J-0.0814 F200
G2 X12.4149 Y15.168 I-0.0348 J0.042
G1 X12.5505 Y15.4029 F150
G2 X12.5678 Y15.4076 I0.011 J-0.0063
G1 X13.7416 Y14.7299
G2 X13.7462 Y14.7126 I-0.0064 J-0.011
G1 X13.5651 Y14.3989
G2 X13.5476 Y14.3942 I-0.0111 J0.0064
G1 X12.3741 Y15.0718
G2 X12.3695 Y15.0892 I0.0064 J0.011
G1 X12.4149 Y15.168
G3 X12.4067 Y15.2983 I-0.1024 J0.059 F200
G2 X12.3986 Y15.4288 I0.0936 J0.0713
G1 X12.4243 Y15.4728 F150
G3 X12.4593 Y15.5398 I-0.7724 J0.4459
X12.47 Y15.563 I-1.8399 J0.8634
X12.4901 Y15.6088 I-1.8506 J0.8402 F37.5
G2 X12.5035 Y15.6133 I0.0087 J-0.0037
G1 X13.9085 Y14.8021 F150
X13.9518 Y14.7771 F37.5
G2 X13.9547 Y14.7632 I-0.0047 J-0.0082
G3 X13.9103 Y14.702 I1.622 J-1.2218 F150
X13.8697 Y14.6382 I0.7322 J-0.51
G1 X13.6185 Y14.1995
G2 X13.601 Y14.1948 I-0.0111 J0.0064
G1 X12.1747 Y15.0183
G2 X12.17 Y15.0358 I0.0063 J0.0111
G1 X12.3987 Y15.4287
G3 X12.3898 Y15.564 I-0.1048 J0.061 F200
G2 X12.3696 Y15.698 I0.1101 J0.0851
G3 X12.3954 Y15.7745 I-1.1218 J0.421 F150
X12.4088 Y15.8227 I-1.1476 J0.3445 F37.5
G2 X12.4226 Y15.8285 I0.0091 J-0.0023
G1 X14.1354 Y14.8396 F150
X14.1787 Y14.8146 F37.5
G2 X14.1805 Y14.7998 I-0.0047 J-0.0081
G3 X14.0802 Y14.6889 I0.8371 J-0.8572 F150
X13.996 Y14.5653 I0.7872 J-0.6267
G1 X13.6719 Y14.0001
G2 X13.6545 Y13.9954 I-0.011 J0.0063
G1 X11.9752 Y14.9649
G2 X11.9705 Y14.9824 I0.0064 J0.0111
G1 X12.2979 Y15.5458
G3 X12.3628 Y15.6804 I-0.8712 J0.5029
G1 X12.3696 Y15.698
G3 X12.3358 Y15.8312 I-0.1126 J0.0423 F200
G2 X12.2875 Y15.9597 I0.0942 J0.1087
G3 X12.293 Y16.0084 I-0.969 J0.1344 F150
X12.2961 Y16.0583 I-0.9745 J0.0857 F37.5
G2 X12.3066 Y16.0641 I0.007 J-0.0003
G1 X14.3974 Y14.8569 F150
X14.4407 Y14.8319 F37.5
G2 X14.4409 Y14.82 I-0.0035 J-0.006
G3 X14.2617 Y14.6756 I0.5198 J-0.8287 F150
X14.1225 Y14.4922 I0.6567 J-0.6429
G1 X13.7254 Y13.8006
G2 X13.7079 Y13.7959 I-0.0111 J0.0064
G1 X11.7758 Y14.9115
G2 X11.7712 Y14.9289 I0.0064 J0.011
G1 X12.1715 Y15.6187
G3 X12.2607 Y15.8309 I-0.7959 J0.4594
X12.2875 Y15.9597 I-0.9422 J0.2632
X12.2238 Y16.083 I-0.1193 J0.0165 F200
G2 X12.144 Y16.1967 I0.0695 J0.1336
G3 X12.1271 Y16.2857 I-0.804 J-0.1069 F150
X12.1135 Y16.3339 I-0.7871 J-0.1959 F37.5
G1 X12.1134 Y16.3356
X12.1137 Y16.3373
X12.1146 Y16.3388
X12.116 Y16.3399
X12.1176 Y16.3404
X12.1194
X12.121 Y16.3398
X14.729 Y14.8341 F150
X14.7723 Y14.8091 F37.5
X14.7736 Y14.808
X14.7745 Y14.8065
X14.7749 Y14.8048
X14.7746 Y14.8031
X14.7738 Y14.8015
X14.7725 Y14.8004
X14.7709 Y14.7997
G3 X14.2491 Y14.4192 I0.1743 J-0.7871 F150
G1 X13.7787 Y13.601
G2 X13.7616 Y13.5963 I-0.0109 J0.0062
G1 X11.5761 Y14.8582
G2 X11.5716 Y14.8752 I0.0063 J0.0108
G1 X12.045 Y15.6918
G3 X12.1468 Y16.0056 I-0.6861 J0.396
X12.1441 Y16.1967 I-0.8068 J0.0842
X12.0489 Y16.2987 I-0.1193 J-0.0159 F200
G2 X11.9383 Y16.384 I0.032 J0.1558
G3 X11.6782 Y16.6614 I-0.5883 J-0.291 F150
X11.5987 Y16.7063 I-2.3178 J-4.0146
G2 X11.5192 Y16.7512 I2.2356 J4.0548
X11.5145 Y16.7687 I0.0064 J0.0111
G1 X11.5471 Y16.8251
G2 X11.5646 Y16.8298 I0.0111 J-0.0064
G1 X15.4748 Y14.5722
G2 X15.4795 Y14.5547 I-0.0064 J-0.0111
G1 X15.4469 Y14.4983
G2 X15.4294 Y14.4936 I-0.0111 J0.0064
X15.3508 Y14.54 I2.315 J4.0097
G3 X15.2722 Y14.5864 I-2.3792 J-3.9388
X14.3756 Y14.3461 I-0.3282 J-0.5684
G1 X13.8323 Y13.4017
G2 X13.8148 Y13.397 I-0.0111 J0.0064
G1 X11.3768 Y14.8046
G2 X11.3722 Y14.822 I0.0064 J0.011
G1 X11.9185 Y15.7648
G3 X11.9384 Y16.384 I-0.5685 J0.3282
X11.8612 Y16.4262 I-0.0687 J-0.0339 F200
G2 X11.7795 Y16.4586 I-0.0104 J0.0931
G3 X11.632 Y16.5815 I-0.4295 J-0.3656 F150
X11.5125 Y16.6495 I-5.2633 J-9.1167
G2 X11.393 Y16.7175 I5.1336 J9.1666
X11.3884 Y16.7347 I0.0063 J0.0109
G1 X11.5133 Y16.9514
G2 X11.5307 Y16.956 I0.011 J-0.0064
G1 X15.6011 Y14.606
G2 X15.6058 Y14.5885 I-0.0064 J-0.0111
G1 X15.4807 Y14.372
G2 X15.4633 Y14.3674 I-0.011 J0.0064
X15.3447 Y14.4369 I5.2527 J9.098
G3 X15.226 Y14.5065 I-5.3228 J-8.9454
X14.4555 Y14.3 I-0.282 J-0.4885
G1 X13.8661 Y13.2754
G2 X13.8486 Y13.2707 I-0.0111 J0.0064
G1 X11.2505 Y14.7707
G2 X11.2458 Y14.7882 I0.0064 J0.0111
G1 X11.8385 Y15.811
G3 X11.7795 Y16.4586 I-0.4885 J0.282
X11.6377 Y16.4881 I-0.0899 J-0.0766 F200
G2 X11.493 Y16.4927 I-0.068 J0.1389
G1 X11.1935 Y16.6639 F150
G2 X11.1888 Y16.6814 I0.0064 J0.0111
G1 X11.4598 Y17.1508
G2 X11.4773 Y17.1555 I0.0111 J-0.0064
G1 X15.8005 Y14.6594
G2 X15.8051 Y14.642 I-0.0064 J-0.011
G1 X15.5342 Y14.1726
G2 X15.5167 Y14.1679 I-0.0111 J0.0064
G1 X15.153 Y14.38
G3 X14.582 Y14.227 I-0.209 J-0.362
G1 X13.9195 Y13.0759
G2 X13.9021 Y13.0713 I-0.011 J0.0064
G1 X11.0511 Y14.7173
G2 X11.0464 Y14.7348 I0.0064 J0.0111
G1 X11.712 Y15.884
G3 X11.559 Y16.455 I-0.362 J0.209
G1 X11.493 Y16.4927
G3 X11.3604 Y16.484 I-0.0597 J-0.1044 F200
G2 X11.2278 Y16.4753 I-0.0728 J0.0948
G1 X11.026 Y16.5918 F150
X10.9827 Y16.6168 F37.5
X11.3877 Y17.3183 F150
X11.4127 Y17.3616 F37.5
X15.509 Y14.9966 F150
X15.968 Y14.7316
X16.0113 Y14.7066 F37.5
X15.6063 Y14.0051 F150
X15.5813 Y13.9618 F37.5
X15.079 Y14.2518 F150
G3 X14.7102 Y14.153 I-0.135 J-0.2338
G1 X13.9917 Y12.9085
X13.9667 Y12.8652 F37.5
X10.8836 Y14.6452 F150
X10.8403 Y14.6702 F37.5
X11.5838 Y15.958 F150
G3 X11.485 Y16.3268 I-0.2338 J0.135
G1 X11.2278 Y16.4753
G3 X11.2054 Y16.4738 I-0.0101 J-0.0176 F200
G2 X11.1828 Y16.4723 I-0.0124 J0.0162
G1 X10.9918 Y16.5826 F400
X10.9485 Y16.6076 F37.5
X11.3785 Y17.3524 F400
X11.4035 Y17.3957 F37.5
X16.0021 Y14.7407 F400
X16.0454 Y14.7157 F37.5
X15.6154 Y13.971 F400
X15.5904 Y13.9277 F37.5
X15.0665 Y14.2301 F400
G3 X14.7319 Y14.1404 I-0.1225 J-0.2121
G1 X14.0008 Y12.8743
X13.9758 Y12.831 F37.5
X10.8495 Y14.636 F400
X10.8062 Y14.661 F37.5
X11.5622 Y15.9705 F400
G3 X11.4725 Y16.3052 I-0.2122 J0.1225
G1 X11.1829 Y16.4724
X11.1797 Y16.4745 Z0.2206 F200
X11.1769 Y16.4772 Z0.2212
X11.1747 Y16.4799 Z0.223
X11.173 Y16.4829 Z0.2248
X11.1719 Y16.4855 Z0.2275
X11.1711 Y16.4881 Z0.2303
X11.1705 Y16.4916 Z0.2373
X11.1704 Y16.4928 Z0.245
G0 Z0.99
X8.4693 Y15.3171
G1 Z0.915 F15
X8.4703 Y15.3165 Z0.9074
X8.4733 Y15.315 Z0.9006
X8.4779 Y15.3123 Z0.8951
X8.4836 Y15.3087 Z0.8914
X8.4897 Y15.3043 Z0.89
G2 X8.3438 Y15.1168 Z0.877 I-0.0729 J-0.0938
X8.4897 Y15.3043 Z0.8639 I0.073 J0.0937
X8.3438 Y15.1168 Z0.8509 I-0.0729 J-0.0938
X8.4897 Y15.3043 Z0.8379 I0.073 J0.0937
X8.3438 Y15.1168 Z0.8249 I-0.0729 J-0.0938
X8.4897 Y15.3043 Z0.8118 I0.073 J0.0937
X8.3438 Y15.1168 Z0.7988 I-0.0729 J-0.0938
X8.4897 Y15.3043 Z0.7858 I0.073 J0.0937
X8.3438 Y15.1168 Z0.7728 I-0.0729 J-0.0938
X8.4897 Y15.3043 Z0.7597 I0.073 J0.0937
X8.3438 Y15.1168 Z0.7467 I-0.0729 J-0.0938
X8.4897 Y15.3043 Z0.7337 I0.073 J0.0937
X8.3438 Y15.1168 Z0.7206 I-0.0729 J-0.0938
X8.4897 Y15.3043 Z0.7076 I0.073 J0.0937
X8.3438 Y15.1168 Z0.6946 I-0.0729 J-0.0938
X8.4897 Y15.3043 Z0.6816 I0.073 J0.0937
X8.3438 Y15.1168 Z0.6685 I-0.0729 J-0.0938
X8.4897 Y15.3043 Z0.6555 I0.073 J0.0937
X8.3438 Y15.1168 Z0.6425 I-0.0729 J-0.0938
X8.4897 Y15.3043 Z0.6294 I0.073 J0.0937
X8.3438 Y15.1168 Z0.6164 I-0.0729 J-0.0938
X8.4897 Y15.3043 Z0.6034 I0.073 J0.0937
X8.3438 Y15.1168 Z0.5904 I-0.0729 J-0.0938
X8.4897 Y15.3043 Z0.5773 I0.073 J0.0937
X8.3438 Y15.1168 Z0.5643 I-0.0729 J-0.0938
X8.4897 Y15.3043 Z0.5513 I0.073 J0.0937
X8.3438 Y15.1168 Z0.5383 I-0.0729 J-0.0938
X8.4897 Y15.3043 Z0.5252 I0.073 J0.0937
X8.3438 Y15.1168 Z0.5122 I-0.0729 J-0.0938
X8.4897 Y15.3043 Z0.4992 I0.073 J0.0937
X8.3438 Y15.1168 Z0.4861 I-0.0729 J-0.0938
X8.4897 Y15.3043 Z0.4731 I0.073 J0.0937
X8.4762 Y15.1076 Z0.465 I-0.0729 J-0.0938
G1 X7.5858 Y14.5937 F150
G2 X7.5683 Y14.5983 I-0.0064 J0.0111
G1 X7.5334 Y14.6591
G2 X7.5381 Y14.6764 I0.011 J0.0063
G1 X8.4587 Y15.208
G2 X8.476 Y15.2033 I0.0063 J-0.011
G1 X8.5111 Y15.1427
G2 X8.5064 Y15.1253 I-0.011 J-0.0064
G1 X8.4761 Y15.1077
G3 X8.4178 Y14.9897 I0.0593 J-0.1027 F200
G2 X8.3595 Y14.8718 I-0.1176 J-0.0152
G1 X7.5324 Y14.3943 F150
G2 X7.515 Y14.3989 I-0.0064 J0.011
G1 X7.3338 Y14.7126
G2 X7.3384 Y14.7299 I0.011 J0.0063
G1 X8.5122 Y15.4075
G2 X8.5294 Y15.4029 I0.0063 J-0.0109
G1 X8.7106 Y15.0892
G2 X8.7059 Y15.0717 I-0.0111 J-0.0064
G1 X8.3595 Y14.8718
G3 X8.3011 Y14.7538 I0.0593 J-0.1028 F200
G2 X8.2428 Y14.6359 I-0.1176 J-0.0152
G1 X7.479 Y14.1948 F150
G2 X7.4615 Y14.1995 I-0.0064 J0.0111
G1 X7.2103 Y14.6382
G3 X7.1698 Y14.702 I-0.7728 J-0.4462
X7.155 Y14.723 I-1.6665 J-1.1606
X7.1254 Y14.7633 I-1.6517 J-1.1816 F37.5
G2 X7.1282 Y14.777 I0.0075 J0.0056
G1 X8.5332 Y15.5882 F150
X8.5765 Y15.6132 F37.5
G2 X8.5898 Y15.6087 I0.0047 J-0.0081
G3 X8.6206 Y15.5397 I1.8698 J0.7941 F150
X8.6556 Y15.4726 I0.8077 J0.379
G1 X8.91 Y15.0358
G2 X8.9053 Y15.0184 I-0.011 J-0.0064
G1 X8.2428 Y14.6358
G3 X8.1845 Y14.5179 I0.0593 J-0.1027 F200
G2 X8.1262 Y14.3998 I-0.1177 J-0.0153
G1 X7.4255 Y13.9954 F150
G2 X7.4081 Y14.0001 I-0.0064 J0.011
G1 X7.0839 Y14.5652
G3 X6.9997 Y14.6888 I-0.8713 J-0.503
X6.9345 Y14.7641 I-0.9373 J-0.7462
X6.8994 Y14.7998 I-0.8721 J-0.8215 F37.5
G2 X6.9013 Y14.8146 I0.0066 J0.0067
G1 X8.6141 Y15.8035 F150
X8.6574 Y15.8285 F37.5
G2 X8.6712 Y15.8227 I0.0047 J-0.0081
G3 X8.7172 Y15.6804 I1.161 J0.2963 F150
X8.7821 Y15.5457 I0.936 J0.3682
G1 X9.1095 Y14.9824
G2 X9.1048 Y14.9649 I-0.0111 J-0.0064
G1 X8.1261 Y14.3999
G3 X8.0678 Y14.2819 I0.0594 J-0.1027 F200
G2 X8.0095 Y14.164 I-0.1176 J-0.0152
G1 X7.3721 Y13.7959 F150
G2 X7.3546 Y13.8006 I-0.0064 J0.0111
G1 X6.9574 Y14.4922
G3 X6.8183 Y14.6755 I-0.7958 J-0.4595
X6.6807 Y14.7923 I-0.699 J-0.6842
X6.639 Y14.8199 I-0.5614 J-0.801 F37.5
G2 X6.6392 Y14.832 I0.0038 J0.006
G1 X8.7301 Y16.0391 F150
X8.7734 Y16.0641 F37.5
G2 X8.7839 Y16.0583 I0.0035 J-0.0061
G3 X8.8193 Y15.8309 I0.9776 J0.0358 F150
X8.9085 Y15.6187 I0.885 J0.2472
G1 X9.3089 Y14.9289
G2 X9.3042 Y14.9114 I-0.0111 J-0.0064
G1 X8.0095 Y14.1639
G3 X7.9512 Y14.046 I0.0593 J-0.1027 F200
G2 X7.8929 Y13.9279 I-0.1177 J-0.0153
G1 X7.3184 Y13.5964 F150
G2 X7.3014 Y13.601 I-0.0062 J0.0108
G1 X6.8309 Y14.4192
G3 X6.3576 Y14.7875 I-0.6902 J-0.3986
X6.3091 Y14.7996 I-0.2169 J-0.7669 F37.5
G1 X6.3075 Y14.8004
X6.3062 Y14.8015
X6.3054 Y14.8031
X6.3051 Y14.8048
X6.3055 Y14.8065
X6.3064 Y14.808
X6.3077 Y14.8091
X8.9157 Y16.3148 F150
X8.959 Y16.3398 F37.5
X8.9606 Y16.3404
X8.9624
X8.964 Y16.3399
X8.9654 Y16.3388
X8.9663 Y16.3373
X8.9666 Y16.3356
X8.9664 Y16.3339
G3 X8.9332 Y16.0056 I0.7736 J-0.2441 F150
X9.035 Y15.6917 I0.7879 J0.0822
G1 X9.5085 Y14.8753
G2 X9.5039 Y14.8581 I-0.0109 J-0.0063
G1 X7.8928 Y13.928
G3 X7.8344 Y13.81 I0.0594 J-0.1028 F200
G2 X7.7761 Y13.6921 I-0.1176 J-0.0152
G1 X7.2652 Y13.397 F150
G2 X7.2477 Y13.4017 I-0.0064 J0.0111
G1 X6.7045 Y14.3462
G3 X5.8078 Y14.5864 I-0.5685 J-0.3283
X5.7292 Y14.54 I2.3135 J-4.0071
G2 X5.6506 Y14.4936 I-2.3928 J3.9619
X5.6331 Y14.4983 I-0.0064 J0.0111
G1 X5.6006 Y14.5547
G2 X5.6053 Y14.5721 I0.011 J0.0064
G1 X9.5155 Y16.8297
G2 X9.5328 Y16.825 I0.0063 J-0.011
G1 X9.5655 Y16.7687
G2 X9.5608 Y16.7512 I-0.0111 J-0.0064
X9.4813 Y16.7063 I-2.3155 J4.0105
G3 X9.4018 Y16.6614 I2.2366 J-4.0564
X9.1616 Y15.7648 I0.3282 J-0.5684
G1 X9.7078 Y14.822
G2 X9.7032 Y14.8046 I-0.011 J-0.0064
G1 X7.7761 Y13.692
G3 X7.7391 Y13.6173 I0.0376 J-0.0651 F200
G2 X7.7022 Y13.5426 I-0.0744 J-0.0097
G1 X7.2313 Y13.2707 F150
G2 X7.2139 Y13.2754 I-0.0063 J0.0111
G1 X6.6244 Y14.2999
G3 X5.854 Y14.5063 I-0.4884 J-0.282
X5.7354 Y14.4368 I5.2495 J-9.0923
G2 X5.6168 Y14.3673 I-5.3704 J9.0268
X5.5992 Y14.372 I-0.0065 J0.0111
G1 X5.4743 Y14.5886
G2 X5.479 Y14.6059 I0.011 J0.0063
G1 X9.5493 Y16.956
G2 X9.5667 Y16.9513 I0.0064 J-0.011
G1 X9.6918 Y16.7348
G2 X9.6871 Y16.7173 I-0.0111 J-0.0064
X9.5676 Y16.6493 I-5.2537 J9.0997
G3 X9.448 Y16.5813 I5.1363 J-9.1714
X9.2417 Y15.811 I0.282 J-0.4883
G1 X9.8341 Y14.7882
G2 X9.8294 Y14.7708 I-0.011 J-0.0064
G1 X7.7023 Y13.5426
G3 X7.644 Y13.4246 I0.0593 J-0.1027 F200
G2 X7.5856 Y13.3066 I-0.1177 J-0.0152
G1 X7.1779 Y13.0713 F150
G2 X7.1605 Y13.076 I-0.0064 J0.011
G1 X6.498 Y14.2269
G3 X5.927 Y14.3799 I-0.362 J-0.209
G1 X5.5633 Y14.1679
G2 X5.5458 Y14.1726 I-0.0064 J0.0111
G1 X5.2748 Y14.642
G2 X5.2795 Y14.6595 I0.0111 J0.0064
G1 X9.6027 Y17.1555
G2 X9.6202 Y17.1508 I0.0064 J-0.0111
G1 X9.8912 Y16.6814
G2 X9.8865 Y16.6639 I-0.0111 J-0.0064
G1 X9.521 Y16.455
G3 X9.368 Y15.884 I0.209 J-0.362
G1 X10.0336 Y14.7347
G2 X10.0289 Y14.7173 I-0.0111 J-0.0063
G1 X7.5856 Y13.3067
G3 X7.5272 Y13.1885 I0.0594 J-0.1029 F200
G2 X7.4688 Y13.0704 I-0.1178 J-0.0152
G1 X7.1566 Y12.8902 F150
X7.1133 Y12.8652 F37.5
X6.3698 Y14.1529 F150
G3 X6.001 Y14.2518 I-0.2338 J-0.1349
G1 X5.542 Y13.9868
X5.4987 Y13.9618 F37.5
X5.0937 Y14.6633 F150
X5.0687 Y14.7066 F37.5
X9.624 Y17.3366 F150
X9.6673 Y17.3616 F37.5
X10.0723 Y16.6601 F150
X10.0973 Y16.6168 F37.5
X9.595 Y16.3268 F150
G3 X9.4962 Y15.958 I0.135 J-0.2338
G1 X10.2147 Y14.7135
X10.2397 Y14.6702 F37.5
X7.4688 Y13.0704 F150
G3 X7.4588 Y13.0502 I0.0101 J-0.0176 F200
G2 X7.4488 Y13.03 I-0.0201 J-0.0026
G1 X7.1475 Y12.856 F400
X7.1042 Y12.831 F37.5
X6.3482 Y14.1405 F400
G3 X6.0135 Y14.2302 I-0.2122 J-0.1225
G1 X5.5329 Y13.9527
X5.4896 Y13.9277 F37.5
X5.0596 Y14.6724 F400
X5.0346 Y14.7157 F37.5
X9.6332 Y17.3707 F400
X9.6765 Y17.3957 F37.5
X10.1065 Y16.6509 F400
X10.1315 Y16.6076 F37.5
X9.6075 Y16.3051 F400
G3 X9.5179 Y15.9705 I0.1225 J-0.2121
G1 X10.2488 Y14.7043
X10.2738 Y14.661 F37.5
X7.4488 Y13.03 F400
X7.4453 Y13.0283 Z0.4656 F200
X7.4416 Y13.0272 Z0.4662
X7.4382 Y13.0267 Z0.468
X7.4347 Z0.4698
X7.432 Y13.027 Z0.4725
X7.4293 Y13.0277 Z0.4753
X7.4259 Y13.0289 Z0.4823
X7.4248 Y13.0294 Z0.49
G0 Z0.99
X8.4532 Y15.0975
G1 Z0.59 F15
X8.4521 Y15.0972 Z0.5824
X8.4488 Y15.0962 Z0.5756
X8.4437 Y15.0949 Z0.5701
X8.4371 Y15.0936 Z0.5664
X8.4297 Y15.0925 Z0.565
G2 X8.4039 Y15.3285 Z0.552 I-0.0129 J0.118
X8.4297 Y15.0925 Z0.5389 I0.0129 J-0.118
X8.4039 Y15.3285 Z0.5259 I-0.0129 J0.118
X8.4297 Y15.0925 Z0.5129 I0.0129 J-0.118
X8.4039 Y15.3285 Z0.4999 I-0.0129 J0.118
X8.4297 Y15.0925 Z0.4868 I0.0129 J-0.118
X8.4039 Y15.3285 Z0.4738 I-0.0129 J0.118
X8.4297 Y15.0925 Z0.4608 I0.0129 J-0.118
X8.4039 Y15.3285 Z0.4478 I-0.0129 J0.118
X8.4297 Y15.0925 Z0.4347 I0.0129 J-0.118
X8.4039 Y15.3285 Z0.4217 I-0.0129 J0.118
X8.4297 Y15.0925 Z0.4087 I0.0129 J-0.118
X8.4039 Y15.3285 Z0.3956 I-0.0129 J0.118
X8.4297 Y15.0925 Z0.3826 I0.0129 J-0.118
X8.4039 Y15.3285 Z0.3696 I-0.0129 J0.118
X8.4297 Y15.0925 Z0.3566 I0.0129 J-0.118
X8.4039 Y15.3285 Z0.3435 I-0.0129 J0.118
X8.4297 Y15.0925 Z0.3305 I0.0129 J-0.118
X8.4039 Y15.3285 Z0.3175 I-0.0129 J0.118
X8.4297 Y15.0925 Z0.3044 I0.0129 J-0.118
X8.4039 Y15.3285 Z0.2914 I-0.0129 J0.118
X8.4297 Y15.0925 Z0.2784 I0.0129 J-0.118
X8.4039 Y15.3285 Z0.2654 I-0.0129 J0.118
X8.4297 Y15.0925 Z0.2523 I0.0129 J-0.118
X8.4039 Y15.3285 Z0.2393 I-0.0129 J0.118
X8.4761 Y15.1077 Z0.228 I0.0129 J-0.118
G1 X7.5858 Y14.5937 F150
G2 X7.5683 Y14.5983 I-0.0064 J0.0111
G1 X7.5334 Y14.6591
G2 X7.5381 Y14.6764 I0.011 J0.0063
G1 X8.4587 Y15.208
G2 X8.476 Y15.2033 I0.0063 J-0.011
G1 X8.5111 Y15.1427
G2 X8.5064 Y15.1253 I-0.011 J-0.0064
G1 X8.4761 Y15.1077
G3 X8.4178 Y14.9897 I0.0593 J-0.1027 F200
G2 X8.3595 Y14.8718 I-0.1176 J-0.0152
G1 X7.5324 Y14.3943 F150
G2 X7.515 Y14.3989 I-0.0064 J0.011
G1 X7.3338 Y14.7126
G2 X7.3384 Y14.7299 I0.011 J0.0063
G1 X8.5122 Y15.4075
G2 X8.5294 Y15.4029 I0.0063 J-0.0109
G1 X8.7106 Y15.0892
G2 X8.7059 Y15.0717 I-0.0111 J-0.0064
G1 X8.3595 Y14.8718
G3 X8.3011 Y14.7538 I0.0593 J-0.1028 F200
G2 X8.2428 Y14.6359 I-0.1176 J-0.0152
G1 X7.479 Y14.1948 F150
G2 X7.4615 Y14.1995 I-0.0064 J0.0111
G1 X7.2103 Y14.6382
G3 X7.1698 Y14.702 I-0.7728 J-0.4462
X7.155 Y14.723 I-1.6665 J-1.1606
X7.1254 Y14.7633 I-1.6517 J-1.1816 F37.5
G2 X7.1282 Y14.777 I0.0075 J0.0056
G1 X8.5332 Y15.5882 F150
X8.5765 Y15.6132 F37.5
G2 X8.5898 Y15.6087 I0.0047 J-0.0081
G3 X8.6206 Y15.5397 I1.8698 J0.7941 F150
X8.6556 Y15.4726 I0.8077 J0.379
G1 X8.91 Y15.0358
G2 X8.9053 Y15.0184 I-0.011 J-0.0064
G1 X8.2428 Y14.6358
G3 X8.1845 Y14.5179 I0.0593 J-0.1027 F200
G2 X8.1262 Y14.3998 I-0.1177 J-0.0153
G1 X7.4255 Y13.9954 F150
G2 X7.4081 Y14.0001 I-0.0064 J0.011
G1 X7.0839 Y14.5652
G3 X6.9997 Y14.6888 I-0.8713 J-0.503
X6.9345 Y14.7641 I-0.9373 J-0.7462
X6.8994 Y14.7998 I-0.8721 J-0.8215 F37.5
G2 X6.9013 Y14.8146 I0.0066 J0.0067
G1 X8.6141 Y15.8035 F150
X8.6574 Y15.8285 F37.5
G2 X8.6712 Y15.8227 I0.0047 J-0.0081
G3 X8.7172 Y15.6804 I1.161 J0.2963 F150
X8.7821 Y15.5457 I0.936 J0.3682
G1 X9.1095 Y14.9824
G2 X9.1048 Y14.9649 I-0.0111 J-0.0064
G1 X8.1261 Y14.3999
G3 X8.0678 Y14.2819 I0.0594 J-0.1027 F200
G2 X8.0095 Y14.164 I-0.1176 J-0.0152
G1 X7.3721 Y13.7959 F150
G2 X7.3546 Y13.8006 I-0.0064 J0.0111
G1 X6.9574 Y14.4922
G3 X6.8183 Y14.6755 I-0.7958 J-0.4595
X6.6807 Y14.7923 I-0.699 J-0.6842
X6.639 Y14.8199 I-0.5614 J-0.801 F37.5
G2 X6.6392 Y14.832 I0.0038 J0.006
G1 X8.7301 Y16.0391 F150
X8.7734 Y16.0641 F37.5
G2 X8.7839 Y16.0583 I0.0035 J-0.0061
G3 X8.8193 Y15.8309 I0.9776 J0.0358 F150
X8.9085 Y15.6187 I0.885 J0.2472
G1 X9.3089 Y14.9289
G2 X9.3042 Y14.9114 I-0.0111 J-0.0064
G1 X8.0095 Y14.1639
G3 X7.9512 Y14.046 I0.0593 J-0.1027 F200
G2 X7.8929 Y13.9279 I-0.1177 J-0.0153
G1 X7.3184 Y13.5964 F150
G2 X7.3014 Y13.601 I-0.0062 J0.0108
G1 X6.8309 Y14.4192
G3 X6.3576 Y14.7875 I-0.6902 J-0.3986
X6.3091 Y14.7996 I-0.2169 J-0.7669 F37.5
G1 X6.3075 Y14.8004
X6.3062 Y14.8015
X6.3054 Y14.8031
X6.3051 Y14.8048
X6.3055 Y14.8065
X6.3064 Y14.808
X6.3077 Y14.8091
X8.9157 Y16.3148 F150
X8.959 Y16.3398 F37.5
X8.9606 Y16.3404
X8.9624
X8.964 Y16.3399
X8.9654 Y16.3388
X8.9663 Y16.3373
X8.9666 Y16.3356
X8.9664 Y16.3339
G3 X8.9332 Y16.0056 I0.7736 J-0.2441 F150
X9.035 Y15.6917 I0.7879 J0.0822
G1 X9.5085 Y14.8753
G2 X9.5039 Y14.8581 I-0.0109 J-0.0063
G1 X7.8928 Y13.928
G3 X7.8344 Y13.81 I0.0594 J-0.1028 F200
G2 X7.7761 Y13.6921 I-0.1176 J-0.0152
G1 X7.2652 Y13.397 F150
G2 X7.2477 Y13.4017 I-0.0064 J0.0111
G1 X6.7045 Y14.3462
G3 X5.8078 Y14.5864 I-0.5685 J-0.3283
X5.7292 Y14.54 I2.3135 J-4.0071
G2 X5.6506 Y14.4936 I-2.3928 J3.9619
X5.6331 Y14.4983 I-0.0064 J0.0111
G1 X5.6006 Y14.5547
G2 X5.6053 Y14.5721 I0.011 J0.0064
G1 X9.5155 Y16.8297
G2 X9.5328 Y16.825 I0.0063 J-0.011
G1 X9.5655 Y16.7687
G2 X9.5608 Y16.7512 I-0.0111 J-0.0064
X9.4813 Y16.7063 I-2.3155 J4.0105
G3 X9.4018 Y16.6614 I2.2366 J-4.0564
X9.1616 Y15.7648 I0.3282 J-0.5684
G1 X9.7078 Y14.822
G2 X9.7032 Y14.8046 I-0.011 J-0.0064
G1 X7.7761 Y13.692
G3 X7.7391 Y13.6173 I0.0376 J-0.0651 F200
G2 X7.7022 Y13.5426 I-0.0744 J-0.0097
G1 X7.2313 Y13.2707 F150
G2 X7.2139 Y13.2754 I-0.0063 J0.0111
G1 X6.6244 Y14.2999
G3 X5.854 Y14.5063 I-0.4884 J-0.282
X5.7354 Y14.4368 I5.2495 J-9.0923
G2 X5.6168 Y14.3673 I-5.3704 J9.0268
X5.5992 Y14.372 I-0.0065 J0.0111
G1 X5.4743 Y14.5886
G2 X5.479 Y14.6059 I0.011 J0.0063
G1 X9.5493 Y16.956
G2 X9.5667 Y16.9513 I0.0064 J-0.011
G1 X9.6918 Y16.7348
G2 X9.6871 Y16.7173 I-0.0111 J-0.0064
X9.5676 Y16.6493 I-5.2537 J9.0997
G3 X9.448 Y16.5813 I5.1363 J-9.1714
X9.2417 Y15.811 I0.282 J-0.4883
G1 X9.8341 Y14.7882
G2 X9.8294 Y14.7708 I-0.011 J-0.0064
G1 X7.7023 Y13.5426
G3 X7.644 Y13.4246 I0.0593 J-0.1027 F200
G2 X7.5856 Y13.3066 I-0.1177 J-0.0152
G1 X7.1779 Y13.0713 F150
G2 X7.1605 Y13.076 I-0.0064 J0.011
G1 X6.498 Y14.2269
G3 X5.927 Y14.3799 I-0.362 J-0.209
G1 X5.5633 Y14.1679
G2 X5.5458 Y14.1726 I-0.0064 J0.0111
G1 X5.2748 Y14.642
G2 X5.2795 Y14.6595 I0.0111 J0.0064
G1 X9.6027 Y17.1555
G2 X9.6202 Y17.1508 I0.0064 J-0.0111
G1 X9.8912 Y16.6814
G2 X9.8865 Y16.6639 I-0.0111 J-0.0064
G1 X9.521 Y16.455
G3 X9.368 Y15.884 I0.209 J-0.362
G1 X10.0336 Y14.7347
G2 X10.0289 Y14.7173 I-0.0111 J-0.0063
G1 X7.5856 Y13.3067
G3 X7.5272 Y13.1885 I0.0594 J-0.1029 F200
G2 X7.4688 Y13.0704 I-0.1178 J-0.0152
G1 X7.1566 Y12.8902 F150
X7.1133 Y12.8652 F37.5
X6.3698 Y14.1529 F150
G3 X6.001 Y14.2518 I-0.2338 J-0.1349
G1 X5.542 Y13.9868
X5.4987 Y13.9618 F37.5
X5.0937 Y14.6633 F150
X5.0687 Y14.7066 F37.5
X9.624 Y17.3366 F150
X9.6673 Y17.3616 F37.5
X10.0723 Y16.6601 F150
X10.0973 Y16.6168 F37.5
X9.595 Y16.3268 F150
G3 X9.4962 Y15.958 I0.135 J-0.2338
G1 X10.2147 Y14.7135
X10.2397 Y14.6702 F37.5
X7.4688 Y13.0704 F150
G3 X7.4588 Y13.0502 I0.0101 J-0.0176 F200
G2 X7.4488 Y13.03 I-0.0201 J-0.0026
G1 X7.1475 Y12.856 F400
X7.1042 Y12.831 F37.5
X6.3482 Y14.1405 F400
G3 X6.0135 Y14.2302 I-0.2122 J-0.1225
G1 X5.5329 Y13.9527
X5.4896 Y13.9277 F37.5
X5.0596 Y14.6724 F400
X5.0346 Y14.7157 F37.5
X9.6332 Y17.3707 F400
X9.6765 Y17.3957 F37.5
X10.1065 Y16.6509 F400
X10.1315 Y16.6076 F37.5
X9.6075 Y16.3051 F400
G3 X9.5179 Y15.9705 I0.1225 J-0.2121
G1 X10.2488 Y14.7043
X10.2738 Y14.661 F37.5
X7.4488 Y13.03 F400
X7.4453 Y13.0283 Z0.2286 F200
X7.4416 Y13.0272 Z0.2292
X7.4382 Y13.0267 Z0.231
X7.4347 Z0.2328
X7.432 Y13.027 Z0.2355
X7.4293 Y13.0277 Z0.2383
X7.4259 Y13.0289 Z0.2453
X7.4248 Y13.0294 Z0.253
G0 Z0.99
X8.5352 Y15.2185
G1 Z0.353 F15
X8.5353 Y15.2173 Z0.3454
X8.5355 Y15.2139 Z0.3386
Y15.2086 Z0.3331
X8.5352 Y15.2019 Z0.3294
X8.5344 Y15.1944 Z0.328
G2 X8.2992 Y15.2266 Z0.315 I-0.1176 J0.0161
X8.5344 Y15.1944 Z0.3019 I0.1176 J-0.0161
X8.2992 Y15.2266 Z0.2889 I-0.1176 J0.0161
X8.5344 Y15.1944 Z0.2759 I0.1176 J-0.0161
X8.2992 Y15.2266 Z0.2629 I-0.1176 J0.0161
X8.5344 Y15.1944 Z0.2498 I0.1176 J-0.0161
X8.2992 Y15.2266 Z0.2368 I-0.1176 J0.0161
X8.5344 Y15.1944 Z0.2238 I0.1176 J-0.0161
X8.4761 Y15.1077 Z0.22 I-0.1176 J0.0161
G1 X7.5858 Y14.5937 F150
G2 X7.5683 Y14.5983 I-0.0064 J0.0111
G1 X7.5334 Y14.6591
G2 X7.5381 Y14.6764 I0.011 J0.0063
G1 X8.4587 Y15.208
G2 X8.476 Y15.2033 I0.0063 J-0.011
G1 X8.5111 Y15.1427
G2 X8.5064 Y15.1253 I-0.011 J-0.0064
G1 X8.4761 Y15.1077
G3 X8.4178 Y14.9897 I0.0593 J-0.1027 F200
G2 X8.3595 Y14.8718 I-0.1176 J-0.0152
G1 X7.5324 Y14.3943 F150
G2 X7.515 Y14.3989 I-0.0064 J0.011
G1 X7.3338 Y14.7126
G2 X7.3384 Y14.7299 I0.011 J0.0063
G1 X8.5122 Y15.4075
G2 X8.5294 Y15.4029 I0.0063 J-0.0109
G1 X8.7106 Y15.0892
G2 X8.7059 Y15.0717 I-0.0111 J-0.0064
G1 X8.3595 Y14.8718
G3 X8.3011 Y14.7538 I0.0593 J-0.1028 F200
G2 X8.2428 Y14.6359 I-0.1176 J-0.0152
G1 X7.479 Y14.1948 F150
G2 X7.4615 Y14.1995 I-0.0064 J0.0111
G1 X7.2103 Y14.6382
G3 X7.1698 Y14.702 I-0.7728 J-0.4462
X7.155 Y14.723 I-1.6665 J-1.1606
X7.1254 Y14.7633 I-1.6517 J-1.1816 F37.5
G2 X7.1282 Y14.777 I0.0075 J0.0056
G1 X8.5332 Y15.5882 F150
X8.5765 Y15.6132 F37.5
G2 X8.5898 Y15.6087 I0.0047 J-0.0081
G3 X8.6206 Y15.5397 I1.8698 J0.7941 F150
X8.6556 Y15.4726 I0.8077 J0.379
G1 X8.91 Y15.0358
G2 X8.9053 Y15.0184 I-0.011 J-0.0064
G1 X8.2428 Y14.6358
G3 X8.1845 Y14.5179 I0.0593 J-0.1027 F200
G2 X8.1262 Y14.3998 I-0.1177 J-0.0153
G1 X7.4255 Y13.9954 F150
G2 X7.4081 Y14.0001 I-0.0064 J0.011
G1 X7.0839 Y14.5652
G3 X6.9997 Y14.6888 I-0.8713 J-0.503
X6.9345 Y14.7641 I-0.9373 J-0.7462
X6.8994 Y14.7998 I-0.8721 J-0.8215 F37.5
G2 X6.9013 Y14.8146 I0.0066 J0.0067
G1 X8.6141 Y15.8035 F150
X8.6574 Y15.8285 F37.5
G2 X8.6712 Y15.8227 I0.0047 J-0.0081
G3 X8.7172 Y15.6804 I1.161 J0.2963 F150
X8.7821 Y15.5457 I0.936 J0.3682
G1 X9.1095 Y14.9824
G2 X9.1048 Y14.9649 I-0.0111 J-0.0064
G1 X8.1261 Y14.3999
G3 X8.0678 Y14.2819 I0.0594 J-0.1027 F200
G2 X8.0095 Y14.164 I-0.1176 J-0.0152
G1 X7.3721 Y13.7959 F150
G2 X7.3546 Y13.8006 I-0.0064 J0.0111
G1 X6.9574 Y14.4922
G3 X6.8183 Y14.6755 I-0.7958 J-0.4595
X6.6807 Y14.7923 I-0.699 J-0.6842
X6.639 Y14.8199 I-0.5614 J-0.801 F37.5
G2 X6.6392 Y14.832 I0.0038 J0.006
G1 X8.7301 Y16.0391 F150
X8.7734 Y16.0641 F37.5
G2 X8.7839 Y16.0583 I0.0035 J-0.0061
G3 X8.8193 Y15.8309 I0.9776 J0.0358 F150
X8.9085 Y15.6187 I0.885 J0.2472
G1 X9.3089 Y14.9289
G2 X9.3042 Y14.9114 I-0.0111 J-0.0064
G1 X8.0095 Y14.1639
G3 X7.9512 Y14.046 I0.0593 J-0.1027 F200
G2 X7.8929 Y13.9279 I-0.1177 J-0.0153
G1 X7.3184 Y13.5964 F150
G2 X7.3014 Y13.601 I-0.0062 J0.0108
G1 X6.8309 Y14.4192
G3 X6.3576 Y14.7875 I-0.6902 J-0.3986
X6.3091 Y14.7996 I-0.2169 J-0.7669 F37.5
G1 X6.3075 Y14.8004
X6.3062 Y14.8015
X6.3054 Y14.8031
X6.3051 Y14.8048
X6.3055 Y14.8065
X6.3064 Y14.808
X6.3077 Y14.8091
X8.9157 Y16.3148 F150
X8.959 Y16.3398 F37.5
X8.9606 Y16.3404
X8.9624
X8.964 Y16.3399
X8.9654 Y16.3388
X8.9663 Y16.3373
X8.9666 Y16.3356
X8.9664 Y16.3339
G3 X8.9332 Y16.0056 I0.7736 J-0.2441 F150
X9.035 Y15.6917 I0.7879 J0.0822
G1 X9.5085 Y14.8753
G2 X9.5039 Y14.8581 I-0.0109 J-0.0063
G1 X7.8928 Y13.928
G3 X7.8344 Y13.81 I0.0594 J-0.1028 F200
G2 X7.7761 Y13.6921 I-0.1176 J-0.0152
G1 X7.2652 Y13.397 F150
G2 X7.2477 Y13.4017 I-0.0064 J0.0111
G1 X6.7045 Y14.3462
G3 X5.8078 Y14.5864 I-0.5685 J-0.3283
X5.7292 Y14.54 I2.3135 J-4.0071
G2 X5.6506 Y14.4936 I-2.3928 J3.9619
X5.6331 Y14.4983 I-0.0064 J0.0111
G1 X5.6006 Y14.5547
G2 X5.6053 Y14.5721 I0.011 J0.0064
G1 X9.5155 Y16.8297
G2 X9.5328 Y16.825 I0.0063 J-0.011
G1 X9.5655 Y16.7687
G2 X9.5608 Y16.7512 I-0.0111 J-0.0064
X9.4813 Y16.7063 I-2.3155 J4.0105
G3 X9.4018 Y16.6614 I2.2366 J-4.0564
X9.1616 Y15.7648 I0.3282 J-0.5684
G1 X9.7078 Y14.822
G2 X9.7032 Y14.8046 I-0.011 J-0.0064
G1 X7.7761 Y13.692
G3 X7.7391 Y13.6173 I0.0376 J-0.0651 F200
G2 X7.7022 Y13.5426 I-0.0744 J-0.0097
G1 X7.2313 Y13.2707 F150
G2 X7.2139 Y13.2754 I-0.0063 J0.0111
G1 X6.6244 Y14.2999
G3 X5.854 Y14.5063 I-0.4884 J-0.282
X5.7354 Y14.4368 I5.2495 J-9.0923
G2 X5.6168 Y14.3673 I-5.3704 J9.0268
X5.5992 Y14.372 I-0.0065 J0.0111
G1 X5.4743 Y14.5886
G2 X5.479 Y14.6059 I0.011 J0.0063
G1 X9.5493 Y16.956
G2 X9.5667 Y16.9513 I0.0064 J-0.011
G1 X9.6918 Y16.7348
G2 X9.6871 Y16.7173 I-0.0111 J-0.0064
X9.5676 Y16.6493 I-5.2537 J9.0997
G3 X9.448 Y16.5813 I5.1363 J-9.1714
X9.2417 Y15.811 I0.282 J-0.4883
G1 X9.8341 Y14.7882
G2 X9.8294 Y14.7708 I-0.011 J-0.0064
G1 X7.7023 Y13.5426
G3 X7.644 Y13.4246 I0.0593 J-0.1027 F200
G2 X7.5856 Y13.3066 I-0.1177 J-0.0152
G1 X7.1779 Y13.0713 F150
G2 X7.1605 Y13.076 I-0.0064 J0.011
G1 X6.498 Y14.2269
G3 X5.927 Y14.3799 I-0.362 J-0.209
G1 X5.5633 Y14.1679
G2 X5.5458 Y14.1726 I-0.0064 J0.0111
G1 X5.2748 Y14.642
G2 X5.2795 Y14.6595 I0.0111 J0.0064
G1 X9.6027 Y17.1555
G2 X9.6202 Y17.1508 I0.0064 J-0.0111
G1 X9.8912 Y16.6814
G2 X9.8865 Y16.6639 I-0.0111 J-0.0064
G1 X9.521 Y16.455
G3 X9.368 Y15.884 I0.209 J-0.362
G1 X10.0336 Y14.7347
G2 X10.0289 Y14.7173 I-0.0111 J-0.0063
G1 X7.5856 Y13.3067
G3 X7.5272 Y13.1885 I0.0594 J-0.1029 F200
G2 X7.4688 Y13.0704 I-0.1178 J-0.0152
G1 X7.1566 Y12.8902 F150
X7.1133 Y12.8652 F37.5
X6.3698 Y14.1529 F150
G3 X6.001 Y14.2518 I-0.2338 J-0.1349
G1 X5.542 Y13.9868
X5.4987 Y13.9618 F37.5
X5.0937 Y14.6633 F150
X5.0687 Y14.7066 F37.5
X9.624 Y17.3366 F150
X9.6673 Y17.3616 F37.5
X10.0723 Y16.6601 F150
X10.0973 Y16.6168 F37.5
X9.595 Y16.3268 F150
G3 X9.4962 Y15.958 I0.135 J-0.2338
G1 X10.2147 Y14.7135
X10.2397 Y14.6702 F37.5
X7.4688 Y13.0704 F150
G3 X7.4588 Y13.0502 I0.0101 J-0.0176 F200
G2 X7.4488 Y13.03 I-0.0201 J-0.0026
G1 X7.1475 Y12.856 F400
X7.1042 Y12.831 F37.5
X6.3482 Y14.1405 F400
G3 X6.0135 Y14.2302 I-0.2122 J-0.1225
G1 X5.5329 Y13.9527
X5.4896 Y13.9277 F37.5
X5.0596 Y14.6724 F400
X5.0346 Y14.7157 F37.5
X9.6332 Y17.3707 F400
X9.6765 Y17.3957 F37.5
X10.1065 Y16.6509 F400
X10.1315 Y16.6076 F37.5
X9.6075 Y16.3051 F400
G3 X9.5179 Y15.9705 I0.1225 J-0.2121
G1 X10.2488 Y14.7043
X10.2738 Y14.661 F37.5
X7.4488 Y13.03 F400
X7.4453 Y13.0283 Z0.2206 F200
X7.4416 Y13.0272 Z0.2212
X7.4382 Y13.0267 Z0.223
X7.4347 Z0.2248
X7.432 Y13.027 Z0.2275
X7.4293 Y13.0277 Z0.2303
X7.4259 Y13.0289 Z0.2373
X7.4248 Y13.0294 Z0.245
G0 Z0.99
X5.3277 Y11.1352
G1 Z0.915 F15
X5.3287 Y11.1359 Z0.9074
X5.3315 Y11.1377 Z0.9006
X5.3361 Y11.1404 Z0.8951
X5.3421 Y11.1435 Z0.8914
X5.349 Y11.1465 Z0.89
G2 X5.4383 Y10.9265 Z0.877 I0.0447 J-0.11
X5.349 Y11.1465 Z0.8639 I-0.0446 J0.11
X5.4383 Y10.9265 Z0.8509 I0.0447 J-0.11
X5.349 Y11.1465 Z0.8379 I-0.0446 J0.11
X5.4383 Y10.9265 Z0.8249 I0.0447 J-0.11
X5.349 Y11.1465 Z0.8118 I-0.0446 J0.11
X5.4383 Y10.9265 Z0.7988 I0.0447 J-0.11
X5.349 Y11.1465 Z0.7858 I-0.0446 J0.11
X5.4383 Y10.9265 Z0.7728 I0.0447 J-0.11
X5.349 Y11.1465 Z0.7597 I-0.0446 J0.11
X5.4383 Y10.9265 Z0.7467 I0.0447 J-0.11
X5.349 Y11.1465 Z0.7337 I-0.0446 J0.11
X5.4383 Y10.9265 Z0.7206 I0.0447 J-0.11
X5.349 Y11.1465 Z0.7076 I-0.0446 J0.11
X5.4383 Y10.9265 Z0.6946 I0.0447 J-0.11
X5.349 Y11.1465 Z0.6816 I-0.0446 J0.11
X5.4383 Y10.9265 Z0.6685 I0.0447 J-0.11
X5.349 Y11.1465 Z0.6555 I-0.0446 J0.11
X5.4383 Y10.9265 Z0.6425 I0.0447 J-0.11
X5.349 Y11.1465 Z0.6294 I-0.0446 J0.11
X5.4383 Y10.9265 Z0.6164 I0.0447 J-0.11
X5.349 Y11.1465 Z0.6034 I-0.0446 J0.11
X5.4383 Y10.9265 Z0.5904 I0.0447 J-0.11
X5.349 Y11.1465 Z0.5773 I-0.0446 J0.11
X5.4383 Y10.9265 Z0.5643 I0.0447 J-0.11
X5.349 Y11.1465 Z0.5513 I-0.0446 J0.11
X5.4383 Y10.9265 Z0.5383 I0.0447 J-0.11
X5.349 Y11.1465 Z0.5252 I-0.0446 J0.11
X5.4383 Y10.9265 Z0.5122 I0.0447 J-0.11
X5.349 Y11.1465 Z0.4992 I-0.0446 J0.11
X5.4383 Y10.9265 Z0.4861 I0.0447 J-0.11
X5.349 Y11.1465 Z0.4731 I-0.0446 J0.11
X5.5124 Y11.0365 Z0.465 I0.0447 J-0.11
G1 Y10.0926 F150
Y10.0426 F37.5
G2 X5.5054 Y10.0356 I-0.007 J0
G1 X5.5036
G2 X5.4966 Y10.0426 I0 J0.007
G1 Y10.9874 F150
Y11.0374 F37.5
G2 X5.5036 Y11.0444 I0.007 J0
G1 X5.5054
G2 X5.5124 Y11.0374 I0 J-0.007
G1 Y11.0365 F150
G3 X5.5854 Y10.927 I0.1186 J0 F200
G2 X5.6584 Y10.8175 I-0.0456 J-0.1095
G1 Y9.9024 F150
G2 X5.6456 Y9.8896 I-0.0128 J0
G1 X5.3633
G2 X5.3505 Y9.9024 I0 J0.0128
G1 X5.3506 Y11.1776
G2 X5.3633 Y11.1903 I0.0127 J0
G1 X5.6456 Y11.1904
G2 X5.6584 Y11.1776 I0 J-0.0128
G1 Y10.8175
G3 X5.7314 Y10.708 I0.1186 J0 F200
G2 X5.8044 Y10.5985 I-0.0456 J-0.1095
G1 Y9.7564 F150
G2 X5.7916 Y9.7436 I-0.0128 J0
G1 X5.326 Y9.7454
G3 X5.2703 Y9.7433 I0 J-0.7348
G1 X5.2646 Y9.7428
G3 X5.2148 Y9.7387 I0.3811 J-4.9404 F37.5
G2 X5.2046 Y9.7481 I-0.0008 J0.0094
G1 Y11.2819 F150
Y11.3319 F37.5
G2 X5.2148 Y11.3413 I0.0094 J0
G3 X5.2703 Y11.3368 I0.4309 J4.9363 F150
X5.326 Y11.3347 I0.0557 J0.7326
G1 X5.7916 Y11.3364
G2 X5.8044 Y11.3236 I0 J-0.0128
G1 Y10.5985
G3 X5.8774 Y10.489 I0.1186 J0 F200
G2 X5.9504 Y10.3795 I-0.0456 J-0.1095
G1 Y9.6104 F150
G2 X5.9376 Y9.5976 I-0.0128 J0
G1 X5.326 Y9.5994
G3 X5.1972 Y9.5912 I0 J-1.0106
X5.119 Y9.5787 I0.1645 J-1.2801
X5.0701 Y9.5684 I0.2427 J-1.2676 F37.5
G2 X5.0587 Y9.5775 I-0.0021 J0.0091
G1 X5.0586 Y11.4525 F150
Y11.5025 F37.5
G2 X5.0701 Y11.5117 I0.0094 J0
G3 X5.1972 Y11.4889 I0.2916 J1.2572 F150
X5.326 Y11.4807 I0.1288 J1.0023
G1 X5.9376 Y11.4824
G2 X5.9504 Y11.4696 I0 J-0.0128
G1 Y10.3795
G3 X6.0234 Y10.27 I0.1186 J0 F200
G2 X6.0964 Y10.1605 I-0.0456 J-0.1095
G1 Y9.4644 F150
G2 X6.0836 Y9.4516 I-0.0128 J0
G1 X5.326 Y9.4534
G3 X5.1196 Y9.4307 I0 J-0.9493
X4.9685 Y9.3846 I0.2237 J-1.0044
X4.9224 Y9.3653 I0.3748 J-0.9583 F37.5
G2 X4.9126 Y9.3717 I-0.0028 J0.0064
G1 Y11.6583 F150
Y11.7083 F37.5
G2 X4.9224 Y11.7147 I0.007 J0
G3 X5.1196 Y11.6493 I0.4209 J0.939 F150
X5.326 Y11.6266 I0.2064 J0.9266
G1 X6.0836 Y11.6284
G2 X6.0964 Y11.6156 I0 J-0.0128
G1 Y10.1605
G3 X6.1694 Y10.051 I0.1186 J0 F200
G2 X6.2424 Y9.9415 I-0.0456 J-0.1095
G1 Y9.3184 F150
G2 X6.2296 Y9.3056 I-0.0128 J0
G1 X5.326 Y9.3074
G3 X5.0319 Y9.2534 I0 J-0.8284
X4.8139 Y9.1316 I0.3036 J-0.7993
X4.7752 Y9.1 I0.5216 J-0.6775 F37.5
G1 X4.7737 Y9.0991
X4.7721 Y9.0987
X4.7704 Y9.0989
X4.7689 Y9.0996
X4.7676 Y9.1008
X4.7668 Y9.1023
X4.7666 Y9.1039
Y11.9261 F150
Y11.9761 F37.5
X4.7668 Y11.9777
X4.7676 Y11.9792
X4.7689 Y11.9804
X4.7704 Y11.9811
X4.7721 Y11.9813
X4.7737 Y11.9809
X4.7752 Y11.98
G3 X5.0319 Y11.8266 I0.5603 J0.6459 F150
X5.326 Y11.7726 I0.2941 J0.7744
G1 X6.2296 Y11.7744
G2 X6.2424 Y11.7616 I0 J-0.0128
G1 Y9.9415
G3 X6.3154 Y9.832 I0.1186 J0 F200
G2 X6.3884 Y9.7225 I-0.0456 J-0.1095
G1 Y9.1724 F150
G2 X6.3756 Y9.1596 I-0.0128 J0
G1 X5.326 Y9.1614
G3 X4.6296 Y8.465 I0 J-0.6964
X4.6305 Y8.3899 I3.1341 J0
G2 X4.631 Y8.3648 I-3.1332 J-0.0751
X4.6314 Y8.3148 I-3.1337 J-0.05 F37.5
G1 X4.6311 Y8.3132
X4.6304 Y8.3117
X4.6293 Y8.3106
X4.6278 Y8.3098
X4.6262 Y8.3096
X4.6258
X4.6242 Y8.3098
X4.6227 Y8.3106
X4.6216 Y8.3117
X4.6208 Y8.3132
X4.6206 Y8.3148
Y12.7152 F150
Y12.7652 F37.5
X4.6208 Y12.7668
X4.6216 Y12.7683
X4.6227 Y12.7694
X4.6242 Y12.7702
X4.6258 Y12.7704
X4.6262
X4.6278 Y12.7702
X4.6293 Y12.7694
X4.6304 Y12.7683
X4.6311 Y12.7668
X4.6314 Y12.7652
G2 X4.6305 Y12.6901 I-3.1341 J0 F150
G3 X4.6296 Y12.615 I3.1332 J-0.0751
X5.326 Y11.9186 I0.6964 J0
G1 X6.3756 Y11.9204
G2 X6.3884 Y11.9076 I0 J-0.0128
G1 Y9.7225
G3 X6.4546 Y9.6232 I0.1076 J0 F200
G2 X6.5208 Y9.5239 I-0.0414 J-0.0993
G1 Y9.04 F150
G2 X6.508 Y9.0272 I-0.0128 J0
G1 X5.326 Y9.029
G3 X4.762 Y8.465 I0 J-0.564
X4.7629 Y8.3275 I10.5059 J0
G2 X4.7638 Y8.19 I-10.505 J-0.1375
X4.751 Y8.1772 I-0.0128 J0
G1 X4.501
G2 X4.4882 Y8.19 I0 J0.0128
G1 Y12.89
G2 X4.501 Y12.9028 I0.0128 J0
G1 X4.7211
X4.751 F37.5
G2 X4.7638 Y12.89 I0 J-0.0128
X4.7629 Y12.7525 I-10.5059 J0 F150
G3 X4.762 Y12.615 I10.505 J-0.1375
X5.326 Y12.051 I0.564 J0
G1 X6.508 Y12.0528
G2 X6.5208 Y12.04 I0 J-0.0128
G1 Y9.5239
G3 X6.5938 Y9.4144 I0.1186 J0 F200
G2 X6.6668 Y9.3049 I-0.0456 J-0.1095
G1 Y8.894 F150
G2 X6.654 Y8.8812 I-0.0128 J0
G1 X5.326 Y8.883
G3 X4.908 Y8.465 I0 J-0.418
G1 X4.9098 Y8.044
G2 X4.897 Y8.0312 I-0.0128 J0
G1 X4.355
G2 X4.3422 Y8.044 I0 J0.0128
G1 Y13.036
G2 X4.355 Y13.0488 I0.0128 J0
G1 X4.897
G2 X4.9098 Y13.036 I0 J-0.0128
G1 X4.908 Y12.615
G3 X5.326 Y12.197 I0.418 J0
G1 X6.654 Y12.1988
G2 X6.6668 Y12.186 I0 J-0.0128
G1 Y9.3049
G3 X6.7399 Y9.1952 I0.1188 J0 F200
G2 X6.8129 Y9.0856 I-0.0457 J-0.1096
G1 X6.813 Y8.785 F150
Y8.735 F37.5
X5.326 F150
G3 X5.056 Y8.465 I0 J-0.27
G1 Y7.935
Y7.885 F37.5
X4.246 F150
X4.196 F37.5
Y13.145 F150
Y13.195 F37.5
X5.006 F150
X5.056 F37.5
Y12.615 F150
G3 X5.326 Y12.345 I0.27 J0
G1 X6.763
X6.813 F37.5
Y9.0856 F150
G3 X6.8255 Y9.0669 I0.0203 J0 F200
G2 X6.8381 Y9.0481 I-0.0078 J-0.0188
G1 X6.838 Y8.76 F400
Y8.71 F37.5
X5.326 F400
G3 X5.081 Y8.465 I0 J-0.245
G1 Y7.91
Y7.86 F37.5
X4.221 F400
X4.171 F37.5
Y13.17 F400
Y13.22 F37.5
X5.031 F400
X5.081 F37.5
Y12.615 F400
G3 X5.326 Y12.37 I0.245 J0
G1 X6.788
X6.838 F37.5
Y9.0481 F400
X6.8377 Y9.0443 Z0.4656 F200
X6.8368 Y9.0405 Z0.4662
X6.8355 Y9.0373 Z0.468
X6.8338 Y9.0343 Z0.4698
X6.8321 Y9.032 Z0.4725
X6.8302 Y9.03 Z0.4753
X6.8275 Y9.0278 Z0.4823
X6.8265 Y9.0271 Z0.49
G0 Z0.99
X5.5098 Y11.0116
G1 Z0.59 F15
X5.5095 Y11.0104 Z0.5824
X5.5087 Y11.0071 Z0.5756
X5.5073 Y11.002 Z0.5701
X5.5051 Y10.9956 Z0.5664
X5.5023 Y10.9886 Z0.565
G2 X5.2851 Y11.0843 Z0.552 I-0.1086 J0.0479
X5.5023 Y10.9887 Z0.5389 I0.1086 J-0.0478
X5.2851 Y11.0843 Z0.5259 I-0.1086 J0.0478
X5.5023 Y10.9887 Z0.5129 I0.1086 J-0.0478
X5.2851 Y11.0843 Z0.4999 I-0.1086 J0.0478
X5.5023 Y10.9887 Z0.4868 I0.1086 J-0.0478
X5.2851 Y11.0843 Z0.4738 I-0.1086 J0.0478
X5.5023 Y10.9887 Z0.4608 I0.1086 J-0.0478
X5.2851 Y11.0843 Z0.4478 I-0.1086 J0.0478
X5.5023 Y10.9887 Z0.4347 I0.1086 J-0.0478
X5.2851 Y11.0843 Z0.4217 I-0.1086 J0.0478
X5.5023 Y10.9887 Z0.4087 I0.1086 J-0.0478
X5.2851 Y11.0843 Z0.3956 I-0.1086 J0.0478
X5.5023 Y10.9887 Z0.3826 I0.1086 J-0.0478
X5.2851 Y11.0843 Z0.3696 I-0.1086 J0.0478
X5.5023 Y10.9887 Z0.3566 I0.1086 J-0.0478
X5.2851 Y11.0843 Z0.3435 I-0.1086 J0.0478
X5.5023 Y10.9887 Z0.3305 I0.1086 J-0.0478
X5.2851 Y11.0843 Z0.3175 I-0.1086 J0.0478
X5.5023 Y10.9887 Z0.3044 I0.1086 J-0.0478
X5.2851 Y11.0843 Z0.2914 I-0.1086 J0.0478
X5.5023 Y10.9887 Z0.2784 I0.1086 J-0.0478
X5.2851 Y11.0843 Z0.2654 I-0.1086 J0.0478
X5.5023 Y10.9887 Z0.2523 I0.1086 J-0.0478
X5.2851 Y11.0843 Z0.2393 I-0.1086 J0.0478
X5.5124 Y11.0365 Z0.228 I0.1086 J-0.0478
G1 Y10.0926 F150
Y10.0426 F37.5
G2 X5.5054 Y10.0356 I-0.007 J0
G1 X5.5036
G2 X5.4966 Y10.0426 I0 J0.007
G1 Y10.9874 F150
Y11.0374 F37.5
G2 X5.5036 Y11.0444 I0.007 J0
G1 X5.5054
G2 X5.5124 Y11.0374 I0 J-0.007
G1 Y11.0365 F150
G3 X5.5854 Y10.927 I0.1186 J0 F200
G2 X5.6584 Y10.8175 I-0.0456 J-0.1095
G1 Y9.9024 F150
G2 X5.6456 Y9.8896 I-0.0128 J0
G1 X5.3633
G2 X5.3505 Y9.9024 I0 J0.0128
G1 X5.3506 Y11.1776
G2 X5.3633 Y11.1903 I0.0127 J0
G1 X5.6456 Y11.1904
G2 X5.6584 Y11.1776 I0 J-0.0128
G1 Y10.8175
G3 X5.7314 Y10.708 I0.1186 J0 F200
G2 X5.8044 Y10.5985 I-0.0456 J-0.1095
G1 Y9.7564 F150
G2 X5.7916 Y9.7436 I-0.0128 J0
G1 X5.326 Y9.7454
G3 X5.2703 Y9.7433 I0 J-0.7348
G1 X5.2646 Y9.7428
G3 X5.2148 Y9.7387 I0.3811 J-4.9404 F37.5
G2 X5.2046 Y9.7481 I-0.0008 J0.0094
G1 Y11.2819 F150
Y11.3319 F37.5
G2 X5.2148 Y11.3413 I0.0094 J0
G3 X5.2703 Y11.3368 I0.4309 J4.9363 F150
X5.326 Y11.3347 I0.0557 J0.7326
G1 X5.7916 Y11.3364
G2 X5.8044 Y11.3236 I0 J-0.0128
G1 Y10.5985
G3 X5.8774 Y10.489 I0.1186 J0 F200
G2 X5.9504 Y10.3795 I-0.0456 J-0.1095
G1 Y9.6104 F150
G2 X5.9376 Y9.5976 I-0.0128 J0
G1 X5.326 Y9.5994
G3 X5.1972 Y9.5912 I0 J-1.0106
X5.119 Y9.5787 I0.1645 J-1.2801
X5.0701 Y9.5684 I0.2427 J-1.2676 F37.5
G2 X5.0587 Y9.5775 I-0.0021 J0.0091
G1 X5.0586 Y11.4525 F150
Y11.5025 F37.5
G2 X5.0701 Y11.5117 I0.0094 J0
G3 X5.1972 Y11.4889 I0.2916 J1.2572 F150
X5.326 Y11.4807 I0.1288 J1.0023
G1 X5.9376 Y11.4824
G2 X5.9504 Y11.4696 I0 J-0.0128
G1 Y10.3795
G3 X6.0234 Y10.27 I0.1186 J0 F200
G2 X6.0964 Y10.1605 I-0.0456 J-0.1095
G1 Y9.4644 F150
G2 X6.0836 Y9.4516 I-0.0128 J0
G1 X5.326 Y9.4534
G3 X5.1196 Y9.4307 I0 J-0.9493
X4.9685 Y9.3846 I0.2237 J-1.0044
X4.9224 Y9.3653 I0.3748 J-0.9583 F37.5
G2 X4.9126 Y9.3717 I-0.0028 J0.0064
G1 Y11.6583 F150
Y11.7083 F37.5
G2 X4.9224 Y11.7147 I0.007 J0
G3 X5.1196 Y11.6493 I0.4209 J0.939 F150
X5.326 Y11.6266 I0.2064 J0.9266
G1 X6.0836 Y11.6284
G2 X6.0964 Y11.6156 I0 J-0.0128
G1 Y10.1605
G3 X6.1694 Y10.051 I0.1186 J0 F200
G2 X6.2424 Y9.9415 I-0.0456 J-0.1095
G1 Y9.3184 F150
G2 X6.2296 Y9.3056 I-0.0128 J0
G1 X5.326 Y9.3074
G3 X5.0319 Y9.2534 I0 J-0.8284
X4.8139 Y9.1316 I0.3036 J-0.7993
X4.7752 Y9.1 I0.5216 J-0.6775 F37.5
G1 X4.7737 Y9.0991
X4.7721 Y9.0987
X4.7704 Y9.0989
X4.7689 Y9.0996
X4.7676 Y9.1008
X4.7668 Y9.1023
X4.7666 Y9.1039
Y11.9261 F150
Y11.9761 F37.5
X4.7668 Y11.9777
X4.7676 Y11.9792
X4.7689 Y11.9804
X4.7704 Y11.9811
X4.7721 Y11.9813
X4.7737 Y11.9809
X4.7752 Y11.98
G3 X5.0319 Y11.8266 I0.5603 J0.6459 F150
X5.326 Y11.7726 I0.2941 J0.7744
G1 X6.2296 Y11.7744
G2 X6.2424 Y11.7616 I0 J-0.0128
G1 Y9.9415
G3 X6.3154 Y9.832 I0.1186 J0 F200
G2 X6.3884 Y9.7225 I-0.0456 J-0.1095
G1 Y9.1724 F150
G2 X6.3756 Y9.1596 I-0.0128 J0
G1 X5.326 Y9.1614
G3 X4.6296 Y8.465 I0 J-0.6964
X4.6305 Y8.3899 I3.1341 J0
G2 X4.631 Y8.3648 I-3.1332 J-0.0751
X4.6314 Y8.3148 I-3.1337 J-0.05 F37.5
G1 X4.6311 Y8.3132
X4.6304 Y8.3117
X4.6293 Y8.3106
X4.6278 Y8.3098
X4.6262 Y8.3096
X4.6258
X4.6242 Y8.3098
X4.6227 Y8.3106
X4.6216 Y8.3117
X4.6208 Y8.3132
X4.6206 Y8.3148
Y12.7152 F150
Y12.7652 F37.5
X4.6208 Y12.7668
X4.6216 Y12.7683
X4.6227 Y12.7694
X4.6242 Y12.7702
X4.6258 Y12.7704
X4.6262
X4.6278 Y12.7702
X4.6293 Y12.7694
X4.6304 Y12.7683
X4.6311 Y12.7668
X4.6314 Y12.7652
G2 X4.6305 Y12.6901 I-3.1341 J0 F150
G3 X4.6296 Y12.615 I3.1332 J-0.0751
X5.326 Y11.9186 I0.6964 J0
G1 X6.3756 Y11.9204
G2 X6.3884 Y11.9076 I0 J-0.0128
G1 Y9.7225
G3 X6.4546 Y9.6232 I0.1076 J0 F200
G2 X6.5208 Y9.5239 I-0.0414 J-0.0993
G1 Y9.04 F150
G2 X6.508 Y9.0272 I-0.0128 J0
G1 X5.326 Y9.029
G3 X4.762 Y8.465 I0 J-0.564
X4.7629 Y8.3275 I10.5059 J0
G2 X4.7638 Y8.19 I-10.505 J-0.1375
X4.751 Y8.1772 I-0.0128 J0
G1 X4.501
G2 X4.4882 Y8.19 I0 J0.0128
G1 Y12.89
G2 X4.501 Y12.9028 I0.0128 J0
G1 X4.7211
X4.751 F37.5
G2 X4.7638 Y12.89 I0 J-0.0128
X4.7629 Y12.7525 I-10.5059 J0 F150
G3 X4.762 Y12.615 I10.505 J-0.1375
X5.326 Y12.051 I0.564 J0
G1 X6.508 Y12.0528
G2 X6.5208 Y12.04 I0 J-0.0128
G1 Y9.5239
G3 X6.5938 Y9.4144 I0.1186 J0 F200
G2 X6.6668 Y9.3049 I-0.0456 J-0.1095
G1 Y8.894 F150
G2 X6.654 Y8.8812 I-0.0128 J0
G1 X5.326 Y8.883
G3 X4.908 Y8.465 I0 J-0.418
G1 X4.9098 Y8.044
G2 X4.897 Y8.0312 I-0.0128 J0
G1 X4.355
G2 X4.3422 Y8.044 I0 J0.0128
G1 Y13.036
G2 X4.355 Y13.0488 I0.0128 J0
G1 X4.897
G2 X4.9098 Y13.036 I0 J-0.0128
G1 X4.908 Y12.615
G3 X5.326 Y12.197 I0.418 J0
G1 X6.654 Y12.1988
G2 X6.6668 Y12.186 I0 J-0.0128
G1 Y9.3049
G3 X6.7399 Y9.1952 I0.1188 J0 F200
G2 X6.8129 Y9.0856 I-0.0457 J-0.1096
G1 X6.813 Y8.785 F150
Y8.735 F37.5
X5.326 F150
G3 X5.056 Y8.465 I0 J-0.27
G1 Y7.935
Y7.885 F37.5
X4.246 F150
X4.196 F37.5
Y13.145 F150
Y13.195 F37.5
X5.006 F150
X5.056 F37.5
Y12.615 F150
G3 X5.326 Y12.345 I0.27 J0
G1 X6.763
X6.813 F37.5
Y9.0856 F150
G3 X6.8255 Y9.0669 I0.0203 J0 F200
G2 X6.8381 Y9.0481 I-0.0078 J-0.0188
G1 X6.838 Y8.76 F400
Y8.71 F37.5
X5.326 F400
G3 X5.081 Y8.465 I0 J-0.245
G1 Y7.91
Y7.86 F37.5
X4.221 F400
X4.171 F37.5
Y13.17 F400
Y13.22 F37.5
X5.031 F400
X5.081 F37.5
Y12.615 F400
G3 X5.326 Y12.37 I0.245 J0
G1 X6.788
X6.838 F37.5
Y9.0481 F400
X6.8377 Y9.0443 Z0.2286 F200
X6.8368 Y9.0405 Z0.2292
X6.8355 Y9.0373 Z0.231
X6.8338 Y9.0343 Z0.2328
X6.8321 Y9.032 Z0.2355
X6.8302 Y9.03 Z0.2383
X6.8275 Y9.0278 Z0.2453
X6.8265 Y9.0271 Z0.253
G0 Z0.99
X5.446 Y11.1431
G1 Z0.353 F15
X5.447 Y11.1426 Z0.3454
X5.4501 Y11.141 Z0.3386
X5.4547 Y11.1384 Z0.3331
X5.4603 Y11.1347 Z0.3294
X5.4664 Y11.1303 Z0.328
G2 X5.3209 Y10.9427 Z0.315 I-0.0727 J-0.0938
X5.4664 Y11.1303 Z0.3019 I0.0728 J0.0938
X5.3209 Y10.9427 Z0.2889 I-0.0727 J-0.0938
X5.4664 Y11.1303 Z0.2759 I0.0728 J0.0938
X5.3209 Y10.9427 Z0.2629 I-0.0727 J-0.0938
X5.4664 Y11.1303 Z0.2498 I0.0728 J0.0938
X5.3209 Y10.9427 Z0.2368 I-0.0727 J-0.0938
X5.4664 Y11.1303 Z0.2238 I0.0728 J0.0938
X5.5124 Y11.0365 Z0.22 I-0.0727 J-0.0938
G1 Y10.0926 F150
Y10.0426 F37.5
G2 X5.5054 Y10.0356 I-0.007 J0
G1 X5.5036
G2 X5.4966 Y10.0426 I0 J0.007
G1 Y10.9874 F150
Y11.0374 F37.5
G2 X5.5036 Y11.0444 I0.007 J0
G1 X5.5054
G2 X5.5124 Y11.0374 I0 J-0.007
G1 Y11.0365 F150
G3 X5.5854 Y10.927 I0.1186 J0 F200
G2 X5.6584 Y10.8175 I-0.0456 J-0.1095
G1 Y9.9024 F150
G2 X5.6456 Y9.8896 I-0.0128 J0
G1 X5.3633
G2 X5.3505 Y9.9024 I0 J0.0128
G1 X5.3506 Y11.1776
G2 X5.3633 Y11.1903 I0.0127 J0
G1 X5.6456 Y11.1904
G2 X5.6584 Y11.1776 I0 J-0.0128
G1 Y10.8175
G3 X5.7314 Y10.708 I0.1186 J0 F200
G2 X5.8044 Y10.5985 I-0.0456 J-0.1095
G1 Y9.7564 F150
G2 X5.7916 Y9.7436 I-0.0128 J0
G1 X5.326 Y9.7454
G3 X5.2703 Y9.7433 I0 J-0.7348
G1 X5.2646 Y9.7428
G3 X5.2148 Y9.7387 I0.3811 J-4.9404 F37.5
G2 X5.2046 Y9.7481 I-0.0008 J0.0094
G1 Y11.2819 F150
Y11.3319 F37.5
G2 X5.2148 Y11.3413 I0.0094 J0
G3 X5.2703 Y11.3368 I0.4309 J4.9363 F150
X5.326 Y11.3347 I0.0557 J0.7326
G1 X5.7916 Y11.3364
G2 X5.8044 Y11.3236 I0 J-0.0128
G1 Y10.5985
G3 X5.8774 Y10.489 I0.1186 J0 F200
G2 X5.9504 Y10.3795 I-0.0456 J-0.1095
G1 Y9.6104 F150
G2 X5.9376 Y9.5976 I-0.0128 J0
G1 X5.326 Y9.5994
G3 X5.1972 Y9.5912 I0 J-1.0106
