%
(Dominion Wheel 23.1.4)
(slower feeds)
(Machine)
(  vendor: Carbide3D)
(  model: Shapeoko 4 XXL)
(  description: Shapeoko 4 XXL)
(T1  D=0.25 CR=0 - ZMIN=0 - flat end mill)
G90
G17
G20
G28 G91 Z0
G90

(2D Pocket5)
T1 M6
S18000 M3
G54
G0 X10.0562 Y-0.3943
Z1.3894
Z1.1037
G1 Z0.6246 F25
G19 G3 Y-0.3693 Z0.5996 J0.025 K0 F162
G1 Y-0.0795
Y2.0022
G17 G3 X10.0434 Y2.015 I-0.0128 J0
G1 X10.0353
G3 X10.0225 Y2.0022 I0 J-0.0128
G1 X10.0226 Y-0.0794
G3 X10.0351 Y-0.0919 I0.0125 J0
G1 X10.1897
G3 X10.2022 Y-0.0794 I0 J0.0125
G1 Y2.1482
G3 X10.1894 Y2.161 I-0.0128 J0
G1 X9.8893
G3 X9.8765 Y2.1482 I0 J-0.0128
G1 X9.8766 Y-0.0794
G3 X9.8892 Y-0.0919 I0.0125 J0
G1 X10.3358 Y-0.0874
G3 X10.3482 Y-0.0749 I-0.0001 J0.0125
G1 Y2.2942
G3 X10.3354 Y2.307 I-0.0128 J0
G1 X9.7433
G3 X9.7305 Y2.2942 I0 J-0.0128
G1 X9.7306 Y-0.0751
G3 X9.7432 Y-0.0876 I0.0125 J0
G1 X10.4818 Y-0.082
G3 X10.4942 Y-0.0695 I-0.0001 J0.0125
G1 Y2.4402
G3 X10.4814 Y2.453 I-0.0128 J0
G1 X9.5973
G3 X9.5845 Y2.4402 I0 J-0.0128
G1 X9.5846 Y-0.0698
G3 X9.5972 Y-0.0823 I0.0125 J0
G1 X10.6278 Y-0.0756
G3 X10.6402 Y-0.0631 I-0.0001 J0.0125
G1 Y2.5862
G3 X10.6274 Y2.599 I-0.0128 J0
G1 X9.4513
G3 X9.4385 Y2.5862 I0 J-0.0128
G1 X9.4386 Y-0.063
G3 X9.4512 Y-0.0755 I0.0125 J0
G1 X10.7738 Y-0.0647
G3 X10.7862 Y-0.0522 I-0.0001 J0.0125
G1 Y2.7322
G3 X10.7734 Y2.745 I-0.0128 J0
G1 X9.3053
G3 X9.2925 Y2.7322 I0 J-0.0128
G1 X9.2926 Y-0.0522
G3 X9.3052 Y-0.0647 I0.0125 J0
G1 X10.9198 Y-0.0534
G3 X10.9322 Y-0.0409 I-0.0001 J0.0125
G1 Y2.8782
G3 X10.9194 Y2.891 I-0.0128 J0
G1 X9.1593
G3 X9.1465 Y2.8782 I0 J-0.0128
G1 X9.1466 Y-0.041
G3 X9.1592 Y-0.0535 I0.0125 J0
G1 X11.0658 Y-0.0391
G3 X11.0782 Y-0.0266 I-0.0001 J0.0125
G1 Y3.0242
G3 X11.0654 Y3.037 I-0.0128 J0
G1 X9.0133
G3 X9.0005 Y3.0242 I0 J-0.0128
G1 X9.0006 Y-0.0269
Y-0.1519
G19 G2 Y-0.1769 Z0.6246 J0 K0.025
G0 Z1.1037
X11.1738 Y-0.3313
G1 Z0.6221 F25
X11.1739 Y-0.331 Z0.6186 F162
X11.174 Y-0.3302 Z0.6151
X11.1742 Y-0.3289 Z0.6119
X11.1745 Y-0.327 Z0.6089
X11.1748 Y-0.3248 Z0.6062
X11.1753 Y-0.3221 Z0.6039
X11.1757 Y-0.3192 Z0.602
X11.1762 Y-0.3159 Z0.6007
X11.1768 Y-0.3125 Z0.5999
X11.1773 Y-0.3091 Z0.5996
X11.2241 Y-0.014
X11.2244 Y-0.0101
Y3.1832
X8.8544
Y0.1282
Y-0.01
G17 G3 X8.8656 Y-0.0224 I0.0125 J0
G1 X10.0424 Y-0.1429
G3 X10.0562 Y-0.1305 I0.0013 J0.0124
G19 G2 Y-0.1055 Z0.5746 J0 K-0.025
G1 Z0.4348
G3 Y-0.0805 Z0.4098 J0.025 K0
G1 Y-0.0795
Y2.0022
G17 G3 X10.0434 Y2.015 I-0.0128 J0
G1 X10.0353
G3 X10.0225 Y2.0022 I0 J-0.0128
G1 X10.0226 Y-0.0794
G3 X10.0351 Y-0.0919 I0.0125 J0
G1 X10.1897
G3 X10.2022 Y-0.0794 I0 J0.0125
G1 Y2.1482
G3 X10.1894 Y2.161 I-0.0128 J0
G1 X9.8893
G3 X9.8765 Y2.1482 I0 J-0.0128
G1 X9.8766 Y-0.0794
G3 X9.8892 Y-0.0919 I0.0125 J0
G1 X10.3358 Y-0.0874
G3 X10.3482 Y-0.0749 I-0.0001 J0.0125
G1 Y2.2942
G3 X10.3354 Y2.307 I-0.0128 J0
G1 X9.7433
G3 X9.7305 Y2.2942 I0 J-0.0128
G1 X9.7306 Y-0.0751
G3 X9.7432 Y-0.0876 I0.0125 J0
G1 X10.4818 Y-0.082
G3 X10.4942 Y-0.0695 I-0.0001 J0.0125
G1 Y2.4402
G3 X10.4814 Y2.453 I-0.0128 J0
G1 X9.5973
G3 X9.5845 Y2.4402 I0 J-0.0128
G1 X9.5846 Y-0.0698
G3 X9.5972 Y-0.0823 I0.0125 J0
G1 X10.6278 Y-0.0756
G3 X10.6402 Y-0.0631 I-0.0001 J0.0125
G1 Y2.5862
G3 X10.6274 Y2.599 I-0.0128 J0
G1 X9.4513
G3 X9.4385 Y2.5862 I0 J-0.0128
G1 X9.4386 Y-0.063
G3 X9.4512 Y-0.0755 I0.0125 J0
G1 X10.7738 Y-0.0647
G3 X10.7862 Y-0.0522 I-0.0001 J0.0125
G1 Y2.7322
G3 X10.7734 Y2.745 I-0.0128 J0
G1 X9.3053
G3 X9.2925 Y2.7322 I0 J-0.0128
G1 X9.2926 Y-0.0522
G3 X9.3052 Y-0.0647 I0.0125 J0
G1 X10.9198 Y-0.0534
G3 X10.9322 Y-0.0409 I-0.0001 J0.0125
G1 Y2.8782
G3 X10.9194 Y2.891 I-0.0128 J0
G1 X9.1593
G3 X9.1465 Y2.8782 I0 J-0.0128
G1 X9.1466 Y-0.041
G3 X9.1592 Y-0.0535 I0.0125 J0
G1 X11.0658 Y-0.0391
G3 X11.0782 Y-0.0266 I-0.0001 J0.0125
G1 Y3.0242
G3 X11.0654 Y3.037 I-0.0128 J0
G1 X9.0133
G3 X9.0005 Y3.0242 I0 J-0.0128
G1 X9.0006 Y-0.0269
Y-0.1519
G19 G2 Y-0.1769 Z0.4348 J0 K0.025
G0 Z1.1037
X11.1738 Y-0.3313
G1 Z0.4323 F25
X11.1739 Y-0.331 Z0.4288 F162
X11.174 Y-0.3302 Z0.4253
X11.1742 Y-0.3289 Z0.4221
X11.1745 Y-0.327 Z0.4191
X11.1748 Y-0.3248 Z0.4164
X11.1753 Y-0.3221 Z0.4141
X11.1757 Y-0.3192 Z0.4122
X11.1762 Y-0.3159 Z0.4109
X11.1768 Y-0.3125 Z0.4101
X11.1773 Y-0.3091 Z0.4098
X11.2241 Y-0.014
X11.2244 Y-0.0101
Y3.1832
X8.8544
Y0.1282
Y-0.01
G17 G3 X8.8656 Y-0.0224 I0.0125 J0
G1 X10.0424 Y-0.1429
G3 X10.0562 Y-0.1305 I0.0013 J0.0124
G19 G2 Y-0.1055 Z0.3848 J0 K-0.025
G1 Z0.245
G3 Y-0.0805 Z0.22 J0.025 K0
G1 Y-0.0795
Y2.0022
G17 G3 X10.0434 Y2.015 I-0.0128 J0
G1 X10.0353
G3 X10.0225 Y2.0022 I0 J-0.0128
G1 X10.0226 Y-0.0794
G3 X10.0351 Y-0.0919 I0.0125 J0
G1 X10.1897
G3 X10.2022 Y-0.0794 I0 J0.0125
G1 Y2.1482
G3 X10.1894 Y2.161 I-0.0128 J0
G1 X9.8893
G3 X9.8765 Y2.1482 I0 J-0.0128
G1 X9.8766 Y-0.0794
G3 X9.8892 Y-0.0919 I0.0125 J0
G1 X10.3358 Y-0.0874
G3 X10.3482 Y-0.0749 I-0.0001 J0.0125
G1 Y2.2942
G3 X10.3354 Y2.307 I-0.0128 J0
G1 X9.7433
G3 X9.7305 Y2.2942 I0 J-0.0128
G1 X9.7306 Y-0.0751
G3 X9.7432 Y-0.0876 I0.0125 J0
G1 X10.4818 Y-0.082
G3 X10.4942 Y-0.0695 I-0.0001 J0.0125
G1 Y2.4402
G3 X10.4814 Y2.453 I-0.0128 J0
G1 X9.5973
G3 X9.5845 Y2.4402 I0 J-0.0128
G1 X9.5846 Y-0.0698
G3 X9.5972 Y-0.0823 I0.0125 J0
G1 X10.6278 Y-0.0756
G3 X10.6402 Y-0.0631 I-0.0001 J0.0125
G1 Y2.5862
G3 X10.6274 Y2.599 I-0.0128 J0
G1 X9.4513
G3 X9.4385 Y2.5862 I0 J-0.0128
G1 X9.4386 Y-0.063
G3 X9.4512 Y-0.0755 I0.0125 J0
G1 X10.7738 Y-0.0647
G3 X10.7862 Y-0.0522 I-0.0001 J0.0125
G1 Y2.7322
G3 X10.7734 Y2.745 I-0.0128 J0
G1 X9.3053
G3 X9.2925 Y2.7322 I0 J-0.0128
G1 X9.2926 Y-0.0522
G3 X9.3052 Y-0.0647 I0.0125 J0
G1 X10.9198 Y-0.0534
G3 X10.9322 Y-0.0409 I-0.0001 J0.0125
G1 Y2.8782
G3 X10.9194 Y2.891 I-0.0128 J0
G1 X9.1593
G3 X9.1465 Y2.8782 I0 J-0.0128
G1 X9.1466 Y-0.041
G3 X9.1592 Y-0.0535 I0.0125 J0
G1 X11.0658 Y-0.0391
G3 X11.0782 Y-0.0266 I-0.0001 J0.0125
G1 Y3.0242
G3 X11.0654 Y3.037 I-0.0128 J0
G1 X9.0133
G3 X9.0005 Y3.0242 I0 J-0.0128
G1 X9.0006 Y-0.0269
Y-0.1519
G19 G2 Y-0.1769 Z0.245 J0 K0.025
G0 Z1.1037
X11.1738 Y-0.3313
G1 Z0.2425 F25
X11.1739 Y-0.331 Z0.239 F162
X11.174 Y-0.3302 Z0.2355
X11.1742 Y-0.3289 Z0.2323
X11.1745 Y-0.327 Z0.2293
X11.1748 Y-0.3248 Z0.2266
X11.1753 Y-0.3221 Z0.2243
X11.1757 Y-0.3192 Z0.2225
X11.1762 Y-0.3159 Z0.2211
X11.1768 Y-0.3125 Z0.2203
X11.1773 Y-0.3091 Z0.22
X11.2241 Y-0.014
X11.2244 Y-0.0101
Y3.1832
X8.8544
Y0.1282
Y-0.01
X8.8547 Y-0.0139
X8.8742 Y-0.1374
X8.8748 Y-0.1412 Z0.2203
X8.8754 Y-0.145 Z0.2212
X8.876 Y-0.1486 Z0.2227
X8.8765 Y-0.1519 Z0.2248
X8.877 Y-0.1548 Z0.2273
X8.8774 Y-0.1574 Z0.2303
X8.8777 Y-0.1594 Z0.2337
X8.878 Y-0.1609 Z0.2373
X8.8781 Y-0.1618 Z0.2411
Y-0.1621 Z0.245
G0 Z1.3894
X5.5278 Y0.6323
Z1.1037
G1 Z0.6246 F25
X5.528 Y0.6326 Z0.6207 F162
X5.5283 Y0.6334 Z0.6169
X5.529 Y0.6348 Z0.6132
X5.5299 Y0.6366 Z0.6099
X5.531 Y0.6389 Z0.6069
X5.5323 Y0.6416 Z0.6044
X5.5337 Y0.6446 Z0.6023
X5.5353 Y0.6479 Z0.6008
X5.537 Y0.6513 Z0.5999
X5.5387 Y0.6548 Z0.5996
X5.6642 Y0.9154
X6.5673 Y2.7909
G17 G3 X6.5613 Y2.8079 I-0.0115 J0.0055
G1 X6.5541 Y2.8114
G3 X6.5371 Y2.8054 I-0.0055 J-0.0115
G1 X5.6339 Y0.93
G3 X5.6397 Y0.9134 I0.0112 J-0.0054
G1 X5.7788 Y0.8459
G3 X5.7956 Y0.8517 I0.0055 J0.0113
G1 X6.7622 Y2.8591
G3 X6.7562 Y2.8761 I-0.0115 J0.0055
G1 X6.4859 Y3.0063
G3 X6.4689 Y3.0003 I-0.0055 J-0.0115
G1 X5.5023 Y0.9933
G3 X5.5083 Y0.9766 I0.0113 J-0.0054
G1 X5.9126 Y0.7868
G3 X5.9292 Y0.7927 I0.0053 J0.0114
G1 X6.9571 Y2.9273
G3 X6.9511 Y2.9443 I-0.0115 J0.0055
G1 X6.4177 Y3.2012
G3 X6.4007 Y3.1952 I-0.0055 J-0.0115
G1 X5.3727 Y1.0605
G3 X5.3786 Y1.0439 I0.0112 J-0.0054
G1 X6.0464 Y0.7283
G3 X6.0629 Y0.7342 I0.0053 J0.0113
G1 X7.152 Y2.9955
G3 X7.146 Y3.0125 I-0.0115 J0.0055
G1 X6.3495 Y3.3961
G3 X6.3325 Y3.3901 I-0.0055 J-0.0115
G1 X5.2434 Y1.1287
G3 X5.2493 Y1.112 I0.0113 J-0.0054
G1 X6.1807 Y0.6706
G3 X6.1973 Y0.6765 I0.0053 J0.0113
G1 X7.3469 Y3.0637
G3 X7.3409 Y3.0807 I-0.0115 J0.0055
G1 X6.2813 Y3.591
G3 X6.2643 Y3.585 I-0.0055 J-0.0115
G1 X5.1148 Y1.1982
G3 X5.1207 Y1.1813 I0.0113 J-0.0055
G1 X6.3171 Y0.6173
G3 X6.3337 Y0.6232 I0.0053 J0.0113
G1 X7.5418 Y3.1319
G3 X7.5358 Y3.1489 I-0.0115 J0.0055
G1 X6.2131 Y3.7859
G3 X6.1961 Y3.7799 I-0.0055 J-0.0115
G1 X4.9879 Y1.2712
G3 X4.9939 Y1.2545 I0.0113 J-0.0054
G1 X6.4535 Y0.5641
G3 X6.47 Y0.57 I0.0053 J0.0113
G1 X7.7367 Y3.2
G3 X7.7307 Y3.2172 I-0.0116 J0.0056
G1 X6.1449 Y3.9808
G3 X6.1278 Y3.9748 I-0.0055 J-0.0116
G1 X4.8613 Y1.3446
G3 X4.8672 Y1.3279 I0.0112 J-0.0054
G1 X6.5911 Y0.5135
G3 X6.6078 Y0.5193 I0.0054 J0.0113
G1 X7.9315 Y3.2682
G3 X7.9256 Y3.2853 I-0.0115 J0.0056
G1 X6.0767 Y4.1756
G3 X6.0597 Y4.1697 I-0.0055 J-0.0115
G1 X4.7359 Y1.4207
X4.6816 Y1.3081
X4.6799 Y1.3046 Z0.5999
X4.6783 Y1.3011 Z0.6008
X4.6767 Y1.2979 Z0.6023
X4.6753 Y1.2949 Z0.6044
X4.674 Y1.2922 Z0.6069
X4.6729 Y1.2899 Z0.6099
X4.672 Y1.288 Z0.6132
X4.6713 Y1.2867 Z0.6169
X4.6709 Y1.2859 Z0.6207
X4.6708 Y1.2856 Z0.6246
G0 Z1.1037
X6.5611 Y0.2025
G1 Z0.6221 F25
X6.5613 Y0.2027 Z0.6186 F162
X6.5617 Y0.2034 Z0.6151
X6.5625 Y0.2045 Z0.6119
X6.5636 Y0.206 Z0.6089
X6.5649 Y0.2079 Z0.6062
X6.5664 Y0.2101 Z0.6039
X6.5681 Y0.2126 Z0.602
X6.57 Y0.2153 Z0.6007
X6.5719 Y0.2181 Z0.5999
X6.5739 Y0.221 Z0.5996
X6.7447 Y0.4676
X6.7467 Y0.4709
X6.8067 Y0.5956
X8.1322 Y3.348
X5.9969 Y4.3763
X4.6714 Y1.6239
X4.6115 Y1.4993
G3 X4.6162 Y1.4833 I0.0112 J-0.0054
G1 X5.6242 Y0.8643
G3 X5.6421 Y0.8695 I0.0066 J0.0106
G1 X5.6437 Y0.873 Z0.5993
X5.6454 Y0.8765 Z0.5984
X5.647 Y0.8797 Z0.5969
X5.6484 Y0.8828 Z0.5948
X5.6497 Y0.8854 Z0.5923
X5.6508 Y0.8877 Z0.5893
X5.6517 Y0.8896 Z0.5859
X5.6524 Y0.8909 Z0.5823
X5.6528 Y0.8918 Z0.5785
X5.6529 Y0.892 Z0.5746
Z0.4348
X5.653 Y0.8923 Z0.4309
X5.6534 Y0.8931 Z0.4271
X5.6541 Y0.8945 Z0.4234
X5.655 Y0.8963 Z0.4201
X5.6561 Y0.8986 Z0.4171
X5.6574 Y0.9013 Z0.4146
X5.6588 Y0.9043 Z0.4125
X5.6604 Y0.9076 Z0.411
X5.662 Y0.911 Z0.4101
X5.6637 Y0.9146 Z0.4098
X5.6642 Y0.9154
X6.5673 Y2.7909
G3 X6.5613 Y2.8079 I-0.0115 J0.0055
G1 X6.5541 Y2.8114
G3 X6.5371 Y2.8054 I-0.0055 J-0.0115
G1 X5.6339 Y0.93
G3 X5.6397 Y0.9134 I0.0112 J-0.0054
G1 X5.7788 Y0.8459
G3 X5.7956 Y0.8517 I0.0055 J0.0113
G1 X6.7622 Y2.8591
G3 X6.7562 Y2.8761 I-0.0115 J0.0055
G1 X6.4859 Y3.0063
G3 X6.4689 Y3.0003 I-0.0055 J-0.0115
G1 X5.5023 Y0.9933
G3 X5.5083 Y0.9766 I0.0113 J-0.0054
G1 X5.9126 Y0.7868
G3 X5.9292 Y0.7927 I0.0053 J0.0114
G1 X6.9571 Y2.9273
G3 X6.9511 Y2.9443 I-0.0115 J0.0055
G1 X6.4177 Y3.2012
G3 X6.4007 Y3.1952 I-0.0055 J-0.0115
G1 X5.3727 Y1.0605
G3 X5.3786 Y1.0439 I0.0112 J-0.0054
G1 X6.0464 Y0.7283
G3 X6.0629 Y0.7342 I0.0053 J0.0113
G1 X7.152 Y2.9955
G3 X7.146 Y3.0125 I-0.0115 J0.0055
G1 X6.3495 Y3.3961
G3 X6.3325 Y3.3901 I-0.0055 J-0.0115
G1 X5.2434 Y1.1287
G3 X5.2493 Y1.112 I0.0113 J-0.0054
G1 X6.1807 Y0.6706
G3 X6.1973 Y0.6765 I0.0053 J0.0113
G1 X7.3469 Y3.0637
G3 X7.3409 Y3.0807 I-0.0115 J0.0055
G1 X6.2813 Y3.591
G3 X6.2643 Y3.585 I-0.0055 J-0.0115
G1 X5.1148 Y1.1982
G3 X5.1207 Y1.1813 I0.0113 J-0.0055
G1 X6.3171 Y0.6173
G3 X6.3337 Y0.6232 I0.0053 J0.0113
G1 X7.5418 Y3.1319
G3 X7.5358 Y3.1489 I-0.0115 J0.0055
G1 X6.2131 Y3.7859
G3 X6.1961 Y3.7799 I-0.0055 J-0.0115
G1 X4.9879 Y1.2712
G3 X4.9939 Y1.2545 I0.0113 J-0.0054
G1 X6.4535 Y0.5641
G3 X6.47 Y0.57 I0.0053 J0.0113
G1 X7.7367 Y3.2
G3 X7.7307 Y3.2172 I-0.0116 J0.0056
G1 X6.1449 Y3.9808
G3 X6.1278 Y3.9748 I-0.0055 J-0.0116
G1 X4.8613 Y1.3446
G3 X4.8672 Y1.3279 I0.0112 J-0.0054
G1 X6.5911 Y0.5135
G3 X6.6078 Y0.5193 I0.0054 J0.0113
G1 X7.9315 Y3.2682
G3 X7.9256 Y3.2853 I-0.0115 J0.0056
G1 X6.0767 Y4.1756
G3 X6.0597 Y4.1697 I-0.0055 J-0.0115
G1 X4.7359 Y1.4207
X4.6816 Y1.3081
X4.6799 Y1.3046 Z0.4101
X4.6783 Y1.3011 Z0.411
X4.6767 Y1.2979 Z0.4125
X4.6753 Y1.2949 Z0.4146
X4.674 Y1.2922 Z0.4171
X4.6729 Y1.2899 Z0.4201
X4.672 Y1.288 Z0.4234
X4.6713 Y1.2867 Z0.4271
X4.6709 Y1.2859 Z0.4309
X4.6708 Y1.2856 Z0.4348
G0 Z1.1037
X6.5611 Y0.2025
G1 Z0.4323 F25
X6.5613 Y0.2027 Z0.4288 F162
X6.5617 Y0.2034 Z0.4253
X6.5625 Y0.2045 Z0.4221
X6.5636 Y0.206 Z0.4191
X6.5649 Y0.2079 Z0.4164
X6.5664 Y0.2101 Z0.4141
X6.5681 Y0.2126 Z0.4122
X6.57 Y0.2153 Z0.4109
X6.5719 Y0.2181 Z0.4101
X6.5739 Y0.221 Z0.4098
X6.7447 Y0.4676
X6.7467 Y0.4709
X6.8067 Y0.5956
X8.1322 Y3.348
X5.9969 Y4.3763
X4.6714 Y1.6239
X4.6115 Y1.4993
G3 X4.6162 Y1.4833 I0.0112 J-0.0054
G1 X5.6242 Y0.8643
G3 X5.6421 Y0.8695 I0.0066 J0.0106
G1 X5.6437 Y0.873 Z0.4095
X5.6454 Y0.8765 Z0.4086
X5.647 Y0.8797 Z0.4071
X5.6484 Y0.8828 Z0.405
X5.6497 Y0.8854 Z0.4025
X5.6508 Y0.8877 Z0.3995
X5.6517 Y0.8896 Z0.3961
X5.6524 Y0.8909 Z0.3925
X5.6528 Y0.8918 Z0.3887
X5.6529 Y0.892 Z0.3848
Z0.245
X5.653 Y0.8923 Z0.2411
X5.6534 Y0.8931 Z0.2373
X5.6541 Y0.8945 Z0.2337
X5.655 Y0.8963 Z0.2303
X5.6561 Y0.8986 Z0.2273
X5.6574 Y0.9013 Z0.2248
X5.6588 Y0.9043 Z0.2227
X5.6604 Y0.9076 Z0.2212
X5.662 Y0.911 Z0.2203
X5.6637 Y0.9146 Z0.22
X5.6642 Y0.9154
X6.5673 Y2.7909
G3 X6.5613 Y2.8079 I-0.0115 J0.0055
G1 X6.5541 Y2.8114
G3 X6.5371 Y2.8054 I-0.0055 J-0.0115
G1 X5.6339 Y0.93
G3 X5.6397 Y0.9134 I0.0112 J-0.0054
G1 X5.7788 Y0.8459
G3 X5.7956 Y0.8517 I0.0055 J0.0113
G1 X6.7622 Y2.8591
G3 X6.7562 Y2.8761 I-0.0115 J0.0055
G1 X6.4859 Y3.0063
G3 X6.4689 Y3.0003 I-0.0055 J-0.0115
G1 X5.5023 Y0.9933
G3 X5.5083 Y0.9766 I0.0113 J-0.0054
G1 X5.9126 Y0.7868
G3 X5.9292 Y0.7927 I0.0053 J0.0114
G1 X6.9571 Y2.9273
G3 X6.9511 Y2.9443 I-0.0115 J0.0055
G1 X6.4177 Y3.2012
G3 X6.4007 Y3.1952 I-0.0055 J-0.0115
G1 X5.3727 Y1.0605
G3 X5.3786 Y1.0439 I0.0112 J-0.0054
G1 X6.0464 Y0.7283
G3 X6.0629 Y0.7342 I0.0053 J0.0113
G1 X7.152 Y2.9955
G3 X7.146 Y3.0125 I-0.0115 J0.0055
G1 X6.3495 Y3.3961
G3 X6.3325 Y3.3901 I-0.0055 J-0.0115
G1 X5.2434 Y1.1287
G3 X5.2493 Y1.112 I0.0113 J-0.0054
G1 X6.1807 Y0.6706
G3 X6.1973 Y0.6765 I0.0053 J0.0113
G1 X7.3469 Y3.0637
G3 X7.3409 Y3.0807 I-0.0115 J0.0055
G1 X6.2813 Y3.591
G3 X6.2643 Y3.585 I-0.0055 J-0.0115
G1 X5.1148 Y1.1982
G3 X5.1207 Y1.1813 I0.0113 J-0.0055
G1 X6.3171 Y0.6173
G3 X6.3337 Y0.6232 I0.0053 J0.0113
G1 X7.5418 Y3.1319
G3 X7.5358 Y3.1489 I-0.0115 J0.0055
G1 X6.2131 Y3.7859
G3 X6.1961 Y3.7799 I-0.0055 J-0.0115
G1 X4.9879 Y1.2712
G3 X4.9939 Y1.2545 I0.0113 J-0.0054
G1 X6.4535 Y0.5641
G3 X6.47 Y0.57 I0.0053 J0.0113
G1 X7.7367 Y3.2
G3 X7.7307 Y3.2172 I-0.0116 J0.0056
G1 X6.1449 Y3.9808
G3 X6.1278 Y3.9748 I-0.0055 J-0.0116
G1 X4.8613 Y1.3446
G3 X4.8672 Y1.3279 I0.0112 J-0.0054
G1 X6.5911 Y0.5135
G3 X6.6078 Y0.5193 I0.0054 J0.0113
G1 X7.9315 Y3.2682
G3 X7.9256 Y3.2853 I-0.0115 J0.0056
G1 X6.0767 Y4.1756
G3 X6.0597 Y4.1697 I-0.0055 J-0.0115
G1 X4.7359 Y1.4207
X4.6816 Y1.3081
X4.6799 Y1.3046 Z0.2203
X4.6783 Y1.3011 Z0.2212
X4.6767 Y1.2979 Z0.2227
X4.6753 Y1.2949 Z0.2248
X4.674 Y1.2922 Z0.2273
X4.6729 Y1.2899 Z0.2303
X4.672 Y1.288 Z0.2337
X4.6713 Y1.2867 Z0.2373
X4.6709 Y1.2859 Z0.2411
X4.6708 Y1.2856 Z0.245
G0 Z1.1037
X6.5611 Y0.2025
G1 Z0.2425 F25
X6.5613 Y0.2027 Z0.239 F162
X6.5617 Y0.2034 Z0.2355
X6.5625 Y0.2045 Z0.2323
X6.5636 Y0.206 Z0.2293
X6.5649 Y0.2079 Z0.2266
X6.5664 Y0.2101 Z0.2243
X6.5681 Y0.2126 Z0.2225
X6.57 Y0.2153 Z0.2211
X6.5719 Y0.2181 Z0.2203
X6.5739 Y0.221 Z0.22
X6.7447 Y0.4676
X6.7467 Y0.4709
X6.8067 Y0.5956
X8.1322 Y3.348
X5.9969 Y4.3763
X4.6714 Y1.6239
X4.6115 Y1.4993
X4.61 Y1.4957
X4.5741 Y1.376
X4.573 Y1.3722 Z0.2203
X4.5719 Y1.3686 Z0.2212
X4.5708 Y1.3651 Z0.2227
X4.5699 Y1.3619 Z0.2248
X4.569 Y1.359 Z0.2273
X4.5683 Y1.3566 Z0.2303
X4.5677 Y1.3546 Z0.2337
X4.5672 Y1.3532 Z0.2373
X4.567 Y1.3523 Z0.2411
X4.5669 Y1.352 Z0.245
G0 Z1.3894
X1.8921 Y3.5228
Z1.1037
G1 Z0.6246 F25
X1.8924 Y3.523 Z0.6207 F162
X1.8931 Y3.5236 Z0.6169
X1.8943 Y3.5245 Z0.6132
X1.8959 Y3.5258 Z0.6099
X1.8979 Y3.5274 Z0.6069
X1.9002 Y3.5292 Z0.6044
X1.9028 Y3.5313 Z0.6023
X1.9056 Y3.5336 Z0.6008
X1.9086 Y3.536 Z0.5999
X1.9117 Y3.5384 Z0.5996
X2.1375 Y3.7186
X2.2999 Y3.8481
X3.7662 Y5.0152
G3 X3.7681 Y5.0331 I-0.008 J0.0099
G1 X3.7632 Y5.0394
G3 X3.7452 Y5.0414 I-0.01 J-0.008
G1 X2.1177 Y3.7436
G3 X2.1157 Y3.726 I0.0078 J-0.0098
G1 X2.2118 Y3.6049
G3 X2.2294 Y3.6029 I0.0098 J0.0078
G1 X3.9713 Y4.992
G3 X3.9733 Y5.01 I-0.0079 J0.01
G1 X3.7863 Y5.2446
G3 X3.7683 Y5.2466 I-0.01 J-0.008
G1 X2.0267 Y3.8577
G3 X2.0248 Y3.84 I0.0078 J-0.0098
G1 X2.3055 Y3.4949
G3 X2.323 Y3.493 I0.0097 J0.0079
G1 X2.4819 Y3.6198
X4.1765 Y4.9689
G3 X4.1785 Y4.9869 I-0.008 J0.01
G1 X3.8094 Y5.4498
G3 X3.7914 Y5.4518 I-0.01 J-0.008
G1 X1.939 Y3.9745
G3 X1.9372 Y3.9569 I0.0078 J-0.0097
G1 X2.402 Y3.3829
G3 X2.4195 Y3.381 I0.0097 J0.0079
G1 X4.3817 Y4.9458
G3 X4.3837 Y4.9638 I-0.008 J0.01
G1 X3.8325 Y5.6549
G3 X3.8146 Y5.657 I-0.01 J-0.0079
G1 X1.8522 Y4.092
G3 X1.8502 Y4.0744 I0.0078 J-0.0098
G1 X2.4967 Y3.274
G3 X2.5142 Y3.2721 I0.0097 J0.0078
G1 X2.664 Y3.3915
X4.5869 Y4.9227
G3 X4.5889 Y4.9407 I-0.008 J0.01
G1 X3.8556 Y5.8601
G3 X3.8377 Y5.8622 I-0.01 J-0.0079
G1 X1.7665 Y4.2104
G3 X1.7645 Y4.1927 I0.0078 J-0.0098
G1 X2.5978 Y3.1656
G3 X2.6153 Y3.1637 I0.0097 J0.0079
G1 X4.792 Y4.8996
G3 X4.7941 Y4.9175 I-0.0079 J0.01
G1 X3.8788 Y6.0653
G3 X3.8608 Y6.0673 I-0.01 J-0.008
G1 X1.6838 Y4.3312
G3 X1.6819 Y4.3136 I0.0078 J-0.0097
G1 X2.6963 Y3.0597
G3 X2.7139 Y3.0577 I0.0098 J0.0079
G1 X2.846 Y3.1633
X4.9972 Y4.8765
G3 X4.9992 Y4.8943 I-0.0079 J0.0099
G1 X3.9019 Y6.2705
G3 X3.8839 Y6.2725 I-0.01 J-0.008
G1 X1.6015 Y4.4524
G3 X1.5996 Y4.4347 I0.0078 J-0.0098
G1 X2.7994 Y2.9529
G3 X2.8169 Y2.951 I0.0097 J0.0078
G1 X5.2024 Y4.8533
G3 X5.2044 Y4.8713 I-0.008 J0.01
G1 X3.925 Y6.4756
G3 X3.907 Y6.4777 I-0.01 J-0.0079
G1 X1.5216 Y4.5753
X1.4239 Y4.4974
X1.4208 Y4.495 Z0.5999
X1.4178 Y4.4926 Z0.6008
X1.415 Y4.4903 Z0.6023
X1.4124 Y4.4882 Z0.6044
X1.41 Y4.4864 Z0.6069
X1.408 Y4.4848 Z0.6099
X1.4064 Y4.4835 Z0.6132
X1.4053 Y4.4826 Z0.6169
X1.4045 Y4.482 Z0.6207
X1.4043 Y4.4818 Z0.6246
G0 Z1.1037
X2.6372 Y2.6857
G1 Z0.6221 F25
X2.6375 Y2.6859 Z0.6186 F162
X2.6382 Y2.6863 Z0.6151
X2.6394 Y2.6869 Z0.6119
X2.641 Y2.6879 Z0.6089
X2.643 Y2.689 Z0.6062
X2.6453 Y2.6903 Z0.6039
X2.6479 Y2.6918 Z0.602
X2.6508 Y2.6934 Z0.6007
X2.6537 Y2.6951 Z0.5999
X2.6568 Y2.6968 Z0.5996
X2.9182 Y2.8452
X2.9215 Y2.8474
X3.0293 Y2.9334
X5.4178 Y4.8381
X3.9402 Y6.6911
X1.5517 Y4.7863
X1.4436 Y4.7001
G3 X1.4409 Y4.6836 I0.0078 J-0.0097
G1 X2.0794 Y3.6898
G3 X2.0977 Y3.6868 I0.0105 J0.0068
G1 X2.1007 Y3.6892 Z0.5993
X2.1037 Y3.6916 Z0.5984
X2.1065 Y3.6939 Z0.5969
X2.1092 Y3.696 Z0.5948
X2.1115 Y3.6978 Z0.5923
X2.1135 Y3.6994 Z0.5893
X2.1151 Y3.7007 Z0.5859
X2.1163 Y3.7016 Z0.5823
X2.117 Y3.7022 Z0.5785
X2.1172 Y3.7024 Z0.5746
Z0.4348
X2.1175 Y3.7026 Z0.4309
X2.1182 Y3.7032 Z0.4271
X2.1193 Y3.7041 Z0.4234
X2.121 Y3.7054 Z0.4201
X2.1229 Y3.707 Z0.4171
X2.1253 Y3.7088 Z0.4146
X2.1279 Y3.7109 Z0.4125
X2.1307 Y3.7132 Z0.411
X2.1337 Y3.7156 Z0.4101
X2.1368 Y3.718 Z0.4098
X2.1375 Y3.7186
X2.2999 Y3.8481
X3.7662 Y5.0152
G3 X3.7681 Y5.0331 I-0.008 J0.0099
G1 X3.7632 Y5.0394
G3 X3.7452 Y5.0414 I-0.01 J-0.008
G1 X2.1177 Y3.7436
G3 X2.1157 Y3.726 I0.0078 J-0.0098
G1 X2.2118 Y3.6049
G3 X2.2294 Y3.6029 I0.0098 J0.0078
G1 X3.9713 Y4.992
G3 X3.9733 Y5.01 I-0.0079 J0.01
G1 X3.7863 Y5.2446
G3 X3.7683 Y5.2466 I-0.01 J-0.008
G1 X2.0267 Y3.8577
G3 X2.0248 Y3.84 I0.0078 J-0.0098
G1 X2.3055 Y3.4949
G3 X2.323 Y3.493 I0.0097 J0.0079
G1 X2.4819 Y3.6198
X4.1765 Y4.9689
G3 X4.1785 Y4.9869 I-0.008 J0.01
G1 X3.8094 Y5.4498
G3 X3.7914 Y5.4518 I-0.01 J-0.008
G1 X1.939 Y3.9745
G3 X1.9372 Y3.9569 I0.0078 J-0.0097
G1 X2.402 Y3.3829
G3 X2.4195 Y3.381 I0.0097 J0.0079
G1 X4.3817 Y4.9458
G3 X4.3837 Y4.9638 I-0.008 J0.01
G1 X3.8325 Y5.6549
G3 X3.8146 Y5.657 I-0.01 J-0.0079
G1 X1.8522 Y4.092
G3 X1.8502 Y4.0744 I0.0078 J-0.0098
G1 X2.4967 Y3.274
G3 X2.5142 Y3.2721 I0.0097 J0.0078
G1 X2.664 Y3.3915
X4.5869 Y4.9227
G3 X4.5889 Y4.9407 I-0.008 J0.01
G1 X3.8556 Y5.8601
G3 X3.8377 Y5.8622 I-0.01 J-0.0079
G1 X1.7665 Y4.2104
G3 X1.7645 Y4.1927 I0.0078 J-0.0098
G1 X2.5978 Y3.1656
G3 X2.6153 Y3.1637 I0.0097 J0.0079
G1 X4.792 Y4.8996
G3 X4.7941 Y4.9175 I-0.0079 J0.01
G1 X3.8788 Y6.0653
G3 X3.8608 Y6.0673 I-0.01 J-0.008
G1 X1.6838 Y4.3312
G3 X1.6819 Y4.3136 I0.0078 J-0.0097
G1 X2.6963 Y3.0597
G3 X2.7139 Y3.0577 I0.0098 J0.0079
G1 X2.846 Y3.1633
X4.9972 Y4.8765
G3 X4.9992 Y4.8943 I-0.0079 J0.0099
G1 X3.9019 Y6.2705
G3 X3.8839 Y6.2725 I-0.01 J-0.008
G1 X1.6015 Y4.4524
G3 X1.5996 Y4.4347 I0.0078 J-0.0098
G1 X2.7994 Y2.9529
G3 X2.8169 Y2.951 I0.0097 J0.0078
G1 X5.2024 Y4.8533
G3 X5.2044 Y4.8713 I-0.008 J0.01
G1 X3.925 Y6.4756
G3 X3.907 Y6.4777 I-0.01 J-0.0079
G1 X1.5216 Y4.5753
X1.4239 Y4.4974
X1.4208 Y4.495 Z0.4101
X1.4178 Y4.4926 Z0.411
X1.415 Y4.4903 Z0.4125
X1.4124 Y4.4882 Z0.4146
X1.41 Y4.4864 Z0.4171
X1.408 Y4.4848 Z0.4201
X1.4064 Y4.4835 Z0.4234
X1.4053 Y4.4826 Z0.4271
X1.4045 Y4.482 Z0.4309
X1.4043 Y4.4818 Z0.4348
G0 Z1.1037
X2.6372 Y2.6857
G1 Z0.4323 F25
X2.6375 Y2.6859 Z0.4288 F162
X2.6382 Y2.6863 Z0.4253
X2.6394 Y2.6869 Z0.4221
X2.641 Y2.6879 Z0.4191
X2.643 Y2.689 Z0.4164
X2.6453 Y2.6903 Z0.4141
X2.6479 Y2.6918 Z0.4122
X2.6508 Y2.6934 Z0.4109
X2.6537 Y2.6951 Z0.4101
X2.6568 Y2.6968 Z0.4098
X2.9182 Y2.8452
X2.9215 Y2.8474
X3.0293 Y2.9334
X5.4178 Y4.8381
X3.9402 Y6.6911
X1.5517 Y4.7863
X1.4436 Y4.7001
G3 X1.4409 Y4.6836 I0.0078 J-0.0097
G1 X2.0794 Y3.6898
G3 X2.0977 Y3.6868 I0.0105 J0.0068
G1 X2.1007 Y3.6892 Z0.4095
X2.1037 Y3.6916 Z0.4086
X2.1065 Y3.6939 Z0.4071
X2.1092 Y3.696 Z0.405
X2.1115 Y3.6978 Z0.4025
X2.1135 Y3.6994 Z0.3995
X2.1151 Y3.7007 Z0.3961
X2.1163 Y3.7016 Z0.3925
X2.117 Y3.7022 Z0.3887
X2.1172 Y3.7024 Z0.3848
Z0.245
X2.1175 Y3.7026 Z0.2411
X2.1182 Y3.7032 Z0.2373
X2.1193 Y3.7041 Z0.2337
X2.121 Y3.7054 Z0.2303
X2.1229 Y3.707 Z0.2273
X2.1253 Y3.7088 Z0.2248
X2.1279 Y3.7109 Z0.2227
X2.1307 Y3.7132 Z0.2212
X2.1337 Y3.7156 Z0.2203
X2.1368 Y3.718 Z0.22
X2.1375 Y3.7186
X2.2999 Y3.8481
X3.7662 Y5.0152
G3 X3.7681 Y5.0331 I-0.008 J0.0099
G1 X3.7632 Y5.0394
G3 X3.7452 Y5.0414 I-0.01 J-0.008
G1 X2.1177 Y3.7436
G3 X2.1157 Y3.726 I0.0078 J-0.0098
G1 X2.2118 Y3.6049
G3 X2.2294 Y3.6029 I0.0098 J0.0078
G1 X3.9713 Y4.992
G3 X3.9733 Y5.01 I-0.0079 J0.01
G1 X3.7863 Y5.2446
G3 X3.7683 Y5.2466 I-0.01 J-0.008
G1 X2.0267 Y3.8577
G3 X2.0248 Y3.84 I0.0078 J-0.0098
G1 X2.3055 Y3.4949
G3 X2.323 Y3.493 I0.0097 J0.0079
G1 X2.4819 Y3.6198
X4.1765 Y4.9689
G3 X4.1785 Y4.9869 I-0.008 J0.01
G1 X3.8094 Y5.4498
G3 X3.7914 Y5.4518 I-0.01 J-0.008
G1 X1.939 Y3.9745
G3 X1.9372 Y3.9569 I0.0078 J-0.0097
G1 X2.402 Y3.3829
G3 X2.4195 Y3.381 I0.0097 J0.0079
G1 X4.3817 Y4.9458
G3 X4.3837 Y4.9638 I-0.008 J0.01
G1 X3.8325 Y5.6549
G3 X3.8146 Y5.657 I-0.01 J-0.0079
G1 X1.8522 Y4.092
G3 X1.8502 Y4.0744 I0.0078 J-0.0098
G1 X2.4967 Y3.274
G3 X2.5142 Y3.2721 I0.0097 J0.0078
G1 X2.664 Y3.3915
X4.5869 Y4.9227
G3 X4.5889 Y4.9407 I-0.008 J0.01
G1 X3.8556 Y5.8601
G3 X3.8377 Y5.8622 I-0.01 J-0.0079
G1 X1.7665 Y4.2104
G3 X1.7645 Y4.1927 I0.0078 J-0.0098
G1 X2.5978 Y3.1656
G3 X2.6153 Y3.1637 I0.0097 J0.0079
G1 X4.792 Y4.8996
G3 X4.7941 Y4.9175 I-0.0079 J0.01
G1 X3.8788 Y6.0653
G3 X3.8608 Y6.0673 I-0.01 J-0.008
G1 X1.6838 Y4.3312
G3 X1.6819 Y4.3136 I0.0078 J-0.0097
G1 X2.6963 Y3.0597
G3 X2.7139 Y3.0577 I0.0098 J0.0079
G1 X2.846 Y3.1633
X4.9972 Y4.8765
G3 X4.9992 Y4.8943 I-0.0079 J0.0099
G1 X3.9019 Y6.2705
G3 X3.8839 Y6.2725 I-0.01 J-0.008
G1 X1.6015 Y4.4524
G3 X1.5996 Y4.4347 I0.0078 J-0.0098
G1 X2.7994 Y2.9529
G3 X2.8169 Y2.951 I0.0097 J0.0078
G1 X5.2024 Y4.8533
G3 X5.2044 Y4.8713 I-0.008 J0.01
G1 X3.925 Y6.4756
G3 X3.907 Y6.4777 I-0.01 J-0.0079
G1 X1.5216 Y4.5753
X1.4239 Y4.4974
X1.4208 Y4.495 Z0.2203
X1.4178 Y4.4926 Z0.2212
X1.415 Y4.4903 Z0.2227
X1.4124 Y4.4882 Z0.2248
X1.41 Y4.4864 Z0.2273
X1.408 Y4.4848 Z0.2303
X1.4064 Y4.4835 Z0.2337
X1.4053 Y4.4826 Z0.2373
X1.4045 Y4.482 Z0.2411
X1.4043 Y4.4818 Z0.245
G0 Z1.1037
X2.6372 Y2.6857
G1 Z0.2425 F25
X2.6375 Y2.6859 Z0.239 F162
X2.6382 Y2.6863 Z0.2355
X2.6394 Y2.6869 Z0.2323
X2.641 Y2.6879 Z0.2293
X2.643 Y2.689 Z0.2266
X2.6453 Y2.6903 Z0.2243
X2.6479 Y2.6918 Z0.2225
X2.6508 Y2.6934 Z0.2211
X2.6537 Y2.6951 Z0.2203
X2.6568 Y2.6968 Z0.22
X2.9182 Y2.8452
X2.9215 Y2.8474
X3.0293 Y2.9334
X5.4178 Y4.8381
X3.9402 Y6.6911
X1.5517 Y4.7863
X1.4436 Y4.7001
X1.4407 Y4.6975
X1.3564 Y4.6052
X1.3538 Y4.6023 Z0.2203
X1.3512 Y4.5995 Z0.2212
X1.3488 Y4.5968 Z0.2227
X1.3465 Y4.5944 Z0.2248
X1.3445 Y4.5922 Z0.2273
X1.3428 Y4.5903 Z0.2303
X1.3414 Y4.5888 Z0.2337
X1.3404 Y4.5876 Z0.2373
X1.3398 Y4.587 Z0.2411
X1.3395 Y4.5867 Z0.245
G0 Z1.3894
X-0.129 Y7.7013
Z1.1037
G1 Z0.6246 F25
X-0.1287 Z0.6207 F162
X-0.1278 Y7.7016 Z0.6169
X-0.1263 Y7.7019 Z0.6132
X-0.1243 Y7.7023 Z0.6099
X-0.1218 Y7.7029 Z0.6069
X-0.1189 Y7.7036 Z0.6044
X-0.1157 Y7.7043 Z0.6023
X-0.1121 Y7.7051 Z0.6008
X-0.1084 Y7.706 Z0.5999
X-0.1046 Y7.7068 Z0.5996
X0.178 Y7.7713
X2.2075 Y8.2346
G3 X2.217 Y8.2498 I-0.0029 J0.0124
G1 X2.2153 Y8.2577
G3 X2.2 Y8.2674 I-0.0125 J-0.0028
G1 X0.1706 Y7.8041
G3 X0.1612 Y7.7892 I0.0028 J-0.0122
G1 X0.1952 Y7.6384
G3 X0.2102 Y7.6289 I0.0122 J0.0027
G1 X2.3823 Y8.1247
G3 X2.392 Y8.14 I-0.0028 J0.0125
G1 X2.3252 Y8.4325
G3 X2.3098 Y8.4422 I-0.0125 J-0.0028
G1 X0.138 Y7.9464
G3 X0.1287 Y7.9314 I0.0028 J-0.0121
G1 X0.2323 Y7.4969
G3 X0.2472 Y7.4877 I0.0121 J0.0029
G1 X2.5571 Y8.0149
G3 X2.5667 Y8.0301 I-0.0028 J0.0124
G1 X2.435 Y8.6074
G3 X2.4197 Y8.6169 I-0.0124 J-0.0029
G1 X0.1098 Y8.0897
G3 X0.1005 Y8.0747 I0.0028 J-0.0121
G1 X0.2699 Y7.3575
G3 X0.2848 Y7.3483 I0.0121 J0.0029
G1 X0.4775 Y7.3923
X2.732 Y7.905
G3 X2.7416 Y7.9203 I-0.0029 J0.0125
G1 X2.5449 Y8.7822
G3 X2.5296 Y8.7918 I-0.0125 J-0.0029
G1 X0.0825 Y8.2333
G3 X0.0731 Y8.2182 I0.0028 J-0.0122
G1 X0.3087 Y7.2149
G3 X0.3236 Y7.2056 I0.0122 J0.0029
G1 X2.9068 Y7.7952
G3 X2.9164 Y7.8104 I-0.0028 J0.0124
G1 X2.6547 Y8.957
G3 X2.6394 Y8.9666 I-0.0124 J-0.0028
G1 X0.0566 Y8.3771
G3 X0.0472 Y8.362 I0.0028 J-0.0122
G1 X0.3524 Y7.0751
G3 X0.3674 Y7.0658 I0.0122 J0.0029
G1 X3.0816 Y7.6853
G3 X3.0913 Y7.7006 I-0.0028 J0.0125
G1 X2.7646 Y9.1318
G3 X2.7493 Y9.1415 I-0.0125 J-0.0028
G1 X0.0346 Y8.5218
G3 X0.0253 Y8.5068 I0.0028 J-0.0121
G1 X0.3956 Y6.9352
G3 X0.4106 Y6.9259 I0.0122 J0.0029
G1 X3.2565 Y7.5755
G3 X3.266 Y7.5907 I-0.0029 J0.0124
G1 X2.8744 Y9.3067
G3 X2.8591 Y9.3162 I-0.0124 J-0.0029
G1 X0.0131 Y8.6667
G3 X0.0036 Y8.6516 I0.0027 J-0.0122
G1 X0.4417 Y6.796
G3 X0.4567 Y6.7867 I0.0122 J0.0029
G1 X3.4313 Y7.4656
G3 X3.4409 Y7.4809 I-0.0029 J0.0125
G1 X2.9843 Y9.4815
G3 X2.9689 Y9.4912 I-0.0125 J-0.0028
G1 X-0.0056 Y8.8122
X-0.1275 Y8.7844
X-0.1313 Y8.7835 Z0.5999
X-0.135 Y8.7826 Z0.6008
X-0.1386 Y8.7818 Z0.6023
X-0.1418 Y8.7811 Z0.6044
X-0.1447 Y8.7804 Z0.6069
X-0.1472 Y8.7799 Z0.6099
X-0.1492 Y8.7794 Z0.6132
X-0.1507 Y8.7791 Z0.6169
X-0.1516 Y8.7789 Z0.6207
X-0.1519 Y8.7788 Z0.6246
G0 Z1.1037
X0.1805 Y6.6257
G1 Z0.6221 F25
X0.1808 Z0.6186 F162
X0.1816 Y6.6258 Z0.6151
X0.1829 Z0.6119
X0.1848 Y6.626 Z0.6089
X0.1871 Y6.6261 Z0.6062
X0.1897 Y6.6263 Z0.6039
X0.1927 Y6.6265 Z0.602
X0.196 Y6.6267 Z0.6007
X0.1994 Y6.627 Z0.5999
X0.2029 Y6.6272 Z0.5996
X0.5019 Y6.6474
X0.5058 Y6.6479
X0.6404 Y6.6786
X3.6188 Y7.3584
X3.0914 Y9.669
X0.113 Y8.9892
X-0.0217 Y8.9585
G3 X-0.0314 Y8.9448 I0.0027 J-0.0122
G1 X0.1131 Y7.7707
G3 X0.1283 Y7.76 I0.0124 J0.0015
G1 X0.1321 Y7.7609 Z0.5993
X0.1358 Y7.7617 Z0.5984
X0.1393 Y7.7625 Z0.5969
X0.1426 Y7.7633 Z0.5948
X0.1455 Y7.7639 Z0.5923
X0.148 Y7.7645 Z0.5893
X0.15 Y7.765 Z0.5859
X0.1515 Y7.7653 Z0.5823
X0.1523 Y7.7655 Z0.5785
X0.1526 Y7.7656 Z0.5746
Z0.4348
X0.1529 Z0.4309
X0.1538 Y7.7658 Z0.4271
X0.1553 Y7.7662 Z0.4234
X0.1573 Y7.7666 Z0.4201
X0.1598 Y7.7672 Z0.4171
X0.1627 Y7.7679 Z0.4146
X0.166 Y7.7686 Z0.4125
X0.1695 Y7.7694 Z0.411
X0.1732 Y7.7703 Z0.4101
X0.177 Y7.7711 Z0.4098
X0.178 Y7.7713
X2.2075 Y8.2346
G3 X2.217 Y8.2498 I-0.0029 J0.0124
G1 X2.2153 Y8.2577
G3 X2.2 Y8.2674 I-0.0125 J-0.0028
G1 X0.1706 Y7.8041
G3 X0.1612 Y7.7892 I0.0028 J-0.0122
G1 X0.1952 Y7.6384
G3 X0.2102 Y7.6289 I0.0122 J0.0027
G1 X2.3823 Y8.1247
G3 X2.392 Y8.14 I-0.0028 J0.0125
G1 X2.3252 Y8.4325
G3 X2.3098 Y8.4422 I-0.0125 J-0.0028
G1 X0.138 Y7.9464
G3 X0.1287 Y7.9314 I0.0028 J-0.0121
G1 X0.2323 Y7.4969
G3 X0.2472 Y7.4877 I0.0121 J0.0029
G1 X2.5571 Y8.0149
G3 X2.5667 Y8.0301 I-0.0028 J0.0124
G1 X2.435 Y8.6074
G3 X2.4197 Y8.6169 I-0.0124 J-0.0029
G1 X0.1098 Y8.0897
G3 X0.1005 Y8.0747 I0.0028 J-0.0121
G1 X0.2699 Y7.3575
G3 X0.2848 Y7.3483 I0.0121 J0.0029
G1 X0.4775 Y7.3923
X2.732 Y7.905
G3 X2.7416 Y7.9203 I-0.0029 J0.0125
G1 X2.5449 Y8.7822
G3 X2.5296 Y8.7918 I-0.0125 J-0.0029
G1 X0.0825 Y8.2333
G3 X0.0731 Y8.2182 I0.0028 J-0.0122
G1 X0.3087 Y7.2149
G3 X0.3236 Y7.2056 I0.0122 J0.0029
G1 X2.9068 Y7.7952
G3 X2.9164 Y7.8104 I-0.0028 J0.0124
G1 X2.6547 Y8.957
G3 X2.6394 Y8.9666 I-0.0124 J-0.0028
G1 X0.0566 Y8.3771
G3 X0.0472 Y8.362 I0.0028 J-0.0122
G1 X0.3524 Y7.0751
G3 X0.3674 Y7.0658 I0.0122 J0.0029
G1 X3.0816 Y7.6853
G3 X3.0913 Y7.7006 I-0.0028 J0.0125
G1 X2.7646 Y9.1318
G3 X2.7493 Y9.1415 I-0.0125 J-0.0028
G1 X0.0346 Y8.5218
G3 X0.0253 Y8.5068 I0.0028 J-0.0121
G1 X0.3956 Y6.9352
G3 X0.4106 Y6.9259 I0.0122 J0.0029
G1 X3.2565 Y7.5755
G3 X3.266 Y7.5907 I-0.0029 J0.0124
G1 X2.8744 Y9.3067
G3 X2.8591 Y9.3162 I-0.0124 J-0.0029
G1 X0.0131 Y8.6667
G3 X0.0036 Y8.6516 I0.0027 J-0.0122
G1 X0.4417 Y6.796
G3 X0.4567 Y6.7867 I0.0122 J0.0029
G1 X3.4313 Y7.4656
G3 X3.4409 Y7.4809 I-0.0029 J0.0125
G1 X2.9843 Y9.4815
G3 X2.9689 Y9.4912 I-0.0125 J-0.0028
G1 X-0.0056 Y8.8122
X-0.1275 Y8.7844
X-0.1313 Y8.7835 Z0.4101
X-0.135 Y8.7826 Z0.411
X-0.1386 Y8.7818 Z0.4125
X-0.1418 Y8.7811 Z0.4146
X-0.1447 Y8.7804 Z0.4171
X-0.1472 Y8.7799 Z0.4201
X-0.1492 Y8.7794 Z0.4234
X-0.1507 Y8.7791 Z0.4271
X-0.1516 Y8.7789 Z0.4309
X-0.1519 Y8.7788 Z0.4348
G0 Z1.1037
X0.1805 Y6.6257
G1 Z0.4323 F25
X0.1808 Z0.4288 F162
X0.1816 Y6.6258 Z0.4253
X0.1829 Z0.4221
X0.1848 Y6.626 Z0.4191
X0.1871 Y6.6261 Z0.4164
X0.1897 Y6.6263 Z0.4141
X0.1927 Y6.6265 Z0.4122
X0.196 Y6.6267 Z0.4109
X0.1994 Y6.627 Z0.4101
X0.2029 Y6.6272 Z0.4098
X0.5019 Y6.6474
X0.5058 Y6.6479
X0.6404 Y6.6786
X3.6188 Y7.3584
X3.0914 Y9.669
X0.113 Y8.9892
X-0.0217 Y8.9585
G3 X-0.0314 Y8.9448 I0.0027 J-0.0122
G1 X0.1131 Y7.7707
G3 X0.1283 Y7.76 I0.0124 J0.0015
G1 X0.1321 Y7.7609 Z0.4095
X0.1358 Y7.7617 Z0.4086
X0.1393 Y7.7625 Z0.4071
X0.1426 Y7.7633 Z0.405
X0.1455 Y7.7639 Z0.4025
X0.148 Y7.7645 Z0.3995
X0.15 Y7.765 Z0.3961
X0.1515 Y7.7653 Z0.3925
X0.1523 Y7.7655 Z0.3887
X0.1526 Y7.7656 Z0.3848
Z0.245
X0.1529 Z0.2411
X0.1538 Y7.7658 Z0.2373
X0.1553 Y7.7662 Z0.2337
X0.1573 Y7.7666 Z0.2303
X0.1598 Y7.7672 Z0.2273
X0.1627 Y7.7679 Z0.2248
X0.166 Y7.7686 Z0.2227
X0.1695 Y7.7694 Z0.2212
X0.1732 Y7.7703 Z0.2203
X0.177 Y7.7711 Z0.22
X0.178 Y7.7713
X2.2075 Y8.2346
G3 X2.217 Y8.2498 I-0.0029 J0.0124
G1 X2.2153 Y8.2577
G3 X2.2 Y8.2674 I-0.0125 J-0.0028
G1 X0.1706 Y7.8041
G3 X0.1612 Y7.7892 I0.0028 J-0.0122
G1 X0.1952 Y7.6384
G3 X0.2102 Y7.6289 I0.0122 J0.0027
G1 X2.3823 Y8.1247
G3 X2.392 Y8.14 I-0.0028 J0.0125
G1 X2.3252 Y8.4325
G3 X2.3098 Y8.4422 I-0.0125 J-0.0028
G1 X0.138 Y7.9464
G3 X0.1287 Y7.9314 I0.0028 J-0.0121
G1 X0.2323 Y7.4969
G3 X0.2472 Y7.4877 I0.0121 J0.0029
G1 X2.5571 Y8.0149
G3 X2.5667 Y8.0301 I-0.0028 J0.0124
G1 X2.435 Y8.6074
G3 X2.4197 Y8.6169 I-0.0124 J-0.0029
G1 X0.1098 Y8.0897
G3 X0.1005 Y8.0747 I0.0028 J-0.0121
G1 X0.2699 Y7.3575
G3 X0.2848 Y7.3483 I0.0121 J0.0029
G1 X0.4775 Y7.3923
X2.732 Y7.905
G3 X2.7416 Y7.9203 I-0.0029 J0.0125
G1 X2.5449 Y8.7822
G3 X2.5296 Y8.7918 I-0.0125 J-0.0029
G1 X0.0825 Y8.2333
G3 X0.0731 Y8.2182 I0.0028 J-0.0122
G1 X0.3087 Y7.2149
G3 X0.3236 Y7.2056 I0.0122 J0.0029
G1 X2.9068 Y7.7952
G3 X2.9164 Y7.8104 I-0.0028 J0.0124
G1 X2.6547 Y8.957
G3 X2.6394 Y8.9666 I-0.0124 J-0.0028
G1 X0.0566 Y8.3771
G3 X0.0472 Y8.362 I0.0028 J-0.0122
G1 X0.3524 Y7.0751
G3 X0.3674 Y7.0658 I0.0122 J0.0029
G1 X3.0816 Y7.6853
G3 X3.0913 Y7.7006 I-0.0028 J0.0125
G1 X2.7646 Y9.1318
G3 X2.7493 Y9.1415 I-0.0125 J-0.0028
G1 X0.0346 Y8.5218
G3 X0.0253 Y8.5068 I0.0028 J-0.0121
G1 X0.3956 Y6.9352
G3 X0.4106 Y6.9259 I0.0122 J0.0029
G1 X3.2565 Y7.5755
G3 X3.266 Y7.5907 I-0.0029 J0.0124
G1 X2.8744 Y9.3067
G3 X2.8591 Y9.3162 I-0.0124 J-0.0029
G1 X0.0131 Y8.6667
G3 X0.0036 Y8.6516 I0.0027 J-0.0122
G1 X0.4417 Y6.796
G3 X0.4567 Y6.7867 I0.0122 J0.0029
G1 X3.4313 Y7.4656
G3 X3.4409 Y7.4809 I-0.0029 J0.0125
G1 X2.9843 Y9.4815
G3 X2.9689 Y9.4912 I-0.0125 J-0.0028
G1 X-0.0056 Y8.8122
X-0.1275 Y8.7844
X-0.1313 Y8.7835 Z0.2203
X-0.135 Y8.7826 Z0.2212
X-0.1386 Y8.7818 Z0.2227
X-0.1418 Y8.7811 Z0.2248
X-0.1447 Y8.7804 Z0.2273
X-0.1472 Y8.7799 Z0.2303
X-0.1492 Y8.7794 Z0.2337
X-0.1507 Y8.7791 Z0.2373
X-0.1516 Y8.7789 Z0.2411
X-0.1519 Y8.7788 Z0.245
G0 Z1.1037
X0.1805 Y6.6257
G1 Z0.2425 F25
X0.1808 Z0.239 F162
X0.1816 Y6.6258 Z0.2355
X0.1829 Z0.2323
X0.1848 Y6.626 Z0.2293
X0.1871 Y6.6261 Z0.2266
X0.1897 Y6.6263 Z0.2243
X0.1927 Y6.6265 Z0.2225
X0.196 Y6.6267 Z0.2211
X0.1994 Y6.627 Z0.2203
X0.2029 Y6.6272 Z0.22
X0.5019 Y6.6474
X0.5058 Y6.6479
X0.6404 Y6.6786
X3.6188 Y7.3584
X3.0914 Y9.669
X0.113 Y8.9892
X-0.0217 Y8.9585
X-0.0255 Y8.9573
X-0.1415 Y8.9108
X-0.1451 Y8.9093 Z0.2203
X-0.1487 Y8.9079 Z0.2212
X-0.152 Y8.9065 Z0.2227
X-0.1551 Y8.9053 Z0.2248
X-0.1579 Y8.9042 Z0.2273
X-0.1603 Y8.9032 Z0.2303
X-0.1622 Y8.9025 Z0.2337
X-0.1636 Y8.9019 Z0.2373
X-0.1644 Y8.9016 Z0.2411
X-0.1647 Y8.9015 Z0.245
G0 Z1.3894
X-0.1365 Y12.3447
Z1.1037
G1 Z0.6246 F25
X-0.1362 Z0.6207 F162
X-0.1353 Y12.3445 Z0.6169
X-0.1339 Y12.3441 Z0.6132
X-0.1319 Y12.3437 Z0.6099
X-0.1294 Y12.3431 Z0.6069
X-0.1265 Y12.3424 Z0.6044
X-0.1232 Y12.3417 Z0.6023
X-0.1197 Y12.3409 Z0.6008
X-0.116 Y12.34 Z0.5999
X-0.1122 Y12.3392 Z0.5996
X0.1704 Y12.2747
X2.2 Y11.8114
G3 X2.2153 Y11.821 I0.0028 J0.0125
G1 X2.2171 Y11.8289
G3 X2.2075 Y11.8442 I-0.0125 J0.0028
G1 X0.38 Y12.2594
X0.1775 Y12.3058
G3 X0.1625 Y12.2963 I-0.0028 J-0.0122
G1 X0.1285 Y12.1473
G3 X0.1379 Y12.1323 I0.0122 J-0.0028
G1 X2.3099 Y11.6366
G3 X2.3251 Y11.6462 I0.0028 J0.0124
G1 X2.3919 Y11.9387
G3 X2.3823 Y11.954 I-0.0124 J0.0029
G1 X0.4125 Y12.4018
X0.2099 Y12.4481
G3 X0.195 Y12.4386 I-0.0027 J-0.0122
G1 X0.1005 Y12.0038
G3 X0.1099 Y11.9889 I0.0122 J-0.0027
G1 X2.4197 Y11.4618
G3 X2.435 Y11.4714 I0.0029 J0.0124
G1 X2.5668 Y12.0486
G3 X2.5571 Y12.0639 I-0.0125 J0.0028
G1 X0.2472 Y12.5911
G3 X0.2322 Y12.5816 I-0.0028 J-0.0122
G1 X0.073 Y11.8604
G3 X0.0825 Y11.8455 I0.0122 J-0.0027
G1 X2.5296 Y11.2869
G3 X2.5449 Y11.2965 I0.0028 J0.0125
G1 X2.7416 Y12.1584
G3 X2.732 Y12.1738 I-0.0125 J0.0029
G1 X0.2849 Y12.7323
G3 X0.2699 Y12.7228 I-0.0028 J-0.0122
G1 X0.047 Y11.7166
G3 X0.0564 Y11.7017 I0.0122 J-0.0027
G1 X2.6394 Y11.1121
G3 X2.6548 Y11.1217 I0.0029 J0.0125
G1 X2.9164 Y12.2683
G3 X2.9068 Y12.2835 I-0.0124 J0.0028
G1 X0.324 Y12.8731
G3 X0.309 Y12.8636 I-0.0028 J-0.0122
G1 X0.0252 Y11.5718
G3 X0.0346 Y11.5569 I0.0122 J-0.0027
G1 X2.7493 Y10.9373
G3 X2.7645 Y10.9469 I0.0028 J0.0124
G1 X3.0912 Y12.3781
G3 X3.0816 Y12.3934 I-0.0124 J0.0029
G1 X0.367 Y13.013
G3 X0.3521 Y13.0035 I-0.0028 J-0.0121
G1 X0.0039 Y11.4269
G3 X0.0133 Y11.412 I0.0122 J-0.0027
G1 X2.8591 Y10.7625
G3 X2.8744 Y10.7721 I0.0029 J0.0124
G1 X3.2661 Y12.488
G3 X3.2565 Y12.5033 I-0.0125 J0.0028
G1 X0.4104 Y13.1529
G3 X0.3954 Y13.1434 I-0.0028 J-0.0122
G1 X-0.015 Y11.2814
G3 X-0.0056 Y11.2665 I0.0122 J-0.0027
G1 X2.969 Y10.5876
G3 X2.9843 Y10.5972 I0.0028 J0.0125
G1 X3.4409 Y12.5978
G3 X3.4313 Y12.6132 I-0.0125 J0.0029
G1 X0.4567 Y13.2921
X0.3348 Y13.3199
X0.331 Y13.3208 Z0.5999
X0.3273 Y13.3216 Z0.6008
X0.3237 Y13.3224 Z0.6023
X0.3205 Y13.3232 Z0.6044
X0.3176 Y13.3238 Z0.6069
X0.3151 Y13.3244 Z0.6099
X0.3131 Y13.3248 Z0.6132
X0.3116 Y13.3252 Z0.6169
X0.3107 Y13.3254 Z0.6207
X0.3104 Y13.3255 Z0.6246
G0 Z1.1037
X-0.3236 Y11.241
G1 Z0.6221 F25
X-0.3234 Y11.2409 Z0.6186 F162
X-0.3226 Y11.2406 Z0.6151
X-0.3214 Y11.2401 Z0.6119
X-0.3197 Y11.2394 Z0.6089
X-0.3175 Y11.2386 Z0.6062
X-0.315 Y11.2376 Z0.6039
X-0.3122 Y11.2365 Z0.602
X-0.3092 Y11.2353 Z0.6007
X-0.306 Y11.234 Z0.5999
X-0.3028 Y11.2327 Z0.5996
X-0.0255 Y11.1215
X-0.0218 Y11.1203
X0.113 Y11.0895
X3.0914 Y10.4097
X3.6188 Y12.7203
X0.6404 Y13.4001
X0.5056 Y13.4308
G3 X0.4911 Y13.4226 I-0.0027 J-0.0121
G1 X0.1117 Y12.3022
G3 X0.1207 Y12.2861 I0.0118 J-0.004
G1 X0.1245 Y12.2851 Z0.5993
X0.1283 Y12.2843 Z0.5984
X0.1318 Y12.2835 Z0.5969
X0.1351 Y12.2827 Z0.5948
X0.138 Y12.2821 Z0.5923
X0.1404 Y12.2815 Z0.5893
X0.1424 Y12.2811 Z0.5859
X0.1439 Y12.2807 Z0.5823
X0.1448 Y12.2805 Z0.5785
X0.1451 Y12.2804 Z0.5746
Z0.4348
X0.1454 Z0.4309
X0.1463 Y12.2802 Z0.4271
X0.1478 Y12.2798 Z0.4234
X0.1498 Y12.2794 Z0.4201
X0.1522 Y12.2788 Z0.4171
X0.1551 Y12.2782 Z0.4146
X0.1584 Y12.2774 Z0.4125
X0.1619 Y12.2766 Z0.411
X0.1657 Y12.2758 Z0.4101
X0.1695 Y12.2749 Z0.4098
X0.1704 Y12.2747
X2.2 Y11.8114
G3 X2.2153 Y11.821 I0.0028 J0.0125
G1 X2.2171 Y11.8289
G3 X2.2075 Y11.8442 I-0.0125 J0.0028
G1 X0.38 Y12.2594
X0.1775 Y12.3058
G3 X0.1625 Y12.2963 I-0.0028 J-0.0122
G1 X0.1285 Y12.1473
G3 X0.1379 Y12.1323 I0.0122 J-0.0028
G1 X2.3099 Y11.6366
G3 X2.3251 Y11.6462 I0.0028 J0.0124
G1 X2.3919 Y11.9387
G3 X2.3823 Y11.954 I-0.0124 J0.0029
G1 X0.4125 Y12.4018
X0.2099 Y12.4481
G3 X0.195 Y12.4386 I-0.0027 J-0.0122
G1 X0.1005 Y12.0038
G3 X0.1099 Y11.9889 I0.0122 J-0.0027
G1 X2.4197 Y11.4618
G3 X2.435 Y11.4714 I0.0029 J0.0124
G1 X2.5668 Y12.0486
G3 X2.5571 Y12.0639 I-0.0125 J0.0028
G1 X0.2472 Y12.5911
G3 X0.2322 Y12.5816 I-0.0028 J-0.0122
G1 X0.073 Y11.8604
G3 X0.0825 Y11.8455 I0.0122 J-0.0027
G1 X2.5296 Y11.2869
G3 X2.5449 Y11.2965 I0.0028 J0.0125
G1 X2.7416 Y12.1584
G3 X2.732 Y12.1738 I-0.0125 J0.0029
G1 X0.2849 Y12.7323
G3 X0.2699 Y12.7228 I-0.0028 J-0.0122
G1 X0.047 Y11.7166
G3 X0.0564 Y11.7017 I0.0122 J-0.0027
G1 X2.6394 Y11.1121
G3 X2.6548 Y11.1217 I0.0029 J0.0125
G1 X2.9164 Y12.2683
G3 X2.9068 Y12.2835 I-0.0124 J0.0028
G1 X0.324 Y12.8731
G3 X0.309 Y12.8636 I-0.0028 J-0.0122
G1 X0.0252 Y11.5718
G3 X0.0346 Y11.5569 I0.0122 J-0.0027
G1 X2.7493 Y10.9373
G3 X2.7645 Y10.9469 I0.0028 J0.0124
G1 X3.0912 Y12.3781
G3 X3.0816 Y12.3934 I-0.0124 J0.0029
G1 X0.367 Y13.013
G3 X0.3521 Y13.0035 I-0.0028 J-0.0121
G1 X0.0039 Y11.4269
G3 X0.0133 Y11.412 I0.0122 J-0.0027
G1 X2.8591 Y10.7625
G3 X2.8744 Y10.7721 I0.0029 J0.0124
G1 X3.2661 Y12.488
G3 X3.2565 Y12.5033 I-0.0125 J0.0028
G1 X0.4104 Y13.1529
G3 X0.3954 Y13.1434 I-0.0028 J-0.0122
G1 X-0.015 Y11.2814
G3 X-0.0056 Y11.2665 I0.0122 J-0.0027
G1 X2.969 Y10.5876
G3 X2.9843 Y10.5972 I0.0028 J0.0125
G1 X3.4409 Y12.5978
G3 X3.4313 Y12.6132 I-0.0125 J0.0029
G1 X0.4567 Y13.2921
X0.3348 Y13.3199
X0.331 Y13.3208 Z0.4101
X0.3273 Y13.3216 Z0.411
X0.3237 Y13.3224 Z0.4125
X0.3205 Y13.3232 Z0.4146
X0.3176 Y13.3238 Z0.4171
X0.3151 Y13.3244 Z0.4201
X0.3131 Y13.3248 Z0.4234
X0.3116 Y13.3252 Z0.4271
X0.3107 Y13.3254 Z0.4309
X0.3104 Y13.3255 Z0.4348
G0 Z1.1037
X-0.3236 Y11.241
G1 Z0.4323 F25
X-0.3234 Y11.2409 Z0.4288 F162
X-0.3226 Y11.2406 Z0.4253
X-0.3214 Y11.2401 Z0.4221
X-0.3197 Y11.2394 Z0.4191
X-0.3175 Y11.2386 Z0.4164
X-0.315 Y11.2376 Z0.4141
X-0.3122 Y11.2365 Z0.4122
X-0.3092 Y11.2353 Z0.4109
X-0.306 Y11.234 Z0.4101
X-0.3028 Y11.2327 Z0.4098
X-0.0255 Y11.1215
X-0.0218 Y11.1203
X0.113 Y11.0895
X3.0914 Y10.4097
X3.6188 Y12.7203
X0.6404 Y13.4001
X0.5056 Y13.4308
G3 X0.4911 Y13.4226 I-0.0027 J-0.0121
G1 X0.1117 Y12.3022
G3 X0.1207 Y12.2861 I0.0118 J-0.004
G1 X0.1245 Y12.2851 Z0.4095
X0.1283 Y12.2843 Z0.4086
X0.1318 Y12.2835 Z0.4071
X0.1351 Y12.2827 Z0.405
X0.138 Y12.2821 Z0.4025
X0.1404 Y12.2815 Z0.3995
X0.1424 Y12.2811 Z0.3961
X0.1439 Y12.2807 Z0.3925
X0.1448 Y12.2805 Z0.3887
X0.1451 Y12.2804 Z0.3848
Z0.245
X0.1454 Z0.2411
X0.1463 Y12.2802 Z0.2373
X0.1478 Y12.2798 Z0.2337
X0.1498 Y12.2794 Z0.2303
X0.1522 Y12.2788 Z0.2273
X0.1551 Y12.2782 Z0.2248
X0.1584 Y12.2774 Z0.2227
X0.1619 Y12.2766 Z0.2212
X0.1657 Y12.2758 Z0.2203
X0.1695 Y12.2749 Z0.22
X0.1704 Y12.2747
X2.2 Y11.8114
G3 X2.2153 Y11.821 I0.0028 J0.0125
G1 X2.2171 Y11.8289
G3 X2.2075 Y11.8442 I-0.0125 J0.0028
G1 X0.38 Y12.2594
X0.1775 Y12.3058
G3 X0.1625 Y12.2963 I-0.0028 J-0.0122
G1 X0.1285 Y12.1473
G3 X0.1379 Y12.1323 I0.0122 J-0.0028
G1 X2.3099 Y11.6366
G3 X2.3251 Y11.6462 I0.0028 J0.0124
G1 X2.3919 Y11.9387
G3 X2.3823 Y11.954 I-0.0124 J0.0029
G1 X0.4125 Y12.4018
X0.2099 Y12.4481
G3 X0.195 Y12.4386 I-0.0027 J-0.0122
G1 X0.1005 Y12.0038
G3 X0.1099 Y11.9889 I0.0122 J-0.0027
G1 X2.4197 Y11.4618
G3 X2.435 Y11.4714 I0.0029 J0.0124
G1 X2.5668 Y12.0486
G3 X2.5571 Y12.0639 I-0.0125 J0.0028
G1 X0.2472 Y12.5911
G3 X0.2322 Y12.5816 I-0.0028 J-0.0122
G1 X0.073 Y11.8604
G3 X0.0825 Y11.8455 I0.0122 J-0.0027
G1 X2.5296 Y11.2869
G3 X2.5449 Y11.2965 I0.0028 J0.0125
G1 X2.7416 Y12.1584
G3 X2.732 Y12.1738 I-0.0125 J0.0029
G1 X0.2849 Y12.7323
G3 X0.2699 Y12.7228 I-0.0028 J-0.0122
G1 X0.047 Y11.7166
G3 X0.0564 Y11.7017 I0.0122 J-0.0027
G1 X2.6394 Y11.1121
G3 X2.6548 Y11.1217 I0.0029 J0.0125
G1 X2.9164 Y12.2683
G3 X2.9068 Y12.2835 I-0.0124 J0.0028
G1 X0.324 Y12.8731
G3 X0.309 Y12.8636 I-0.0028 J-0.0122
G1 X0.0252 Y11.5718
G3 X0.0346 Y11.5569 I0.0122 J-0.0027
G1 X2.7493 Y10.9373
G3 X2.7645 Y10.9469 I0.0028 J0.0124
G1 X3.0912 Y12.3781
G3 X3.0816 Y12.3934 I-0.0124 J0.0029
G1 X0.367 Y13.013
G3 X0.3521 Y13.0035 I-0.0028 J-0.0121
G1 X0.0039 Y11.4269
G3 X0.0133 Y11.412 I0.0122 J-0.0027
G1 X2.8591 Y10.7625
G3 X2.8744 Y10.7721 I0.0029 J0.0124
G1 X3.2661 Y12.488
G3 X3.2565 Y12.5033 I-0.0125 J0.0028
G1 X0.4104 Y13.1529
G3 X0.3954 Y13.1434 I-0.0028 J-0.0122
G1 X-0.015 Y11.2814
G3 X-0.0056 Y11.2665 I0.0122 J-0.0027
G1 X2.969 Y10.5876
G3 X2.9843 Y10.5972 I0.0028 J0.0125
G1 X3.4409 Y12.5978
G3 X3.4313 Y12.6132 I-0.0125 J0.0029
G1 X0.4567 Y13.2921
X0.3348 Y13.3199
X0.331 Y13.3208 Z0.2203
X0.3273 Y13.3216 Z0.2212
X0.3237 Y13.3224 Z0.2227
X0.3205 Y13.3232 Z0.2248
X0.3176 Y13.3238 Z0.2273
X0.3151 Y13.3244 Z0.2303
X0.3131 Y13.3248 Z0.2337
X0.3116 Y13.3252 Z0.2373
X0.3107 Y13.3254 Z0.2411
X0.3104 Y13.3255 Z0.245
G0 Z1.1037
X-0.3236 Y11.241
G1 Z0.2425 F25
X-0.3234 Y11.2409 Z0.239 F162
X-0.3226 Y11.2406 Z0.2355
X-0.3214 Y11.2401 Z0.2323
X-0.3197 Y11.2394 Z0.2293
X-0.3175 Y11.2386 Z0.2266
X-0.315 Y11.2376 Z0.2243
X-0.3122 Y11.2365 Z0.2225
X-0.3092 Y11.2353 Z0.2211
X-0.306 Y11.234 Z0.2203
X-0.3028 Y11.2327 Z0.22
X-0.0255 Y11.1215
X-0.0218 Y11.1203
X0.113 Y11.0895
X3.0914 Y10.4097
X3.6188 Y12.7203
X0.6404 Y13.4001
X0.5056 Y13.4308
X0.5018 Y13.4314
X0.377 Y13.4398
X0.3731 Y13.4401 Z0.2203
X0.3693 Y13.4403 Z0.2212
X0.3657 Y13.4406 Z0.2227
X0.3624 Y13.4408 Z0.2248
X0.3594 Y13.441 Z0.2273
X0.3569 Y13.4412 Z0.2303
X0.3548 Y13.4413 Z0.2337
X0.3533 Y13.4414 Z0.2373
X0.3524 Y13.4415 Z0.2411
X0.3521 Z0.245
G0 Z1.3894
X1.8718 Y16.5313
Z1.1037
G1 Z0.6246 F25
X1.872 Y16.5311 Z0.6207 F162
X1.8727 Y16.5305 Z0.6169
X1.8739 Y16.5296 Z0.6132
X1.8755 Y16.5283 Z0.6099
X1.8775 Y16.5267 Z0.6069
X1.8798 Y16.5249 Z0.6044
X1.8825 Y16.5228 Z0.6023
X1.8853 Y16.5205 Z0.6008
X1.8883 Y16.5182 Z0.5999
X1.8913 Y16.5157 Z0.5996
X2.1175 Y16.3354
X3.7452 Y15.0373
G3 X3.7632 Y15.0393 I0.008 J0.01
G1 X3.7682 Y15.0456
G3 X3.7662 Y15.0636 I-0.01 J0.008
G1 X2.1387 Y16.3614
G3 X2.1212 Y16.3594 I-0.0078 J-0.0097
G1 X2.0247 Y16.2386
G3 X2.0267 Y16.221 I0.0098 J-0.0078
G1 X3.7683 Y14.8321
G3 X3.7863 Y14.8341 I0.008 J0.01
G1 X3.9734 Y15.0687
G3 X3.9714 Y15.0867 I-0.01 J0.008
G1 X2.2297 Y16.4756
G3 X2.2121 Y16.4735 I-0.0078 J-0.0097
G1 X1.9369 Y16.1217
G3 X1.9389 Y16.1043 I0.0098 J-0.0077
G1 X3.7914 Y14.627
G3 X3.8094 Y14.629 I0.008 J0.0099
G1 X4.1785 Y15.0919
G3 X4.1765 Y15.1098 I-0.01 J0.0079
G1 X2.3241 Y16.5871
G3 X2.3064 Y16.585 I-0.0078 J-0.0098
G1 X1.8503 Y16.0041
G3 X1.8524 Y15.9866 I0.0098 J-0.0077
G1 X3.8146 Y14.4218
G3 X3.8325 Y14.4238 I0.0079 J0.01
G1 X4.3837 Y15.115
G3 X4.3816 Y15.1329 I-0.01 J0.0079
G1 X2.4193 Y16.6979
G3 X2.4017 Y16.6959 I-0.0078 J-0.0098
G1 X1.7641 Y15.8861
G3 X1.7661 Y15.8686 I0.0098 J-0.0077
G1 X3.8377 Y14.2166
G3 X3.8556 Y14.2187 I0.0079 J0.01
G1 X4.5889 Y15.1381
G3 X4.5869 Y15.1561 I-0.01 J0.008
G1 X2.664 Y16.6872
X2.5142 Y16.8067
G3 X2.4965 Y16.8046 I-0.0078 J-0.0098
G1 X1.6821 Y15.7647
G3 X1.6841 Y15.7473 I0.0098 J-0.0077
G1 X3.8608 Y14.0114
G3 X3.8788 Y14.0134 I0.008 J0.01
G1 X4.7941 Y15.1612
G3 X4.7921 Y15.1792 I-0.01 J0.008
G1 X2.6151 Y16.9153
G3 X2.5974 Y16.9132 I-0.0078 J-0.0098
G1 X1.5997 Y15.6437
G3 X1.6017 Y15.6262 I0.0098 J-0.0077
G1 X3.8839 Y13.8062
G3 X3.9019 Y13.8082 I0.008 J0.01
G1 X4.9992 Y15.1843
G3 X4.9972 Y15.2023 I-0.0099 J0.008
G1 X2.846 Y16.9155
X2.7138 Y17.0209
G3 X2.6963 Y17.0188 I-0.0077 J-0.0097
G1 X1.5196 Y15.5208
G3 X1.5216 Y15.5034 I0.0098 J-0.0077
G1 X3.907 Y13.6011
G3 X3.925 Y13.6031 I0.008 J0.01
G1 X5.2044 Y15.2075
G3 X5.2024 Y15.2254 I-0.01 J0.0079
G1 X2.8169 Y17.1277
X2.7192 Y17.2057
X2.7162 Y17.2081 Z0.5999
X2.7132 Y17.2105 Z0.6008
X2.7103 Y17.2127 Z0.6023
X2.7077 Y17.2148 Z0.6044
X2.7054 Y17.2167 Z0.6069
X2.7034 Y17.2183 Z0.6099
X2.7018 Y17.2196 Z0.6132
X2.7006 Y17.2205 Z0.6169
X2.6999 Y17.2211 Z0.6207
X2.6997 Y17.2213 Z0.6246
G0 Z1.1037
X1.2235 Y15.6189
G1 Z0.6221 F25
X1.2237 Y15.6187 Z0.6186 F162
X1.2242 Y15.6181 Z0.6151
X1.2251 Y15.6171 Z0.6119
X1.2264 Y15.6158 Z0.6089
X1.2279 Y15.6141 Z0.6062
X1.2297 Y15.6121 Z0.6039
X1.2318 Y15.6099 Z0.602
X1.234 Y15.6075 Z0.6007
X1.2363 Y15.6049 Z0.5999
X1.2386 Y15.6023 Z0.5996
X1.4406 Y15.3814
X1.4435 Y15.3787
X1.5517 Y15.2924
X3.9402 Y13.3876
X5.4178 Y15.2406
X3.0294 Y17.1453
X2.9213 Y17.2315
G3 X2.9046 Y17.2305 I-0.0078 J-0.0098
G1 X2.0765 Y16.3857
G3 X2.0776 Y16.3671 I0.0089 J-0.0088
G1 X2.0807 Y16.3647 Z0.5993
X2.0837 Y16.3624 Z0.5984
X2.0865 Y16.3601 Z0.5969
X2.0891 Y16.358 Z0.5948
X2.0914 Y16.3561 Z0.5923
X2.0934 Y16.3546 Z0.5893
X2.095 Y16.3533 Z0.5859
X2.0962 Y16.3523 Z0.5823
X2.0969 Y16.3518 Z0.5785
X2.0972 Y16.3516 Z0.5746
Z0.4348
X2.0974 Y16.3514 Z0.4309
X2.0981 Y16.3508 Z0.4271
X2.0993 Y16.3499 Z0.4234
X2.1009 Y16.3486 Z0.4201
X2.1029 Y16.347 Z0.4171
X2.1052 Y16.3452 Z0.4146
X2.1078 Y16.3431 Z0.4125
X2.1107 Y16.3408 Z0.411
X2.1136 Y16.3384 Z0.4101
X2.1167 Y16.336 Z0.4098
X2.1175 Y16.3354
X3.7452 Y15.0373
G3 X3.7632 Y15.0393 I0.008 J0.01
G1 X3.7682 Y15.0456
G3 X3.7662 Y15.0636 I-0.01 J0.008
G1 X2.1387 Y16.3614
G3 X2.1212 Y16.3594 I-0.0078 J-0.0097
G1 X2.0247 Y16.2386
G3 X2.0267 Y16.221 I0.0098 J-0.0078
G1 X3.7683 Y14.8321
G3 X3.7863 Y14.8341 I0.008 J0.01
G1 X3.9734 Y15.0687
G3 X3.9714 Y15.0867 I-0.01 J0.008
G1 X2.2297 Y16.4756
G3 X2.2121 Y16.4735 I-0.0078 J-0.0097
G1 X1.9369 Y16.1217
G3 X1.9389 Y16.1043 I0.0098 J-0.0077
G1 X3.7914 Y14.627
G3 X3.8094 Y14.629 I0.008 J0.0099
G1 X4.1785 Y15.0919
G3 X4.1765 Y15.1098 I-0.01 J0.0079
G1 X2.3241 Y16.5871
G3 X2.3064 Y16.585 I-0.0078 J-0.0098
G1 X1.8503 Y16.0041
G3 X1.8524 Y15.9866 I0.0098 J-0.0077
G1 X3.8146 Y14.4218
G3 X3.8325 Y14.4238 I0.0079 J0.01
G1 X4.3837 Y15.115
G3 X4.3816 Y15.1329 I-0.01 J0.0079
G1 X2.4193 Y16.6979
G3 X2.4017 Y16.6959 I-0.0078 J-0.0098
G1 X1.7641 Y15.8861
G3 X1.7661 Y15.8686 I0.0098 J-0.0077
G1 X3.8377 Y14.2166
G3 X3.8556 Y14.2187 I0.0079 J0.01
G1 X4.5889 Y15.1381
G3 X4.5869 Y15.1561 I-0.01 J0.008
G1 X2.664 Y16.6872
X2.5142 Y16.8067
G3 X2.4965 Y16.8046 I-0.0078 J-0.0098
G1 X1.6821 Y15.7647
G3 X1.6841 Y15.7473 I0.0098 J-0.0077
G1 X3.8608 Y14.0114
G3 X3.8788 Y14.0134 I0.008 J0.01
G1 X4.7941 Y15.1612
G3 X4.7921 Y15.1792 I-0.01 J0.008
G1 X2.6151 Y16.9153
G3 X2.5974 Y16.9132 I-0.0078 J-0.0098
G1 X1.5997 Y15.6437
G3 X1.6017 Y15.6262 I0.0098 J-0.0077
G1 X3.8839 Y13.8062
G3 X3.9019 Y13.8082 I0.008 J0.01
G1 X4.9992 Y15.1843
G3 X4.9972 Y15.2023 I-0.0099 J0.008
G1 X2.846 Y16.9155
X2.7138 Y17.0209
G3 X2.6963 Y17.0188 I-0.0077 J-0.0097
G1 X1.5196 Y15.5208
G3 X1.5216 Y15.5034 I0.0098 J-0.0077
G1 X3.907 Y13.6011
G3 X3.925 Y13.6031 I0.008 J0.01
G1 X5.2044 Y15.2075
G3 X5.2024 Y15.2254 I-0.01 J0.0079
G1 X2.8169 Y17.1277
X2.7192 Y17.2057
X2.7162 Y17.2081 Z0.4101
X2.7132 Y17.2105 Z0.411
X2.7103 Y17.2127 Z0.4125
X2.7077 Y17.2148 Z0.4146
X2.7054 Y17.2167 Z0.4171
X2.7034 Y17.2183 Z0.4201
X2.7018 Y17.2196 Z0.4234
X2.7006 Y17.2205 Z0.4271
X2.6999 Y17.2211 Z0.4309
X2.6997 Y17.2213 Z0.4348
G0 Z1.1037
X1.2235 Y15.6189
G1 Z0.4323 F25
X1.2237 Y15.6187 Z0.4288 F162
X1.2242 Y15.6181 Z0.4253
X1.2251 Y15.6171 Z0.4221
X1.2264 Y15.6158 Z0.4191
X1.2279 Y15.6141 Z0.4164
X1.2297 Y15.6121 Z0.4141
X1.2318 Y15.6099 Z0.4122
X1.234 Y15.6075 Z0.4109
X1.2363 Y15.6049 Z0.4101
X1.2386 Y15.6023 Z0.4098
X1.4406 Y15.3814
X1.4435 Y15.3787
X1.5517 Y15.2924
X3.9402 Y13.3876
X5.4178 Y15.2406
X3.0294 Y17.1453
X2.9213 Y17.2315
G3 X2.9046 Y17.2305 I-0.0078 J-0.0098
G1 X2.0765 Y16.3857
G3 X2.0776 Y16.3671 I0.0089 J-0.0088
G1 X2.0807 Y16.3647 Z0.4095
X2.0837 Y16.3624 Z0.4086
X2.0865 Y16.3601 Z0.4071
X2.0891 Y16.358 Z0.405
X2.0914 Y16.3561 Z0.4025
X2.0934 Y16.3546 Z0.3995
X2.095 Y16.3533 Z0.3961
X2.0962 Y16.3523 Z0.3925
X2.0969 Y16.3518 Z0.3887
X2.0972 Y16.3516 Z0.3848
Z0.245
X2.0974 Y16.3514 Z0.2411
X2.0981 Y16.3508 Z0.2373
X2.0993 Y16.3499 Z0.2337
X2.1009 Y16.3486 Z0.2303
X2.1029 Y16.347 Z0.2273
X2.1052 Y16.3452 Z0.2248
X2.1078 Y16.3431 Z0.2227
X2.1107 Y16.3408 Z0.2212
X2.1136 Y16.3384 Z0.2203
X2.1167 Y16.336 Z0.22
X2.1175 Y16.3354
X3.7452 Y15.0373
G3 X3.7632 Y15.0393 I0.008 J0.01
G1 X3.7682 Y15.0456
G3 X3.7662 Y15.0636 I-0.01 J0.008
G1 X2.1387 Y16.3614
G3 X2.1212 Y16.3594 I-0.0078 J-0.0097
G1 X2.0247 Y16.2386
G3 X2.0267 Y16.221 I0.0098 J-0.0078
G1 X3.7683 Y14.8321
G3 X3.7863 Y14.8341 I0.008 J0.01
G1 X3.9734 Y15.0687
G3 X3.9714 Y15.0867 I-0.01 J0.008
G1 X2.2297 Y16.4756
G3 X2.2121 Y16.4735 I-0.0078 J-0.0097
G1 X1.9369 Y16.1217
G3 X1.9389 Y16.1043 I0.0098 J-0.0077
G1 X3.7914 Y14.627
G3 X3.8094 Y14.629 I0.008 J0.0099
G1 X4.1785 Y15.0919
G3 X4.1765 Y15.1098 I-0.01 J0.0079
G1 X2.3241 Y16.5871
G3 X2.3064 Y16.585 I-0.0078 J-0.0098
G1 X1.8503 Y16.0041
G3 X1.8524 Y15.9866 I0.0098 J-0.0077
G1 X3.8146 Y14.4218
G3 X3.8325 Y14.4238 I0.0079 J0.01
G1 X4.3837 Y15.115
G3 X4.3816 Y15.1329 I-0.01 J0.0079
G1 X2.4193 Y16.6979
G3 X2.4017 Y16.6959 I-0.0078 J-0.0098
G1 X1.7641 Y15.8861
G3 X1.7661 Y15.8686 I0.0098 J-0.0077
G1 X3.8377 Y14.2166
G3 X3.8556 Y14.2187 I0.0079 J0.01
G1 X4.5889 Y15.1381
G3 X4.5869 Y15.1561 I-0.01 J0.008
G1 X2.664 Y16.6872
X2.5142 Y16.8067
G3 X2.4965 Y16.8046 I-0.0078 J-0.0098
G1 X1.6821 Y15.7647
G3 X1.6841 Y15.7473 I0.0098 J-0.0077
G1 X3.8608 Y14.0114
G3 X3.8788 Y14.0134 I0.008 J0.01
G1 X4.7941 Y15.1612
G3 X4.7921 Y15.1792 I-0.01 J0.008
G1 X2.6151 Y16.9153
G3 X2.5974 Y16.9132 I-0.0078 J-0.0098
G1 X1.5997 Y15.6437
G3 X1.6017 Y15.6262 I0.0098 J-0.0077
G1 X3.8839 Y13.8062
G3 X3.9019 Y13.8082 I0.008 J0.01
G1 X4.9992 Y15.1843
G3 X4.9972 Y15.2023 I-0.0099 J0.008
G1 X2.846 Y16.9155
X2.7138 Y17.0209
G3 X2.6963 Y17.0188 I-0.0077 J-0.0097
G1 X1.5196 Y15.5208
G3 X1.5216 Y15.5034 I0.0098 J-0.0077
G1 X3.907 Y13.6011
G3 X3.925 Y13.6031 I0.008 J0.01
G1 X5.2044 Y15.2075
G3 X5.2024 Y15.2254 I-0.01 J0.0079
G1 X2.8169 Y17.1277
X2.7192 Y17.2057
X2.7162 Y17.2081 Z0.2203
X2.7132 Y17.2105 Z0.2212
X2.7103 Y17.2127 Z0.2227
X2.7077 Y17.2148 Z0.2248
X2.7054 Y17.2167 Z0.2273
X2.7034 Y17.2183 Z0.2303
X2.7018 Y17.2196 Z0.2337
X2.7006 Y17.2205 Z0.2373
X2.6999 Y17.2211 Z0.2411
X2.6997 Y17.2213 Z0.245
G0 Z1.1037
X1.2235 Y15.6189
G1 Z0.2425 F25
X1.2237 Y15.6187 Z0.239 F162
X1.2242 Y15.6181 Z0.2355
X1.2251 Y15.6171 Z0.2323
X1.2264 Y15.6158 Z0.2293
X1.2279 Y15.6141 Z0.2266
X1.2297 Y15.6121 Z0.2243
X1.2318 Y15.6099 Z0.2225
X1.234 Y15.6075 Z0.2211
X1.2363 Y15.6049 Z0.2203
X1.2386 Y15.6023 Z0.22
X1.4406 Y15.3814
X1.4435 Y15.3787
X1.5517 Y15.2924
X3.9402 Y13.3876
X5.4178 Y15.2406
X3.0294 Y17.1453
X2.9213 Y17.2315
X2.918 Y17.2337
X2.8093 Y17.2954
X2.8059 Y17.2973 Z0.2203
X2.8026 Y17.2992 Z0.2212
X2.7994 Y17.301 Z0.2227
X2.7965 Y17.3027 Z0.2248
X2.7939 Y17.3041 Z0.2273
X2.7917 Y17.3054 Z0.2303
X2.7899 Y17.3064 Z0.2337
X2.7886 Y17.3071 Z0.2373
X2.7878 Y17.3076 Z0.2411
X2.7876 Y17.3077 Z0.245
G0 Z1.3894
X5.4978 Y19.4312
Z1.1037
G1 Z0.6246 F25
X5.498 Y19.4309 Z0.6207 F162
X5.4984 Y19.4301 Z0.6169
X5.499 Y19.4288 Z0.6132
X5.4999 Y19.4269 Z0.6099
X5.501 Y19.4246 Z0.6069
X5.5023 Y19.4219 Z0.6044
X5.5038 Y19.4189 Z0.6023
X5.5053 Y19.4157 Z0.6008
X5.507 Y19.4122 Z0.5999
X5.5087 Y19.4087 Z0.5996
X5.6338 Y19.1489
X6.537 Y17.2733
G3 X6.5541 Y17.2672 I0.0116 J0.0055
G1 X6.5613 Y17.2708
G3 X6.5673 Y17.2878 I-0.0055 J0.0115
G1 X5.6641 Y19.1633
G3 X5.6475 Y19.1691 I-0.0112 J-0.0054
G1 X5.5081 Y19.1023
G3 X5.5022 Y19.0856 I0.0054 J-0.0113
G1 X6.4689 Y17.0784
G3 X6.4859 Y17.0724 I0.0115 J0.0055
G1 X6.7562 Y17.2026
G3 X6.7622 Y17.2197 I-0.0055 J0.0115
G1 X5.7957 Y19.2267
G3 X5.7789 Y19.2325 I-0.0113 J-0.0054
G1 X5.3783 Y19.035
G3 X5.3725 Y19.0183 I0.0056 J-0.0113
G1 X6.4007 Y16.8835
G3 X6.4177 Y16.8776 I0.0115 J0.0056
G1 X6.9511 Y17.1344
G3 X6.9571 Y17.1515 I-0.0055 J0.0115
G1 X5.9291 Y19.2862
G3 X5.9123 Y19.292 I-0.0113 J-0.0055
G1 X5.2493 Y18.9663
G3 X5.2436 Y18.9497 I0.0056 J-0.0112
G1 X6.3325 Y16.6886
G3 X6.3495 Y16.6827 I0.0115 J0.0056
G1 X7.146 Y17.0662
G3 X7.152 Y17.0833 I-0.0055 J0.0115
G1 X6.0629 Y19.3447
G3 X6.0462 Y19.3505 I-0.0112 J-0.0054
G1 X5.1206 Y18.8973
G3 X5.1149 Y18.8807 I0.0055 J-0.0112
G1 X6.2643 Y16.4937
G3 X6.2813 Y16.4878 I0.0115 J0.0056
G1 X7.3409 Y16.998
G3 X7.3469 Y17.0151 I-0.0055 J0.0115
G1 X6.1974 Y19.4019
G3 X6.1807 Y19.4076 I-0.0112 J-0.0054
G1 X4.9939 Y18.8238
G3 X4.9882 Y18.8072 I0.0055 J-0.0112
G1 X6.1961 Y16.2988
G3 X6.2131 Y16.2929 I0.0115 J0.0056
G1 X7.5358 Y16.9298
G3 X7.5418 Y16.9469 I-0.0056 J0.0116
G1 X6.3336 Y19.4556
G3 X6.3169 Y19.4613 I-0.0112 J-0.0054
G1 X4.867 Y18.7508
G3 X4.8613 Y18.7341 I0.0055 J-0.0112
G1 X6.1279 Y16.104
G3 X6.1449 Y16.098 I0.0115 J0.0055
G1 X7.7307 Y16.8617
G3 X7.7366 Y16.8787 I-0.0056 J0.0115
G1 X6.47 Y19.5089
G3 X6.4533 Y19.5146 I-0.0112 J-0.0055
G1 X4.7416 Y18.6747
G3 X4.7358 Y18.658 I0.0055 J-0.0113
G1 X6.0597 Y15.9091
G3 X6.0767 Y15.9031 I0.0115 J0.0055
G1 X7.9256 Y16.7935
G3 X7.9315 Y16.8105 I-0.0056 J0.0115
G1 X6.6077 Y19.5595
X6.5535 Y19.6721
X6.5518 Y19.6756 Z0.5999
X6.5501 Y19.679 Z0.6008
X6.5486 Y19.6823 Z0.6023
X6.5471 Y19.6853 Z0.6044
X6.5458 Y19.688 Z0.6069
X6.5447 Y19.6903 Z0.6099
X6.5438 Y19.6921 Z0.6132
X6.5432 Y19.6935 Z0.6169
X6.5428 Y19.6943 Z0.6207
X6.5426 Y19.6946 Z0.6246
G0 Z1.1037
X4.5173 Y18.8921
G1 Z0.6221 F25
Y18.8918 Z0.6186 F162
X4.5176 Y18.891 Z0.6151
X4.518 Y18.8897 Z0.6119
X4.5185 Y18.888 Z0.6089
X4.5192 Y18.8858 Z0.6062
X4.5199 Y18.8832 Z0.6039
X4.5208 Y18.8803 Z0.602
X4.5217 Y18.8772 Z0.6007
X4.5227 Y18.8739 Z0.5999
X4.5237 Y18.8705 Z0.5996
X4.6101 Y18.583
X4.6115 Y18.5793
X4.6714 Y18.4549
X5.9969 Y15.7024
X8.1322 Y16.7307
X6.8067 Y19.4831
X6.7468 Y19.6077
G3 X6.7312 Y19.6141 I-0.0113 J-0.0054
G1 X5.6187 Y19.212
G3 X5.6117 Y19.1949 I0.0042 J-0.0117
G1 X5.6134 Y19.1913 Z0.5993
X5.615 Y19.1879 Z0.5984
X5.6166 Y19.1846 Z0.5969
X5.618 Y19.1816 Z0.5948
X5.6193 Y19.1789 Z0.5923
X5.6204 Y19.1766 Z0.5893
X5.6213 Y19.1748 Z0.5859
X5.622 Y19.1734 Z0.5823
X5.6224 Y19.1726 Z0.5785
X5.6225 Y19.1723 Z0.5746
Z0.4348
X5.6227 Y19.1721 Z0.4309
X5.6231 Y19.1712 Z0.4271
X5.6237 Y19.1699 Z0.4234
X5.6246 Y19.168 Z0.4201
X5.6257 Y19.1657 Z0.4171
X5.627 Y19.163 Z0.4146
X5.6284 Y19.16 Z0.4125
X5.63 Y19.1568 Z0.411
X5.6317 Y19.1533 Z0.4101
X5.6334 Y19.1498 Z0.4098
X5.6338 Y19.1489
X6.537 Y17.2733
G3 X6.5541 Y17.2672 I0.0116 J0.0055
G1 X6.5613 Y17.2708
G3 X6.5673 Y17.2878 I-0.0055 J0.0115
G1 X5.6641 Y19.1633
G3 X5.6475 Y19.1691 I-0.0112 J-0.0054
G1 X5.5081 Y19.1023
G3 X5.5022 Y19.0856 I0.0054 J-0.0113
G1 X6.4689 Y17.0784
G3 X6.4859 Y17.0724 I0.0115 J0.0055
G1 X6.7562 Y17.2026
G3 X6.7622 Y17.2197 I-0.0055 J0.0115
G1 X5.7957 Y19.2267
G3 X5.7789 Y19.2325 I-0.0113 J-0.0054
G1 X5.3783 Y19.035
G3 X5.3725 Y19.0183 I0.0056 J-0.0113
G1 X6.4007 Y16.8835
G3 X6.4177 Y16.8776 I0.0115 J0.0056
G1 X6.9511 Y17.1344
G3 X6.9571 Y17.1515 I-0.0055 J0.0115
G1 X5.9291 Y19.2862
G3 X5.9123 Y19.292 I-0.0113 J-0.0055
G1 X5.2493 Y18.9663
G3 X5.2436 Y18.9497 I0.0056 J-0.0112
G1 X6.3325 Y16.6886
G3 X6.3495 Y16.6827 I0.0115 J0.0056
G1 X7.146 Y17.0662
G3 X7.152 Y17.0833 I-0.0055 J0.0115
G1 X6.0629 Y19.3447
G3 X6.0462 Y19.3505 I-0.0112 J-0.0054
G1 X5.1206 Y18.8973
G3 X5.1149 Y18.8807 I0.0055 J-0.0112
G1 X6.2643 Y16.4937
G3 X6.2813 Y16.4878 I0.0115 J0.0056
G1 X7.3409 Y16.998
G3 X7.3469 Y17.0151 I-0.0055 J0.0115
G1 X6.1974 Y19.4019
G3 X6.1807 Y19.4076 I-0.0112 J-0.0054
G1 X4.9939 Y18.8238
G3 X4.9882 Y18.8072 I0.0055 J-0.0112
G1 X6.1961 Y16.2988
G3 X6.2131 Y16.2929 I0.0115 J0.0056
G1 X7.5358 Y16.9298
G3 X7.5418 Y16.9469 I-0.0056 J0.0116
G1 X6.3336 Y19.4556
G3 X6.3169 Y19.4613 I-0.0112 J-0.0054
G1 X4.867 Y18.7508
G3 X4.8613 Y18.7341 I0.0055 J-0.0112
G1 X6.1279 Y16.104
G3 X6.1449 Y16.098 I0.0115 J0.0055
G1 X7.7307 Y16.8617
G3 X7.7366 Y16.8787 I-0.0056 J0.0115
G1 X6.47 Y19.5089
G3 X6.4533 Y19.5146 I-0.0112 J-0.0055
G1 X4.7416 Y18.6747
G3 X4.7358 Y18.658 I0.0055 J-0.0113
G1 X6.0597 Y15.9091
G3 X6.0767 Y15.9031 I0.0115 J0.0055
G1 X7.9256 Y16.7935
G3 X7.9315 Y16.8105 I-0.0056 J0.0115
G1 X6.6077 Y19.5595
X6.5535 Y19.6721
X6.5518 Y19.6756 Z0.4101
X6.5501 Y19.679 Z0.411
X6.5486 Y19.6823 Z0.4125
X6.5471 Y19.6853 Z0.4146
X6.5458 Y19.688 Z0.4171
X6.5447 Y19.6903 Z0.4201
X6.5438 Y19.6921 Z0.4234
X6.5432 Y19.6935 Z0.4271
X6.5428 Y19.6943 Z0.4309
X6.5426 Y19.6946 Z0.4348
G0 Z1.1037
X4.5173 Y18.8921
G1 Z0.4323 F25
Y18.8918 Z0.4288 F162
X4.5176 Y18.891 Z0.4253
X4.518 Y18.8897 Z0.4221
X4.5185 Y18.888 Z0.4191
X4.5192 Y18.8858 Z0.4164
X4.5199 Y18.8832 Z0.4141
X4.5208 Y18.8803 Z0.4122
X4.5217 Y18.8772 Z0.4109
X4.5227 Y18.8739 Z0.4101
X4.5237 Y18.8705 Z0.4098
X4.6101 Y18.583
X4.6115 Y18.5793
X4.6714 Y18.4549
X5.9969 Y15.7024
X8.1322 Y16.7307
X6.8067 Y19.4831
X6.7468 Y19.6077
G3 X6.7312 Y19.6141 I-0.0113 J-0.0054
G1 X5.6187 Y19.212
G3 X5.6117 Y19.1949 I0.0042 J-0.0117
G1 X5.6134 Y19.1913 Z0.4095
X5.615 Y19.1879 Z0.4086
X5.6166 Y19.1846 Z0.4071
X5.618 Y19.1816 Z0.405
X5.6193 Y19.1789 Z0.4025
X5.6204 Y19.1766 Z0.3995
X5.6213 Y19.1748 Z0.3961
X5.622 Y19.1734 Z0.3925
X5.6224 Y19.1726 Z0.3887
X5.6225 Y19.1723 Z0.3848
Z0.245
X5.6227 Y19.1721 Z0.2411
X5.6231 Y19.1712 Z0.2373
X5.6237 Y19.1699 Z0.2337
X5.6246 Y19.168 Z0.2303
X5.6257 Y19.1657 Z0.2273
X5.627 Y19.163 Z0.2248
X5.6284 Y19.16 Z0.2227
X5.63 Y19.1568 Z0.2212
X5.6317 Y19.1533 Z0.2203
X5.6334 Y19.1498 Z0.22
X5.6338 Y19.1489
X6.537 Y17.2733
G3 X6.5541 Y17.2672 I0.0116 J0.0055
G1 X6.5613 Y17.2708
G3 X6.5673 Y17.2878 I-0.0055 J0.0115
G1 X5.6641 Y19.1633
G3 X5.6475 Y19.1691 I-0.0112 J-0.0054
G1 X5.5081 Y19.1023
G3 X5.5022 Y19.0856 I0.0054 J-0.0113
G1 X6.4689 Y17.0784
G3 X6.4859 Y17.0724 I0.0115 J0.0055
G1 X6.7562 Y17.2026
G3 X6.7622 Y17.2197 I-0.0055 J0.0115
G1 X5.7957 Y19.2267
G3 X5.7789 Y19.2325 I-0.0113 J-0.0054
G1 X5.3783 Y19.035
G3 X5.3725 Y19.0183 I0.0056 J-0.0113
G1 X6.4007 Y16.8835
G3 X6.4177 Y16.8776 I0.0115 J0.0056
G1 X6.9511 Y17.1344
G3 X6.9571 Y17.1515 I-0.0055 J0.0115
G1 X5.9291 Y19.2862
G3 X5.9123 Y19.292 I-0.0113 J-0.0055
G1 X5.2493 Y18.9663
G3 X5.2436 Y18.9497 I0.0056 J-0.0112
G1 X6.3325 Y16.6886
G3 X6.3495 Y16.6827 I0.0115 J0.0056
G1 X7.146 Y17.0662
G3 X7.152 Y17.0833 I-0.0055 J0.0115
G1 X6.0629 Y19.3447
G3 X6.0462 Y19.3505 I-0.0112 J-0.0054
G1 X5.1206 Y18.8973
G3 X5.1149 Y18.8807 I0.0055 J-0.0112
G1 X6.2643 Y16.4937
G3 X6.2813 Y16.4878 I0.0115 J0.0056
G1 X7.3409 Y16.998
G3 X7.3469 Y17.0151 I-0.0055 J0.0115
G1 X6.1974 Y19.4019
G3 X6.1807 Y19.4076 I-0.0112 J-0.0054
G1 X4.9939 Y18.8238
G3 X4.9882 Y18.8072 I0.0055 J-0.0112
G1 X6.1961 Y16.2988
G3 X6.2131 Y16.2929 I0.0115 J0.0056
G1 X7.5358 Y16.9298
G3 X7.5418 Y16.9469 I-0.0056 J0.0116
G1 X6.3336 Y19.4556
G3 X6.3169 Y19.4613 I-0.0112 J-0.0054
G1 X4.867 Y18.7508
G3 X4.8613 Y18.7341 I0.0055 J-0.0112
G1 X6.1279 Y16.104
G3 X6.1449 Y16.098 I0.0115 J0.0055
G1 X7.7307 Y16.8617
G3 X7.7366 Y16.8787 I-0.0056 J0.0115
G1 X6.47 Y19.5089
G3 X6.4533 Y19.5146 I-0.0112 J-0.0055
G1 X4.7416 Y18.6747
G3 X4.7358 Y18.658 I0.0055 J-0.0113
G1 X6.0597 Y15.9091
G3 X6.0767 Y15.9031 I0.0115 J0.0055
G1 X7.9256 Y16.7935
G3 X7.9315 Y16.8105 I-0.0056 J0.0115
G1 X6.6077 Y19.5595
X6.5535 Y19.6721
X6.5518 Y19.6756 Z0.2203
X6.5501 Y19.679 Z0.2212
X6.5486 Y19.6823 Z0.2227
X6.5471 Y19.6853 Z0.2248
X6.5458 Y19.688 Z0.2273
X6.5447 Y19.6903 Z0.2303
X6.5438 Y19.6921 Z0.2337
X6.5432 Y19.6935 Z0.2373
X6.5428 Y19.6943 Z0.2411
X6.5426 Y19.6946 Z0.245
G0 Z1.1037
X4.5173 Y18.8921
G1 Z0.2425 F25
Y18.8918 Z0.239 F162
X4.5176 Y18.891 Z0.2355
X4.518 Y18.8897 Z0.2323
X4.5185 Y18.888 Z0.2293
X4.5192 Y18.8858 Z0.2266
X4.5199 Y18.8832 Z0.2243
X4.5208 Y18.8803 Z0.2225
X4.5217 Y18.8772 Z0.2211
X4.5227 Y18.8739 Z0.2203
X4.5237 Y18.8705 Z0.22
X4.6101 Y18.583
X4.6115 Y18.5793
X4.6714 Y18.4549
X5.9969 Y15.7024
X8.1322 Y16.7307
X6.8067 Y19.4831
X6.7468 Y19.6077
X6.7448 Y19.6111
X6.6736 Y19.7138
X6.6714 Y19.717 Z0.2203
X6.6692 Y19.7202 Z0.2212
X6.6671 Y19.7232 Z0.2227
X6.6652 Y19.7259 Z0.2248
X6.6635 Y19.7284 Z0.2273
X6.6621 Y19.7304 Z0.2303
X6.6609 Y19.7321 Z0.2337
X6.6601 Y19.7334 Z0.2373
X6.6595 Y19.7341 Z0.2411
X6.6594 Y19.7344 Z0.245
G0 Z1.3894
X10.0226 Y20.4728
Z1.1037
G1 Z0.6246 F25
G19 G2 Y20.4478 Z0.5996 J-0.025 K0 F162
G1 Y20.1582
Y18.0765
G17 G3 X10.0353 Y18.0638 I0.0127 J0
G1 X10.0434 Y18.0637
G3 X10.0562 Y18.0765 I0 J0.0128
G1 Y20.1581
G3 X10.0437 Y20.1706 I-0.0125 J0
G1 X9.8891 Y20.1707
G3 X9.8766 Y20.1582 I0 J-0.0125
G1 Y17.9305
G3 X9.8893 Y17.9178 I0.0127 J0
G1 X10.1894 Y17.9177
G3 X10.2022 Y17.9305 I0 J0.0128
G1 Y20.1582
G3 X10.1895 Y20.1707 I-0.0125 J0
G1 X9.7429 Y20.1662
G3 X9.7306 Y20.1537 I0.0002 J-0.0125
G1 Y17.7845
G3 X9.7433 Y17.7718 I0.0127 J0
G1 X10.3354 Y17.7717
G3 X10.3482 Y17.7845 I0 J0.0128
G1 Y20.1538
G3 X10.3356 Y20.1663 I-0.0125 J0
G1 X9.597 Y20.1607
G3 X9.5846 Y20.1482 I0.0001 J-0.0125
G1 Y17.6385
G3 X9.5973 Y17.6258 I0.0127 J0
G1 X10.4814 Y17.6257
G3 X10.4942 Y17.6385 I0 J0.0128
G1 Y20.1485
G3 X10.4816 Y20.161 I-0.0125 J0
G1 X9.451 Y20.1543
G3 X9.4386 Y20.1418 I0.0001 J-0.0125
G1 Y17.4925
G3 X9.4513 Y17.4798 I0.0127 J0
G1 X10.6274 Y17.4797
G3 X10.6402 Y17.4925 I0 J0.0128
G1 Y20.1417
G3 X10.6276 Y20.1542 I-0.0125 J0
G1 X9.305 Y20.1435
G3 X9.2926 Y20.131 I0.0001 J-0.0125
G1 Y17.3465
G3 X9.3053 Y17.3338 I0.0127 J0
G1 X10.7734 Y17.3337
G3 X10.7862 Y17.3465 I0 J0.0128
G1 Y20.131
G3 X10.7736 Y20.1435 I-0.0125 J0
G1 X9.159 Y20.1321
G3 X9.1466 Y20.1196 I0.0001 J-0.0125
G1 Y17.2005
G3 X9.1593 Y17.1878 I0.0127 J0
G1 X10.9194 Y17.1877
G3 X10.9322 Y17.2005 I0 J0.0128
G1 Y20.1197
G3 X10.9196 Y20.1322 I-0.0125 J0
G1 X9.013 Y20.1179
G3 X9.0006 Y20.1054 I0.0001 J-0.0125
G1 Y17.0545
G3 X9.0133 Y17.0418 I0.0127 J0
G1 X11.0654 Y17.0417
G3 X11.0782 Y17.0545 I0 J0.0128
G1 Y20.1056
Y20.2306
G19 G3 Y20.2556 Z0.6246 J0 K0.025
G0 Z1.1037
X8.9051 Y20.4112
G1 Z0.6221 F25
Y20.411 Z0.6186 F162
X8.9049 Y20.4102 Z0.6151
X8.9047 Y20.4088 Z0.6119
X8.9044 Y20.407 Z0.6089
X8.9041 Y20.4047 Z0.6062
X8.9037 Y20.4021 Z0.6039
X8.9032 Y20.3991 Z0.602
X8.9027 Y20.3959 Z0.6007
X8.9021 Y20.3925 Z0.5999
X8.9016 Y20.389 Z0.5996
X8.8547 Y20.0928
X8.8544 Y20.0889
Y16.8955
X11.2244
Y19.9505
Y20.0887
G17 G3 X11.2131 Y20.1011 I-0.0125 J0
G1 X10.0363 Y20.2216
G3 X10.0226 Y20.2092 I-0.0012 J-0.0124
G19 G3 Y20.1842 Z0.5746 J0 K-0.025
G1 Z0.4348
G2 Y20.1592 Z0.4098 J-0.025 K0
G1 Y20.1582
Y18.0765
G17 G3 X10.0353 Y18.0638 I0.0127 J0
G1 X10.0434 Y18.0637
G3 X10.0562 Y18.0765 I0 J0.0128
G1 Y20.1581
G3 X10.0437 Y20.1706 I-0.0125 J0
G1 X9.8891 Y20.1707
G3 X9.8766 Y20.1582 I0 J-0.0125
G1 Y17.9305
G3 X9.8893 Y17.9178 I0.0127 J0
G1 X10.1894 Y17.9177
G3 X10.2022 Y17.9305 I0 J0.0128
G1 Y20.1582
G3 X10.1895 Y20.1707 I-0.0125 J0
G1 X9.7429 Y20.1662
G3 X9.7306 Y20.1537 I0.0002 J-0.0125
G1 Y17.7845
G3 X9.7433 Y17.7718 I0.0127 J0
G1 X10.3354 Y17.7717
G3 X10.3482 Y17.7845 I0 J0.0128
G1 Y20.1538
G3 X10.3356 Y20.1663 I-0.0125 J0
G1 X9.597 Y20.1607
G3 X9.5846 Y20.1482 I0.0001 J-0.0125
G1 Y17.6385
G3 X9.5973 Y17.6258 I0.0127 J0
G1 X10.4814 Y17.6257
G3 X10.4942 Y17.6385 I0 J0.0128
G1 Y20.1485
G3 X10.4816 Y20.161 I-0.0125 J0
G1 X9.451 Y20.1543
G3 X9.4386 Y20.1418 I0.0001 J-0.0125
G1 Y17.4925
G3 X9.4513 Y17.4798 I0.0127 J0
G1 X10.6274 Y17.4797
G3 X10.6402 Y17.4925 I0 J0.0128
G1 Y20.1417
G3 X10.6276 Y20.1542 I-0.0125 J0
G1 X9.305 Y20.1435
G3 X9.2926 Y20.131 I0.0001 J-0.0125
G1 Y17.3465
G3 X9.3053 Y17.3338 I0.0127 J0
G1 X10.7734 Y17.3337
G3 X10.7862 Y17.3465 I0 J0.0128
G1 Y20.131
G3 X10.7736 Y20.1435 I-0.0125 J0
G1 X9.159 Y20.1321
G3 X9.1466 Y20.1196 I0.0001 J-0.0125
G1 Y17.2005
G3 X9.1593 Y17.1878 I0.0127 J0
G1 X10.9194 Y17.1877
G3 X10.9322 Y17.2005 I0 J0.0128
G1 Y20.1197
G3 X10.9196 Y20.1322 I-0.0125 J0
G1 X9.013 Y20.1179
G3 X9.0006 Y20.1054 I0.0001 J-0.0125
G1 Y17.0545
G3 X9.0133 Y17.0418 I0.0127 J0
G1 X11.0654 Y17.0417
G3 X11.0782 Y17.0545 I0 J0.0128
G1 Y20.1056
Y20.2306
G19 G3 Y20.2556 Z0.4348 J0 K0.025
G0 Z1.1037
X8.9051 Y20.4112
G1 Z0.4323 F25
Y20.411 Z0.4288 F162
X8.9049 Y20.4102 Z0.4253
X8.9047 Y20.4088 Z0.4221
X8.9044 Y20.407 Z0.4191
X8.9041 Y20.4047 Z0.4164
X8.9037 Y20.4021 Z0.4141
X8.9032 Y20.3991 Z0.4122
X8.9027 Y20.3959 Z0.4109
X8.9021 Y20.3925 Z0.4101
X8.9016 Y20.389 Z0.4098
X8.8547 Y20.0928
X8.8544 Y20.0889
Y16.8955
X11.2244
Y19.9505
Y20.0887
G17 G3 X11.2131 Y20.1011 I-0.0125 J0
G1 X10.0363 Y20.2216
G3 X10.0226 Y20.2092 I-0.0012 J-0.0124
G19 G3 Y20.1842 Z0.3848 J0 K-0.025
G1 Z0.245
G2 Y20.1592 Z0.22 J-0.025 K0
G1 Y20.1582
Y18.0765
G17 G3 X10.0353 Y18.0638 I0.0127 J0
G1 X10.0434 Y18.0637
G3 X10.0562 Y18.0765 I0 J0.0128
G1 Y20.1581
G3 X10.0437 Y20.1706 I-0.0125 J0
G1 X9.8891 Y20.1707
G3 X9.8766 Y20.1582 I0 J-0.0125
G1 Y17.9305
G3 X9.8893 Y17.9178 I0.0127 J0
G1 X10.1894 Y17.9177
G3 X10.2022 Y17.9305 I0 J0.0128
G1 Y20.1582
G3 X10.1895 Y20.1707 I-0.0125 J0
G1 X9.7429 Y20.1662
G3 X9.7306 Y20.1537 I0.0002 J-0.0125
G1 Y17.7845
G3 X9.7433 Y17.7718 I0.0127 J0
G1 X10.3354 Y17.7717
G3 X10.3482 Y17.7845 I0 J0.0128
G1 Y20.1538
G3 X10.3356 Y20.1663 I-0.0125 J0
G1 X9.597 Y20.1607
G3 X9.5846 Y20.1482 I0.0001 J-0.0125
G1 Y17.6385
G3 X9.5973 Y17.6258 I0.0127 J0
G1 X10.4814 Y17.6257
G3 X10.4942 Y17.6385 I0 J0.0128
G1 Y20.1485
G3 X10.4816 Y20.161 I-0.0125 J0
G1 X9.451 Y20.1543
G3 X9.4386 Y20.1418 I0.0001 J-0.0125
G1 Y17.4925
G3 X9.4513 Y17.4798 I0.0127 J0
G1 X10.6274 Y17.4797
G3 X10.6402 Y17.4925 I0 J0.0128
G1 Y20.1417
G3 X10.6276 Y20.1542 I-0.0125 J0
G1 X9.305 Y20.1435
G3 X9.2926 Y20.131 I0.0001 J-0.0125
G1 Y17.3465
G3 X9.3053 Y17.3338 I0.0127 J0
G1 X10.7734 Y17.3337
G3 X10.7862 Y17.3465 I0 J0.0128
G1 Y20.131
G3 X10.7736 Y20.1435 I-0.0125 J0
G1 X9.159 Y20.1321
G3 X9.1466 Y20.1196 I0.0001 J-0.0125
G1 Y17.2005
G3 X9.1593 Y17.1878 I0.0127 J0
G1 X10.9194 Y17.1877
G3 X10.9322 Y17.2005 I0 J0.0128
G1 Y20.1197
G3 X10.9196 Y20.1322 I-0.0125 J0
G1 X9.013 Y20.1179
G3 X9.0006 Y20.1054 I0.0001 J-0.0125
G1 Y17.0545
G3 X9.0133 Y17.0418 I0.0127 J0
G1 X11.0654 Y17.0417
G3 X11.0782 Y17.0545 I0 J0.0128
G1 Y20.1056
Y20.2306
G19 G3 Y20.2556 Z0.245 J0 K0.025
G0 Z1.1037
X8.9051 Y20.4112
G1 Z0.2425 F25
Y20.411 Z0.239 F162
X8.9049 Y20.4102 Z0.2355
X8.9047 Y20.4088 Z0.2323
X8.9044 Y20.407 Z0.2293
X8.9041 Y20.4047 Z0.2266
X8.9037 Y20.4021 Z0.2243
X8.9032 Y20.3991 Z0.2225
X8.9027 Y20.3959 Z0.2211
X8.9021 Y20.3925 Z0.2203
X8.9016 Y20.389 Z0.22
X8.8547 Y20.0928
X8.8544 Y20.0889
Y16.8955
X11.2244
Y19.9505
Y20.0887
X11.2241 Y20.0926
X11.2045 Y20.2161
X11.2039 Y20.22 Z0.2203
X11.2033 Y20.2237 Z0.2212
X11.2027 Y20.2273 Z0.2227
X11.2022 Y20.2306 Z0.2248
X11.2017 Y20.2336 Z0.2273
X11.2013 Y20.2361 Z0.2303
X11.201 Y20.2381 Z0.2337
X11.2008 Y20.2396 Z0.2373
X11.2006 Y20.2405 Z0.2411
Y20.2408 Z0.245
G0 Z1.3894
X14.5513 Y19.4471
Z1.1037
G1 Z0.6246 F25
X14.5511 Y19.4469 Z0.6207 F162
X14.5507 Y19.446 Z0.6169
X14.5501 Y19.4447 Z0.6132
X14.5492 Y19.4428 Z0.6099
X14.5481 Y19.4405 Z0.6069
X14.5468 Y19.4379 Z0.6044
X14.5454 Y19.4348 Z0.6023
X14.5438 Y19.4316 Z0.6008
X14.5421 Y19.4281 Z0.5999
X14.5404 Y19.4246 Z0.5996
X14.4148 Y19.1637
X13.5114 Y17.2879
G17 G3 X13.5174 Y17.2708 I0.0115 J-0.0056
G1 X13.5246 Y17.2673
G3 X13.5417 Y17.2733 I0.0056 J0.0115
G1 X14.4449 Y19.1488
G3 X14.4391 Y19.1655 I-0.0113 J0.0054
G1 X14.2999 Y19.2328
G3 X14.2833 Y19.227 I-0.0054 J-0.0112
G1 X13.3165 Y17.2197
G3 X13.3225 Y17.2026 I0.0115 J-0.0056
G1 X13.5928 Y17.0724
G3 X13.6099 Y17.0784 I0.0056 J0.0115
G1 X14.5764 Y19.0855
G3 X14.5705 Y19.1022 I-0.0112 J0.0054
G1 X14.1662 Y19.2919
G3 X14.1495 Y19.286 I-0.0054 J-0.0113
G1 X13.1216 Y17.1515
G3 X13.1276 Y17.1343 I0.0116 J-0.0056
G1 X13.661 Y16.8775
G3 X13.6782 Y16.8835 I0.0056 J0.0116
G1 X14.7061 Y19.0182
G3 X14.7002 Y19.0349 I-0.0113 J0.0054
G1 X14.0323 Y19.3505
G3 X14.0157 Y19.3446 I-0.0053 J-0.0113
G1 X12.9268 Y17.0833
G3 X12.9327 Y17.0662 I0.0115 J-0.0056
G1 X13.7292 Y16.6827
G3 X13.7463 Y16.6886 I0.0056 J0.0115
G1 X14.8353 Y18.95
G3 X14.8294 Y18.9668 I-0.0112 J0.0055
G1 X13.8981 Y19.4081
G3 X13.8814 Y19.4023 I-0.0054 J-0.0113
G1 X12.7319 Y17.0151
G3 X12.7378 Y16.998 I0.0115 J-0.0056
G1 X13.7974 Y16.4878
G3 X13.8145 Y16.4937 I0.0056 J0.0115
G1 X14.9639 Y18.8806
G3 X14.958 Y18.8973 I-0.0113 J0.0054
G1 X13.7617 Y19.4614
G3 X13.745 Y19.4555 I-0.0054 J-0.0113
G1 X12.537 Y16.9469
G3 X12.543 Y16.9299 I0.0115 J-0.0055
G1 X13.8656 Y16.2929
G3 X13.8827 Y16.2988 I0.0056 J0.0115
G1 X15.0908 Y18.8076
G3 X15.0849 Y18.8243 I-0.0113 J0.0054
G1 X13.6253 Y19.5147
G3 X13.6086 Y19.5088 I-0.0054 J-0.0113
G1 X12.3421 Y16.8787
G3 X12.3481 Y16.8617 I0.0115 J-0.0055
G1 X13.9338 Y16.098
G3 X13.9509 Y16.1039 I0.0056 J0.0115
G1 X15.2175 Y18.7341
G3 X15.2115 Y18.7508 I-0.0113 J0.0054
G1 X13.4876 Y19.5653
G3 X13.471 Y19.5594 I-0.0053 J-0.0113
G1 X12.1472 Y16.8105
G3 X12.1532 Y16.7935 I0.0115 J-0.0055
G1 X14.002 Y15.9031
G3 X14.019 Y15.9091 I0.0055 J0.0115
G1 X15.3429 Y18.658
X15.3971 Y18.7706
X15.3988 Y18.7742 Z0.5999
X15.4005 Y18.7776 Z0.6008
X15.402 Y18.7809 Z0.6023
X15.4035 Y18.7839 Z0.6044
X15.4048 Y18.7866 Z0.6069
X15.4059 Y18.7889 Z0.6099
X15.4068 Y18.7907 Z0.6132
X15.4074 Y18.7921 Z0.6169
X15.4078 Y18.7929 Z0.6207
X15.408 Y18.7932 Z0.6246
G0 Z1.1037
X13.5169 Y19.8752
G1 Z0.6221 F25
X13.5168 Y19.875 Z0.6186 F162
X13.5163 Y19.8743 Z0.6151
X13.5155 Y19.8732 Z0.6119
X13.5145 Y19.8717 Z0.6089
X13.5132 Y19.8698 Z0.6062
X13.5117 Y19.8676 Z0.6039
X13.5099 Y19.8651 Z0.602
X13.5081 Y19.8624 Z0.6007
X13.5061 Y19.8596 Z0.5999
X13.5041 Y19.8567 Z0.5996
X13.334 Y19.6112
X13.332 Y19.6078
X13.272 Y19.4831
X11.9465 Y16.7307
X14.0818 Y15.7024
X15.4073 Y18.4549
X15.4673 Y18.5794
G3 X15.4626 Y18.5955 I-0.0113 J0.0054
G1 X14.4547 Y19.2149
G3 X14.4369 Y19.2097 I-0.0065 J-0.0107
G1 X14.4352 Y19.2061 Z0.5993
X14.4336 Y19.2027 Z0.5984
X14.432 Y19.1994 Z0.5969
X14.4305 Y19.1964 Z0.5948
X14.4292 Y19.1937 Z0.5923
X14.4281 Y19.1914 Z0.5893
X14.4272 Y19.1896 Z0.5859
X14.4266 Y19.1882 Z0.5823
X14.4262 Y19.1874 Z0.5785
X14.4261 Y19.1871 Z0.5746
Z0.4348
X14.4259 Y19.1869 Z0.4309
X14.4255 Y19.186 Z0.4271
X14.4249 Y19.1847 Z0.4234
X14.424 Y19.1828 Z0.4201
X14.4229 Y19.1805 Z0.4171
X14.4216 Y19.1779 Z0.4146
X14.4201 Y19.1748 Z0.4125
X14.4186 Y19.1716 Z0.411
X14.4169 Y19.1681 Z0.4101
X14.4152 Y19.1646 Z0.4098
X14.4148 Y19.1637
X13.5114 Y17.2879
G3 X13.5174 Y17.2708 I0.0115 J-0.0056
G1 X13.5246 Y17.2673
G3 X13.5417 Y17.2733 I0.0056 J0.0115
G1 X14.4449 Y19.1488
G3 X14.4391 Y19.1655 I-0.0113 J0.0054
G1 X14.2999 Y19.2328
G3 X14.2833 Y19.227 I-0.0054 J-0.0112
G1 X13.3165 Y17.2197
G3 X13.3225 Y17.2026 I0.0115 J-0.0056
G1 X13.5928 Y17.0724
G3 X13.6099 Y17.0784 I0.0056 J0.0115
G1 X14.5764 Y19.0855
G3 X14.5705 Y19.1022 I-0.0112 J0.0054
G1 X14.1662 Y19.2919
G3 X14.1495 Y19.286 I-0.0054 J-0.0113
G1 X13.1216 Y17.1515
G3 X13.1276 Y17.1343 I0.0116 J-0.0056
G1 X13.661 Y16.8775
G3 X13.6782 Y16.8835 I0.0056 J0.0116
G1 X14.7061 Y19.0182
G3 X14.7002 Y19.0349 I-0.0113 J0.0054
G1 X14.0323 Y19.3505
G3 X14.0157 Y19.3446 I-0.0053 J-0.0113
G1 X12.9268 Y17.0833
G3 X12.9327 Y17.0662 I0.0115 J-0.0056
G1 X13.7292 Y16.6827
G3 X13.7463 Y16.6886 I0.0056 J0.0115
G1 X14.8353 Y18.95
G3 X14.8294 Y18.9668 I-0.0112 J0.0055
G1 X13.8981 Y19.4081
G3 X13.8814 Y19.4023 I-0.0054 J-0.0113
G1 X12.7319 Y17.0151
G3 X12.7378 Y16.998 I0.0115 J-0.0056
G1 X13.7974 Y16.4878
G3 X13.8145 Y16.4937 I0.0056 J0.0115
G1 X14.9639 Y18.8806
G3 X14.958 Y18.8973 I-0.0113 J0.0054
G1 X13.7617 Y19.4614
G3 X13.745 Y19.4555 I-0.0054 J-0.0113
G1 X12.537 Y16.9469
G3 X12.543 Y16.9299 I0.0115 J-0.0055
G1 X13.8656 Y16.2929
G3 X13.8827 Y16.2988 I0.0056 J0.0115
G1 X15.0908 Y18.8076
G3 X15.0849 Y18.8243 I-0.0113 J0.0054
G1 X13.6253 Y19.5147
G3 X13.6086 Y19.5088 I-0.0054 J-0.0113
G1 X12.3421 Y16.8787
G3 X12.3481 Y16.8617 I0.0115 J-0.0055
G1 X13.9338 Y16.098
G3 X13.9509 Y16.1039 I0.0056 J0.0115
G1 X15.2175 Y18.7341
G3 X15.2115 Y18.7508 I-0.0113 J0.0054
G1 X13.4876 Y19.5653
G3 X13.471 Y19.5594 I-0.0053 J-0.0113
G1 X12.1472 Y16.8105
G3 X12.1532 Y16.7935 I0.0115 J-0.0055
G1 X14.002 Y15.9031
G3 X14.019 Y15.9091 I0.0055 J0.0115
G1 X15.3429 Y18.658
X15.3971 Y18.7706
X15.3988 Y18.7742 Z0.4101
X15.4005 Y18.7776 Z0.411
X15.402 Y18.7809 Z0.4125
X15.4035 Y18.7839 Z0.4146
X15.4048 Y18.7866 Z0.4171
X15.4059 Y18.7889 Z0.4201
X15.4068 Y18.7907 Z0.4234
X15.4074 Y18.7921 Z0.4271
X15.4078 Y18.7929 Z0.4309
X15.408 Y18.7932 Z0.4348
G0 Z1.1037
X13.5169 Y19.8752
G1 Z0.4323 F25
X13.5168 Y19.875 Z0.4288 F162
X13.5163 Y19.8743 Z0.4253
X13.5155 Y19.8732 Z0.4221
X13.5145 Y19.8717 Z0.4191
X13.5132 Y19.8698 Z0.4164
X13.5117 Y19.8676 Z0.4141
X13.5099 Y19.8651 Z0.4122
X13.5081 Y19.8624 Z0.4109
X13.5061 Y19.8596 Z0.4101
X13.5041 Y19.8567 Z0.4098
X13.334 Y19.6112
X13.332 Y19.6078
X13.272 Y19.4831
X11.9465 Y16.7307
X14.0818 Y15.7024
X15.4073 Y18.4549
X15.4673 Y18.5794
G3 X15.4626 Y18.5955 I-0.0113 J0.0054
G1 X14.4547 Y19.2149
G3 X14.4369 Y19.2097 I-0.0065 J-0.0107
G1 X14.4352 Y19.2061 Z0.4095
X14.4336 Y19.2027 Z0.4086
X14.432 Y19.1994 Z0.4071
X14.4305 Y19.1964 Z0.405
X14.4292 Y19.1937 Z0.4025
X14.4281 Y19.1914 Z0.3995
X14.4272 Y19.1896 Z0.3961
X14.4266 Y19.1882 Z0.3925
X14.4262 Y19.1874 Z0.3887
X14.4261 Y19.1871 Z0.3848
Z0.245
X14.4259 Y19.1869 Z0.2411
X14.4255 Y19.186 Z0.2373
X14.4249 Y19.1847 Z0.2337
X14.424 Y19.1828 Z0.2303
X14.4229 Y19.1805 Z0.2273
X14.4216 Y19.1779 Z0.2248
X14.4201 Y19.1748 Z0.2227
X14.4186 Y19.1716 Z0.2212
X14.4169 Y19.1681 Z0.2203
X14.4152 Y19.1646 Z0.22
X14.4148 Y19.1637
X13.5114 Y17.2879
G3 X13.5174 Y17.2708 I0.0115 J-0.0056
G1 X13.5246 Y17.2673
G3 X13.5417 Y17.2733 I0.0056 J0.0115
G1 X14.4449 Y19.1488
G3 X14.4391 Y19.1655 I-0.0113 J0.0054
G1 X14.2999 Y19.2328
G3 X14.2833 Y19.227 I-0.0054 J-0.0112
G1 X13.3165 Y17.2197
G3 X13.3225 Y17.2026 I0.0115 J-0.0056
G1 X13.5928 Y17.0724
G3 X13.6099 Y17.0784 I0.0056 J0.0115
G1 X14.5764 Y19.0855
G3 X14.5705 Y19.1022 I-0.0112 J0.0054
G1 X14.1662 Y19.2919
G3 X14.1495 Y19.286 I-0.0054 J-0.0113
G1 X13.1216 Y17.1515
G3 X13.1276 Y17.1343 I0.0116 J-0.0056
G1 X13.661 Y16.8775
G3 X13.6782 Y16.8835 I0.0056 J0.0116
G1 X14.7061 Y19.0182
G3 X14.7002 Y19.0349 I-0.0113 J0.0054
G1 X14.0323 Y19.3505
G3 X14.0157 Y19.3446 I-0.0053 J-0.0113
G1 X12.9268 Y17.0833
G3 X12.9327 Y17.0662 I0.0115 J-0.0056
G1 X13.7292 Y16.6827
G3 X13.7463 Y16.6886 I0.0056 J0.0115
G1 X14.8353 Y18.95
G3 X14.8294 Y18.9668 I-0.0112 J0.0055
G1 X13.8981 Y19.4081
G3 X13.8814 Y19.4023 I-0.0054 J-0.0113
G1 X12.7319 Y17.0151
G3 X12.7378 Y16.998 I0.0115 J-0.0056
G1 X13.7974 Y16.4878
G3 X13.8145 Y16.4937 I0.0056 J0.0115
G1 X14.9639 Y18.8806
G3 X14.958 Y18.8973 I-0.0113 J0.0054
G1 X13.7617 Y19.4614
G3 X13.745 Y19.4555 I-0.0054 J-0.0113
G1 X12.537 Y16.9469
G3 X12.543 Y16.9299 I0.0115 J-0.0055
G1 X13.8656 Y16.2929
G3 X13.8827 Y16.2988 I0.0056 J0.0115
G1 X15.0908 Y18.8076
G3 X15.0849 Y18.8243 I-0.0113 J0.0054
G1 X13.6253 Y19.5147
G3 X13.6086 Y19.5088 I-0.0054 J-0.0113
G1 X12.3421 Y16.8787
G3 X12.3481 Y16.8617 I0.0115 J-0.0055
G1 X13.9338 Y16.098
G3 X13.9509 Y16.1039 I0.0056 J0.0115
G1 X15.2175 Y18.7341
G3 X15.2115 Y18.7508 I-0.0113 J0.0054
G1 X13.4876 Y19.5653
G3 X13.471 Y19.5594 I-0.0053 J-0.0113
G1 X12.1472 Y16.8105
G3 X12.1532 Y16.7935 I0.0115 J-0.0055
G1 X14.002 Y15.9031
G3 X14.019 Y15.9091 I0.0055 J0.0115
G1 X15.3429 Y18.658
X15.3971 Y18.7706
X15.3988 Y18.7742 Z0.2203
X15.4005 Y18.7776 Z0.2212
X15.402 Y18.7809 Z0.2227
X15.4035 Y18.7839 Z0.2248
X15.4048 Y18.7866 Z0.2273
X15.4059 Y18.7889 Z0.2303
X15.4068 Y18.7907 Z0.2337
X15.4074 Y18.7921 Z0.2373
X15.4078 Y18.7929 Z0.2411
X15.408 Y18.7932 Z0.245
G0 Z1.1037
X13.5169 Y19.8752
G1 Z0.2425 F25
X13.5168 Y19.875 Z0.239 F162
X13.5163 Y19.8743 Z0.2355
X13.5155 Y19.8732 Z0.2323
X13.5145 Y19.8717 Z0.2293
X13.5132 Y19.8698 Z0.2266
X13.5117 Y19.8676 Z0.2243
X13.5099 Y19.8651 Z0.2225
X13.5081 Y19.8624 Z0.2211
X13.5061 Y19.8596 Z0.2203
X13.5041 Y19.8567 Z0.22
X13.334 Y19.6112
X13.332 Y19.6078
X13.272 Y19.4831
X11.9465 Y16.7307
X14.0818 Y15.7024
X15.4073 Y18.4549
X15.4673 Y18.5794
X15.4687 Y18.5831
X15.5047 Y18.7028
X15.5058 Y18.7065 Z0.2203
X15.5069 Y18.7102 Z0.2212
X15.5079 Y18.7137 Z0.2227
X15.5089 Y18.7169 Z0.2248
X15.5097 Y18.7197 Z0.2273
X15.5105 Y18.7222 Z0.2303
X15.5111 Y18.7241 Z0.2337
X15.5115 Y18.7256 Z0.2373
X15.5118 Y18.7264 Z0.2411
Y18.7267 Z0.245
G0 Z1.3894
X18.1863 Y16.5578
Z1.1037
G1 Z0.6246 F25
X18.186 Y16.5576 Z0.6207 F162
X18.1853 Y16.557 Z0.6169
X18.1842 Y16.5561 Z0.6132
X18.1826 Y16.5548 Z0.6099
X18.1806 Y16.5532 Z0.6069
X18.1782 Y16.5514 Z0.6044
X18.1756 Y16.5493 Z0.6023
X18.1728 Y16.547 Z0.6008
X18.1698 Y16.5447 Z0.5999
X18.1667 Y16.5422 Z0.5996
X17.9401 Y16.3615
X16.3126 Y15.0636
G3 X16.3106 Y15.0456 I0.0079 J-0.01
G1 X16.3156 Y15.0393
G3 X16.3336 Y15.0373 I0.01 J0.008
G1 X17.961 Y16.3352
G3 X17.9629 Y16.3527 I-0.0078 J0.0097
G1 X17.868 Y16.4724
G3 X17.8504 Y16.4744 I-0.0098 J-0.0077
G1 X17.6878 Y16.3447
X16.1074 Y15.0867
G3 X16.1054 Y15.0687 I0.008 J-0.01
G1 X16.2925 Y14.8342
G3 X16.3103 Y14.8322 I0.0099 J0.0079
G1 X18.0521 Y16.2211
G3 X18.0539 Y16.2387 I-0.0078 J0.0097
G1 X17.7721 Y16.5852
G3 X17.7546 Y16.5871 I-0.0097 J-0.0079
G1 X15.9022 Y15.1098
G3 X15.9002 Y15.0918 I0.008 J-0.01
G1 X16.2693 Y14.629
G3 X16.2873 Y14.627 I0.01 J0.0079
G1 X18.1397 Y16.1042
G3 X18.1417 Y16.1219 I-0.0078 J0.0098
G1 X17.6778 Y16.6944
G3 X17.6603 Y16.6963 I-0.0097 J-0.0078
G1 X17.5058 Y16.573
X15.6971 Y15.1329
G3 X15.695 Y15.115 I0.0079 J-0.01
G1 X16.2462 Y14.4238
G3 X16.2642 Y14.4218 I0.01 J0.008
G1 X18.2266 Y15.9867
G3 X18.2285 Y16.0044 I-0.0078 J0.0098
G1 X17.5809 Y16.8061
G3 X17.5634 Y16.808 I-0.0097 J-0.0078
G1 X15.4919 Y15.1561
G3 X15.4899 Y15.1381 I0.0079 J-0.01
G1 X16.2231 Y14.2186
G3 X16.2411 Y14.2166 I0.01 J0.008
G1 X18.3123 Y15.8683
G3 X18.3142 Y15.886 I-0.0078 J0.0098
G1 X17.482 Y16.9118
G3 X17.4645 Y16.9137 I-0.0097 J-0.0079
G1 X17.3237 Y16.8013
X15.2867 Y15.1792
G3 X15.2847 Y15.1612 I0.008 J-0.01
G1 X16.2 Y14.0134
G3 X16.218 Y14.0114 I0.01 J0.008
G1 X18.3949 Y15.7475
G3 X18.3969 Y15.7651 I-0.0078 J0.0098
G1 X17.3813 Y17.0204
G3 X17.3638 Y17.0223 I-0.0097 J-0.0078
G1 X15.0815 Y15.2023
G3 X15.0795 Y15.1843 I0.008 J-0.01
G1 X16.1769 Y13.8083
G3 X16.1948 Y13.8062 I0.01 J0.0079
G1 X18.4772 Y15.6264
G3 X18.4791 Y15.644 I-0.0078 J0.0097
G1 X17.2805 Y17.1245
G3 X17.2629 Y17.1265 I-0.0098 J-0.0079
G1 X17.1417 Y17.0296
X14.8763 Y15.2254
G3 X14.8743 Y15.2074 I0.008 J-0.01
G1 X16.1538 Y13.6031
G3 X16.1716 Y13.6012 I0.0099 J0.008
G1 X18.5572 Y15.5034
X18.6549 Y15.5813
X18.6579 Y15.5838 Z0.5999
X18.6609 Y15.5862 Z0.6008
X18.6638 Y15.5884 Z0.6023
X18.6664 Y15.5905 Z0.6044
X18.6687 Y15.5924 Z0.6069
X18.6707 Y15.5939 Z0.6099
X18.6723 Y15.5952 Z0.6132
X18.6735 Y15.5962 Z0.6169
X18.6742 Y15.5967 Z0.6207
X18.6744 Y15.5969 Z0.6246
G0 Z1.1037
X17.4404 Y17.3924
G1 Z0.6221 F25
X17.4402 Y17.3923 Z0.6186 F162
X17.4395 Y17.3919 Z0.6151
X17.4383 Y17.3912 Z0.6119
X17.4367 Y17.3903 Z0.6089
X17.4347 Y17.3891 Z0.6062
X17.4324 Y17.3878 Z0.6039
X17.4297 Y17.3863 Z0.602
X17.4269 Y17.3847 Z0.6007
X17.4239 Y17.383 Z0.5999
X17.4209 Y17.3813 Z0.5996
X17.1605 Y17.2336
X17.1573 Y17.2314
X17.0494 Y17.1453
X14.6609 Y15.2406
X16.1386 Y13.3877
X18.5271 Y15.2924
X18.6351 Y15.3786
G3 X18.6379 Y15.3951 I-0.0078 J0.0098
G1 X17.9983 Y16.3903
G3 X17.98 Y16.3933 I-0.0105 J-0.0068
G1 X17.9769 Y16.3908 Z0.5993
X17.9739 Y16.3885 Z0.5984
X17.9711 Y16.3862 Z0.5969
X17.9685 Y16.3841 Z0.5948
X17.9662 Y16.3823 Z0.5923
X17.9642 Y16.3807 Z0.5893
X17.9626 Y16.3794 Z0.5859
X17.9614 Y16.3785 Z0.5823
X17.9607 Y16.3779 Z0.5785
X17.9604 Y16.3777 Z0.5746
Z0.4348
X17.9602 Y16.3775 Z0.4309
X17.9595 Y16.3769 Z0.4271
X17.9583 Y16.376 Z0.4234
X17.9567 Y16.3747 Z0.4201
X17.9547 Y16.3731 Z0.4171
X17.9524 Y16.3713 Z0.4146
X17.9498 Y16.3692 Z0.4125
X17.9469 Y16.3669 Z0.411
X17.9439 Y16.3645 Z0.4101
X17.9409 Y16.3621 Z0.4098
X17.9401 Y16.3615
X16.3126 Y15.0636
G3 X16.3106 Y15.0456 I0.0079 J-0.01
G1 X16.3156 Y15.0393
G3 X16.3336 Y15.0373 I0.01 J0.008
G1 X17.961 Y16.3352
G3 X17.9629 Y16.3527 I-0.0078 J0.0097
G1 X17.868 Y16.4724
G3 X17.8504 Y16.4744 I-0.0098 J-0.0077
G1 X17.6878 Y16.3447
X16.1074 Y15.0867
G3 X16.1054 Y15.0687 I0.008 J-0.01
G1 X16.2925 Y14.8342
G3 X16.3103 Y14.8322 I0.0099 J0.0079
G1 X18.0521 Y16.2211
G3 X18.0539 Y16.2387 I-0.0078 J0.0097
G1 X17.7721 Y16.5852
G3 X17.7546 Y16.5871 I-0.0097 J-0.0079
G1 X15.9022 Y15.1098
G3 X15.9002 Y15.0918 I0.008 J-0.01
G1 X16.2693 Y14.629
G3 X16.2873 Y14.627 I0.01 J0.0079
G1 X18.1397 Y16.1042
G3 X18.1417 Y16.1219 I-0.0078 J0.0098
G1 X17.6778 Y16.6944
G3 X17.6603 Y16.6963 I-0.0097 J-0.0078
G1 X17.5058 Y16.573
X15.6971 Y15.1329
G3 X15.695 Y15.115 I0.0079 J-0.01
G1 X16.2462 Y14.4238
G3 X16.2642 Y14.4218 I0.01 J0.008
G1 X18.2266 Y15.9867
G3 X18.2285 Y16.0044 I-0.0078 J0.0098
G1 X17.5809 Y16.8061
G3 X17.5634 Y16.808 I-0.0097 J-0.0078
G1 X15.4919 Y15.1561
G3 X15.4899 Y15.1381 I0.0079 J-0.01
G1 X16.2231 Y14.2186
G3 X16.2411 Y14.2166 I0.01 J0.008
G1 X18.3123 Y15.8683
G3 X18.3142 Y15.886 I-0.0078 J0.0098
G1 X17.482 Y16.9118
G3 X17.4645 Y16.9137 I-0.0097 J-0.0079
G1 X17.3237 Y16.8013
X15.2867 Y15.1792
G3 X15.2847 Y15.1612 I0.008 J-0.01
G1 X16.2 Y14.0134
G3 X16.218 Y14.0114 I0.01 J0.008
G1 X18.3949 Y15.7475
G3 X18.3969 Y15.7651 I-0.0078 J0.0098
G1 X17.3813 Y17.0204
G3 X17.3638 Y17.0223 I-0.0097 J-0.0078
G1 X15.0815 Y15.2023
G3 X15.0795 Y15.1843 I0.008 J-0.01
G1 X16.1769 Y13.8083
G3 X16.1948 Y13.8062 I0.01 J0.0079
G1 X18.4772 Y15.6264
G3 X18.4791 Y15.644 I-0.0078 J0.0097
G1 X17.2805 Y17.1245
G3 X17.2629 Y17.1265 I-0.0098 J-0.0079
G1 X17.1417 Y17.0296
X14.8763 Y15.2254
G3 X14.8743 Y15.2074 I0.008 J-0.01
G1 X16.1538 Y13.6031
G3 X16.1716 Y13.6012 I0.0099 J0.008
G1 X18.5572 Y15.5034
X18.6549 Y15.5813
X18.6579 Y15.5838 Z0.4101
X18.6609 Y15.5862 Z0.411
X18.6638 Y15.5884 Z0.4125
X18.6664 Y15.5905 Z0.4146
X18.6687 Y15.5924 Z0.4171
X18.6707 Y15.5939 Z0.4201
X18.6723 Y15.5952 Z0.4234
X18.6735 Y15.5962 Z0.4271
X18.6742 Y15.5967 Z0.4309
X18.6744 Y15.5969 Z0.4348
G0 Z1.1037
X17.4404 Y17.3924
G1 Z0.4323 F25
X17.4402 Y17.3923 Z0.4288 F162
X17.4395 Y17.3919 Z0.4253
X17.4383 Y17.3912 Z0.4221
X17.4367 Y17.3903 Z0.4191
X17.4347 Y17.3891 Z0.4164
X17.4324 Y17.3878 Z0.4141
X17.4297 Y17.3863 Z0.4122
X17.4269 Y17.3847 Z0.4109
X17.4239 Y17.383 Z0.4101
X17.4209 Y17.3813 Z0.4098
X17.1605 Y17.2336
X17.1573 Y17.2314
X17.0494 Y17.1453
X14.6609 Y15.2406
X16.1386 Y13.3877
X18.5271 Y15.2924
X18.6351 Y15.3786
G3 X18.6379 Y15.3951 I-0.0078 J0.0098
G1 X17.9983 Y16.3903
G3 X17.98 Y16.3933 I-0.0105 J-0.0068
G1 X17.9769 Y16.3908 Z0.4095
X17.9739 Y16.3885 Z0.4086
X17.9711 Y16.3862 Z0.4071
X17.9685 Y16.3841 Z0.405
X17.9662 Y16.3823 Z0.4025
X17.9642 Y16.3807 Z0.3995
X17.9626 Y16.3794 Z0.3961
X17.9614 Y16.3785 Z0.3925
X17.9607 Y16.3779 Z0.3887
X17.9604 Y16.3777 Z0.3848
Z0.245
X17.9602 Y16.3775 Z0.2411
X17.9595 Y16.3769 Z0.2373
X17.9583 Y16.376 Z0.2337
X17.9567 Y16.3747 Z0.2303
X17.9547 Y16.3731 Z0.2273
X17.9524 Y16.3713 Z0.2248
X17.9498 Y16.3692 Z0.2227
X17.9469 Y16.3669 Z0.2212
X17.9439 Y16.3645 Z0.2203
X17.9409 Y16.3621 Z0.22
X17.9401 Y16.3615
X16.3126 Y15.0636
G3 X16.3106 Y15.0456 I0.0079 J-0.01
G1 X16.3156 Y15.0393
G3 X16.3336 Y15.0373 I0.01 J0.008
G1 X17.961 Y16.3352
G3 X17.9629 Y16.3527 I-0.0078 J0.0097
G1 X17.868 Y16.4724
G3 X17.8504 Y16.4744 I-0.0098 J-0.0077
G1 X17.6878 Y16.3447
X16.1074 Y15.0867
G3 X16.1054 Y15.0687 I0.008 J-0.01
G1 X16.2925 Y14.8342
G3 X16.3103 Y14.8322 I0.0099 J0.0079
G1 X18.0521 Y16.2211
G3 X18.0539 Y16.2387 I-0.0078 J0.0097
G1 X17.7721 Y16.5852
G3 X17.7546 Y16.5871 I-0.0097 J-0.0079
G1 X15.9022 Y15.1098
G3 X15.9002 Y15.0918 I0.008 J-0.01
G1 X16.2693 Y14.629
G3 X16.2873 Y14.627 I0.01 J0.0079
G1 X18.1397 Y16.1042
G3 X18.1417 Y16.1219 I-0.0078 J0.0098
G1 X17.6778 Y16.6944
G3 X17.6603 Y16.6963 I-0.0097 J-0.0078
G1 X17.5058 Y16.573
X15.6971 Y15.1329
G3 X15.695 Y15.115 I0.0079 J-0.01
G1 X16.2462 Y14.4238
G3 X16.2642 Y14.4218 I0.01 J0.008
G1 X18.2266 Y15.9867
G3 X18.2285 Y16.0044 I-0.0078 J0.0098
G1 X17.5809 Y16.8061
G3 X17.5634 Y16.808 I-0.0097 J-0.0078
G1 X15.4919 Y15.1561
G3 X15.4899 Y15.1381 I0.0079 J-0.01
G1 X16.2231 Y14.2186
G3 X16.2411 Y14.2166 I0.01 J0.008
G1 X18.3123 Y15.8683
G3 X18.3142 Y15.886 I-0.0078 J0.0098
G1 X17.482 Y16.9118
G3 X17.4645 Y16.9137 I-0.0097 J-0.0079
G1 X17.3237 Y16.8013
X15.2867 Y15.1792
G3 X15.2847 Y15.1612 I0.008 J-0.01
G1 X16.2 Y14.0134
G3 X16.218 Y14.0114 I0.01 J0.008
G1 X18.3949 Y15.7475
G3 X18.3969 Y15.7651 I-0.0078 J0.0098
G1 X17.3813 Y17.0204
G3 X17.3638 Y17.0223 I-0.0097 J-0.0078
G1 X15.0815 Y15.2023
G3 X15.0795 Y15.1843 I0.008 J-0.01
G1 X16.1769 Y13.8083
G3 X16.1948 Y13.8062 I0.01 J0.0079
G1 X18.4772 Y15.6264
G3 X18.4791 Y15.644 I-0.0078 J0.0097
G1 X17.2805 Y17.1245
G3 X17.2629 Y17.1265 I-0.0098 J-0.0079
G1 X17.1417 Y17.0296
X14.8763 Y15.2254
G3 X14.8743 Y15.2074 I0.008 J-0.01
G1 X16.1538 Y13.6031
G3 X16.1716 Y13.6012 I0.0099 J0.008
G1 X18.5572 Y15.5034
X18.6549 Y15.5813
X18.6579 Y15.5838 Z0.2203
X18.6609 Y15.5862 Z0.2212
X18.6638 Y15.5884 Z0.2227
X18.6664 Y15.5905 Z0.2248
X18.6687 Y15.5924 Z0.2273
X18.6707 Y15.5939 Z0.2303
X18.6723 Y15.5952 Z0.2337
X18.6735 Y15.5962 Z0.2373
X18.6742 Y15.5967 Z0.2411
X18.6744 Y15.5969 Z0.245
G0 Z1.1037
X17.4404 Y17.3924
G1 Z0.2425 F25
X17.4402 Y17.3923 Z0.239 F162
X17.4395 Y17.3919 Z0.2355
X17.4383 Y17.3912 Z0.2323
X17.4367 Y17.3903 Z0.2293
X17.4347 Y17.3891 Z0.2266
X17.4324 Y17.3878 Z0.2243
X17.4297 Y17.3863 Z0.2225
X17.4269 Y17.3847 Z0.2211
X17.4239 Y17.383 Z0.2203
X17.4209 Y17.3813 Z0.22
X17.1605 Y17.2336
X17.1573 Y17.2314
X17.0494 Y17.1453
X14.6609 Y15.2406
X16.1386 Y13.3877
X18.5271 Y15.2924
X18.6351 Y15.3786
X18.638 Y15.3813
X18.7223 Y15.4735
X18.725 Y15.4764 Z0.2203
X18.7276 Y15.4792 Z0.2212
X18.73 Y15.4819 Z0.2227
X18.7323 Y15.4844 Z0.2248
X18.7343 Y15.4866 Z0.2273
X18.736 Y15.4885 Z0.2303
X18.7374 Y15.49 Z0.2337
X18.7384 Y15.4911 Z0.2373
X18.739 Y15.4918 Z0.2411
X18.7392 Y15.492 Z0.245
G0 Z1.3894
X20.2078 Y12.3758
Z1.1037
G1 Z0.6246 F25
X20.2075 Z0.6207 F162
X20.2066 Y12.3756 Z0.6169
X20.2051 Y12.3752 Z0.6132
X20.2031 Y12.3748 Z0.6099
X20.2006 Y12.3742 Z0.6069
X20.1977 Y12.3736 Z0.6044
X20.1945 Y12.3728 Z0.6023
X20.1909 Y12.372 Z0.6008
X20.1872 Y12.3711 Z0.5999
X20.1834 Y12.3703 Z0.5996
X19.9012 Y12.3057
X19.6987 Y12.2594
X17.8713 Y11.8442
G3 X17.8616 Y11.8289 I0.0028 J-0.0125
G1 X17.8635 Y11.821
G3 X17.8787 Y11.8115 I0.0124 J0.0029
G1 X19.9082 Y12.2746
G3 X19.9176 Y12.2896 I-0.0028 J0.0122
G1 X19.8839 Y12.4387
G3 X19.8689 Y12.4481 I-0.0122 J-0.0028
G1 X19.6662 Y12.4018
X17.6964 Y11.954
G3 X17.6869 Y11.9387 I0.0029 J-0.0124
G1 X17.7536 Y11.6462
G3 X17.7689 Y11.6366 I0.0125 J0.0029
G1 X19.9407 Y12.1323
G3 X19.9501 Y12.1474 I-0.0028 J0.0122
G1 X19.8468 Y12.5801
G3 X19.8319 Y12.5893 I-0.0121 J-0.0029
G1 X19.6337 Y12.5441
X17.5216 Y12.0639
G3 X17.512 Y12.0486 I0.0029 J-0.0125
G1 X17.6437 Y11.4714
G3 X17.6591 Y11.4617 I0.0125 J0.0028
G1 X19.969 Y11.989
G3 X19.9784 Y12.0041 I-0.0028 J0.0122
G1 X19.8085 Y12.7229
G3 X19.7935 Y12.7322 I-0.0122 J-0.0029
G1 X17.3468 Y12.1737
G3 X17.3372 Y12.1584 I0.0028 J-0.0124
G1 X17.5339 Y11.2966
G3 X17.5492 Y11.2869 I0.0125 J0.0028
G1 X19.9963 Y11.8455
G3 X20.0057 Y11.8605 I-0.0028 J0.0122
G1 X19.77 Y12.8638
G3 X19.7551 Y12.8731 I-0.0121 J-0.0028
G1 X17.172 Y12.2836
G3 X17.1623 Y12.2683 I0.0028 J-0.0125
G1 X17.424 Y11.1217
G3 X17.4394 Y11.1121 I0.0125 J0.0029
G1 X20.0221 Y11.7016
G3 X20.0315 Y11.7167 I-0.0028 J0.0122
G1 X19.7263 Y13.0036
G3 X19.7114 Y13.0129 I-0.0121 J-0.0028
G1 X16.9971 Y12.3934
G3 X16.9876 Y12.3782 I0.0029 J-0.0124
G1 X17.3142 Y10.9469
G3 X17.3295 Y10.9373 I0.0124 J0.0028
G1 X20.0441 Y11.5569
G3 X20.0536 Y11.572 I-0.0027 J0.0122
G1 X19.6831 Y13.1435
G3 X19.6681 Y13.1529 I-0.0122 J-0.0028
G1 X16.8223 Y12.5033
G3 X16.8126 Y12.488 I0.0028 J-0.0125
G1 X17.2043 Y10.7721
G3 X17.2197 Y10.7624 I0.0125 J0.0028
G1 X20.0657 Y11.4121
G3 X20.0751 Y11.4271 I-0.0028 J0.0122
G1 X19.637 Y13.2828
G3 X19.6221 Y13.2921 I-0.0122 J-0.0029
G1 X16.6475 Y12.6131
G3 X16.6379 Y12.5979 I0.0028 J-0.0124
G1 X17.0945 Y10.5972
G3 X17.1098 Y10.5877 I0.0124 J0.0029
G1 X20.0844 Y11.2666
X20.2063 Y11.2944
X20.2101 Y11.2953 Z0.5999
X20.2138 Y11.2961 Z0.6008
X20.2173 Y11.2969 Z0.6023
X20.2206 Y11.2977 Z0.6044
X20.2235 Y11.2983 Z0.6069
X20.226 Y11.2989 Z0.6099
X20.228 Y11.2993 Z0.6132
X20.2294 Y11.2997 Z0.6169
X20.2303 Y11.2999 Z0.6207
X20.2306 Y11.3 Z0.6246
G0 Z1.1037
X19.8983 Y13.4531
G1 Z0.6221 F25
X19.898 Y13.453 Z0.6186 F162
X19.8972 Z0.6151
X19.8958 Y13.4529 Z0.6119
X19.894 Y13.4528 Z0.6089
X19.8917 Y13.4526 Z0.6062
X19.889 Y13.4524 Z0.6039
X19.886 Y13.4522 Z0.602
X19.8827 Y13.452 Z0.6007
X19.8793 Y13.4518 Z0.5999
X19.8758 Y13.4515 Z0.5996
X19.5769 Y13.4314
X19.573 Y13.4308
X19.4384 Y13.4001
X16.46 Y12.7203
X16.9873 Y10.4097
X19.9657 Y11.0895
X20.1005 Y11.1203
G3 X20.1101 Y11.134 I-0.0028 J0.0122
G1 X19.966 Y12.3064
G3 X19.9508 Y12.3171 I-0.0124 J-0.0015
G1 X19.947 Y12.3162 Z0.5993
X19.9433 Y12.3154 Z0.5984
X19.9398 Y12.3146 Z0.5969
X19.9365 Y12.3138 Z0.5948
X19.9336 Y12.3131 Z0.5923
X19.9311 Y12.3126 Z0.5893
X19.9291 Y12.3121 Z0.5859
X19.9277 Y12.3118 Z0.5823
X19.9268 Y12.3116 Z0.5785
X19.9265 Y12.3115 Z0.5746
Z0.4348
X19.9262 Y12.3114 Z0.4309
X19.9253 Y12.3112 Z0.4271
X19.9238 Y12.3109 Z0.4234
X19.9218 Y12.3104 Z0.4201
X19.9193 Y12.3099 Z0.4171
X19.9164 Y12.3092 Z0.4146
X19.9132 Y12.3085 Z0.4125
X19.9096 Y12.3077 Z0.411
X19.9059 Y12.3068 Z0.4101
X19.9021 Y12.3059 Z0.4098
X19.9012 Y12.3057
X19.6987 Y12.2594
X17.8713 Y11.8442
G3 X17.8616 Y11.8289 I0.0028 J-0.0125
G1 X17.8635 Y11.821
G3 X17.8787 Y11.8115 I0.0124 J0.0029
G1 X19.9082 Y12.2746
G3 X19.9176 Y12.2896 I-0.0028 J0.0122
G1 X19.8839 Y12.4387
G3 X19.8689 Y12.4481 I-0.0122 J-0.0028
G1 X19.6662 Y12.4018
X17.6964 Y11.954
G3 X17.6869 Y11.9387 I0.0029 J-0.0124
G1 X17.7536 Y11.6462
G3 X17.7689 Y11.6366 I0.0125 J0.0029
G1 X19.9407 Y12.1323
G3 X19.9501 Y12.1474 I-0.0028 J0.0122
G1 X19.8468 Y12.5801
G3 X19.8319 Y12.5893 I-0.0121 J-0.0029
G1 X19.6337 Y12.5441
X17.5216 Y12.0639
G3 X17.512 Y12.0486 I0.0029 J-0.0125
G1 X17.6437 Y11.4714
G3 X17.6591 Y11.4617 I0.0125 J0.0028
G1 X19.969 Y11.989
G3 X19.9784 Y12.0041 I-0.0028 J0.0122
G1 X19.8085 Y12.7229
G3 X19.7935 Y12.7322 I-0.0122 J-0.0029
G1 X17.3468 Y12.1737
G3 X17.3372 Y12.1584 I0.0028 J-0.0124
G1 X17.5339 Y11.2966
G3 X17.5492 Y11.2869 I0.0125 J0.0028
G1 X19.9963 Y11.8455
G3 X20.0057 Y11.8605 I-0.0028 J0.0122
G1 X19.77 Y12.8638
G3 X19.7551 Y12.8731 I-0.0121 J-0.0028
G1 X17.172 Y12.2836
G3 X17.1623 Y12.2683 I0.0028 J-0.0125
G1 X17.424 Y11.1217
G3 X17.4394 Y11.1121 I0.0125 J0.0029
G1 X20.0221 Y11.7016
G3 X20.0315 Y11.7167 I-0.0028 J0.0122
G1 X19.7263 Y13.0036
G3 X19.7114 Y13.0129 I-0.0121 J-0.0028
G1 X16.9971 Y12.3934
G3 X16.9876 Y12.3782 I0.0029 J-0.0124
G1 X17.3142 Y10.9469
G3 X17.3295 Y10.9373 I0.0124 J0.0028
G1 X20.0441 Y11.5569
G3 X20.0536 Y11.572 I-0.0027 J0.0122
G1 X19.6831 Y13.1435
G3 X19.6681 Y13.1529 I-0.0122 J-0.0028
G1 X16.8223 Y12.5033
G3 X16.8126 Y12.488 I0.0028 J-0.0125
G1 X17.2043 Y10.7721
G3 X17.2197 Y10.7624 I0.0125 J0.0028
G1 X20.0657 Y11.4121
G3 X20.0751 Y11.4271 I-0.0028 J0.0122
G1 X19.637 Y13.2828
G3 X19.6221 Y13.2921 I-0.0122 J-0.0029
G1 X16.6475 Y12.6131
G3 X16.6379 Y12.5979 I0.0028 J-0.0124
G1 X17.0945 Y10.5972
G3 X17.1098 Y10.5877 I0.0124 J0.0029
G1 X20.0844 Y11.2666
X20.2063 Y11.2944
X20.2101 Y11.2953 Z0.4101
X20.2138 Y11.2961 Z0.411
X20.2173 Y11.2969 Z0.4125
X20.2206 Y11.2977 Z0.4146
X20.2235 Y11.2983 Z0.4171
X20.226 Y11.2989 Z0.4201
X20.228 Y11.2993 Z0.4234
X20.2294 Y11.2997 Z0.4271
X20.2303 Y11.2999 Z0.4309
X20.2306 Y11.3 Z0.4348
G0 Z1.1037
X19.8983 Y13.4531
G1 Z0.4323 F25
X19.898 Y13.453 Z0.4288 F162
X19.8972 Z0.4253
X19.8958 Y13.4529 Z0.4221
X19.894 Y13.4528 Z0.4191
X19.8917 Y13.4526 Z0.4164
X19.889 Y13.4524 Z0.4141
X19.886 Y13.4522 Z0.4122
X19.8827 Y13.452 Z0.4109
X19.8793 Y13.4518 Z0.4101
X19.8758 Y13.4515 Z0.4098
X19.5769 Y13.4314
X19.573 Y13.4308
X19.4384 Y13.4001
X16.46 Y12.7203
X16.9873 Y10.4097
X19.9657 Y11.0895
X20.1005 Y11.1203
G3 X20.1101 Y11.134 I-0.0028 J0.0122
G1 X19.966 Y12.3064
G3 X19.9508 Y12.3171 I-0.0124 J-0.0015
G1 X19.947 Y12.3162 Z0.4095
X19.9433 Y12.3154 Z0.4086
X19.9398 Y12.3146 Z0.4071
X19.9365 Y12.3138 Z0.405
X19.9336 Y12.3131 Z0.4025
X19.9311 Y12.3126 Z0.3995
X19.9291 Y12.3121 Z0.3961
X19.9277 Y12.3118 Z0.3925
X19.9268 Y12.3116 Z0.3887
X19.9265 Y12.3115 Z0.3848
Z0.245
X19.9262 Y12.3114 Z0.2411
X19.9253 Y12.3112 Z0.2373
X19.9238 Y12.3109 Z0.2337
X19.9218 Y12.3104 Z0.2303
X19.9193 Y12.3099 Z0.2273
X19.9164 Y12.3092 Z0.2248
X19.9132 Y12.3085 Z0.2227
X19.9096 Y12.3077 Z0.2212
X19.9059 Y12.3068 Z0.2203
X19.9021 Y12.3059 Z0.22
X19.9012 Y12.3057
X19.6987 Y12.2594
X17.8713 Y11.8442
G3 X17.8616 Y11.8289 I0.0028 J-0.0125
G1 X17.8635 Y11.821
G3 X17.8787 Y11.8115 I0.0124 J0.0029
G1 X19.9082 Y12.2746
G3 X19.9176 Y12.2896 I-0.0028 J0.0122
G1 X19.8839 Y12.4387
G3 X19.8689 Y12.4481 I-0.0122 J-0.0028
G1 X19.6662 Y12.4018
X17.6964 Y11.954
G3 X17.6869 Y11.9387 I0.0029 J-0.0124
G1 X17.7536 Y11.6462
G3 X17.7689 Y11.6366 I0.0125 J0.0029
G1 X19.9407 Y12.1323
G3 X19.9501 Y12.1474 I-0.0028 J0.0122
G1 X19.8468 Y12.5801
G3 X19.8319 Y12.5893 I-0.0121 J-0.0029
G1 X19.6337 Y12.5441
X17.5216 Y12.0639
G3 X17.512 Y12.0486 I0.0029 J-0.0125
G1 X17.6437 Y11.4714
G3 X17.6591 Y11.4617 I0.0125 J0.0028
G1 X19.969 Y11.989
G3 X19.9784 Y12.0041 I-0.0028 J0.0122
G1 X19.8085 Y12.7229
G3 X19.7935 Y12.7322 I-0.0122 J-0.0029
G1 X17.3468 Y12.1737
G3 X17.3372 Y12.1584 I0.0028 J-0.0124
G1 X17.5339 Y11.2966
G3 X17.5492 Y11.2869 I0.0125 J0.0028
G1 X19.9963 Y11.8455
G3 X20.0057 Y11.8605 I-0.0028 J0.0122
G1 X19.77 Y12.8638
G3 X19.7551 Y12.8731 I-0.0121 J-0.0028
G1 X17.172 Y12.2836
G3 X17.1623 Y12.2683 I0.0028 J-0.0125
G1 X17.424 Y11.1217
G3 X17.4394 Y11.1121 I0.0125 J0.0029
G1 X20.0221 Y11.7016
G3 X20.0315 Y11.7167 I-0.0028 J0.0122
G1 X19.7263 Y13.0036
G3 X19.7114 Y13.0129 I-0.0121 J-0.0028
G1 X16.9971 Y12.3934
G3 X16.9876 Y12.3782 I0.0029 J-0.0124
G1 X17.3142 Y10.9469
G3 X17.3295 Y10.9373 I0.0124 J0.0028
G1 X20.0441 Y11.5569
G3 X20.0536 Y11.572 I-0.0027 J0.0122
G1 X19.6831 Y13.1435
G3 X19.6681 Y13.1529 I-0.0122 J-0.0028
G1 X16.8223 Y12.5033
G3 X16.8126 Y12.488 I0.0028 J-0.0125
G1 X17.2043 Y10.7721
G3 X17.2197 Y10.7624 I0.0125 J0.0028
G1 X20.0657 Y11.4121
G3 X20.0751 Y11.4271 I-0.0028 J0.0122
G1 X19.637 Y13.2828
G3 X19.6221 Y13.2921 I-0.0122 J-0.0029
G1 X16.6475 Y12.6131
G3 X16.6379 Y12.5979 I0.0028 J-0.0124
G1 X17.0945 Y10.5972
G3 X17.1098 Y10.5877 I0.0124 J0.0029
G1 X20.0844 Y11.2666
X20.2063 Y11.2944
X20.2101 Y11.2953 Z0.2203
X20.2138 Y11.2961 Z0.2212
X20.2173 Y11.2969 Z0.2227
X20.2206 Y11.2977 Z0.2248
X20.2235 Y11.2983 Z0.2273
X20.226 Y11.2989 Z0.2303
X20.228 Y11.2993 Z0.2337
X20.2294 Y11.2997 Z0.2373
X20.2303 Y11.2999 Z0.2411
X20.2306 Y11.3 Z0.245
G0 Z1.1037
X19.8983 Y13.4531
G1 Z0.2425 F25
X19.898 Y13.453 Z0.239 F162
X19.8972 Z0.2355
X19.8958 Y13.4529 Z0.2323
X19.894 Y13.4528 Z0.2293
X19.8917 Y13.4526 Z0.2266
X19.889 Y13.4524 Z0.2243
X19.886 Y13.4522 Z0.2225
X19.8827 Y13.452 Z0.2211
X19.8793 Y13.4518 Z0.2203
X19.8758 Y13.4515 Z0.22
X19.5769 Y13.4314
X19.573 Y13.4308
X19.4384 Y13.4001
X16.46 Y12.7203
X16.9873 Y10.4097
X19.9657 Y11.0895
X20.1005 Y11.1203
X20.1042 Y11.1214
X20.2202 Y11.168
X20.2239 Y11.1694 Z0.2203
X20.2274 Y11.1709 Z0.2212
X20.2308 Y11.1722 Z0.2227
X20.2339 Y11.1734 Z0.2248
X20.2366 Y11.1746 Z0.2273
X20.239 Y11.1755 Z0.2303
X20.2409 Y11.1763 Z0.2337
X20.2423 Y11.1768 Z0.2373
X20.2432 Y11.1772 Z0.2411
X20.2434 Y11.1773 Z0.245
G0 Z1.3894
X20.2138 Y7.7344
Z1.1037
G1 Z0.6246 F25
X20.2135 Z0.6207 F162
X20.2126 Y7.7346 Z0.6169
X20.2111 Y7.735 Z0.6132
X20.2091 Y7.7354 Z0.6099
X20.2066 Y7.736 Z0.6069
X20.2037 Y7.7366 Z0.6044
X20.2005 Y7.7374 Z0.6023
X20.1969 Y7.7382 Z0.6008
X20.1932 Y7.739 Z0.5999
X20.1894 Y7.7399 Z0.5996
X19.9083 Y7.8041
X17.8787 Y8.2673
G3 X17.8635 Y8.2577 I-0.0028 J-0.0124
G1 X17.8617 Y8.2499
G3 X17.8713 Y8.2346 I0.0124 J-0.0029
G1 X19.6987 Y7.8193
X19.9013 Y7.773
G3 X19.9163 Y7.7824 I0.0028 J0.0122
G1 X19.9502 Y7.9314
G3 X19.9408 Y7.9464 I-0.0122 J0.0028
G1 X17.7689 Y8.4421
G3 X17.7537 Y8.4325 I-0.0028 J-0.0124
G1 X17.6868 Y8.14
G3 X17.6964 Y8.1247 I0.0125 J-0.0028
G1 X19.6662 Y7.677
X19.8688 Y7.6306
G3 X19.8838 Y7.6402 I0.0028 J0.0122
G1 X19.9782 Y8.0749
G3 X19.9688 Y8.0898 I-0.0122 J0.0027
G1 X17.659 Y8.617
G3 X17.6437 Y8.6074 I-0.0028 J-0.0125
G1 X17.512 Y8.0302
G3 X17.5216 Y8.0148 I0.0125 J-0.0029
G1 X19.6337 Y7.5346
X19.832 Y7.4893
G3 X19.847 Y7.4988 I0.0028 J0.0122
G1 X20.0057 Y8.2184
G3 X19.9963 Y8.2333 I-0.0122 J0.0027
G1 X17.5492 Y8.7918
G3 X17.5339 Y8.7822 I-0.0028 J-0.0125
G1 X17.3372 Y7.9203
G3 X17.3468 Y7.9051 I0.0124 J-0.0028
G1 X19.6013 Y7.3923
X19.7943 Y7.3482
G3 X19.8092 Y7.3577 I0.0028 J0.0121
G1 X20.0318 Y8.3622
G3 X20.0224 Y8.3771 I-0.0122 J0.0027
G1 X17.4393 Y8.9666
G3 X17.4241 Y8.957 I-0.0028 J-0.0124
G1 X17.1623 Y7.8104
G3 X17.172 Y7.7951 I0.0125 J-0.0028
G1 X19.7547 Y7.2057
G3 X19.7696 Y7.2152 I0.0028 J0.0121
G1 X20.0535 Y8.507
G3 X20.0441 Y8.5219 I-0.0122 J0.0027
G1 X17.3295 Y9.1414
G3 X17.3142 Y9.1318 I-0.0029 J-0.0124
G1 X16.9875 Y7.7006
G3 X16.9971 Y7.6853 I0.0125 J-0.0028
G1 X19.7118 Y7.0657
G3 X19.7268 Y7.0752 I0.0028 J0.0122
G1 X20.0748 Y8.6519
G3 X20.0654 Y8.6668 I-0.0122 J0.0027
G1 X17.2196 Y9.3163
G3 X17.2043 Y9.3067 I-0.0028 J-0.0125
G1 X16.8127 Y7.5907
